; generated by Slic3r 0.9.8 on 2013-02-08 at 07:57:58

; layer_height = 0.3
; perimeters = 3
; top_solid_layers = 3
; bottom_solid_layers = 3
; fill_density = 0.1
; perimeter_speed = 40
; infill_speed = 80
; travel_speed = 130
; scale = 1
; nozzle_diameter = 0.4
; filament_diameter = 2.85
; extrusion_multiplier = 0.91
; perimeters extrusion width = 0.42mm
; infill extrusion width = 0.42mm
; first layer extrusion width = 0.60mm

M107
M104 S210 ; set temperature
G21 ; Set to metric
M82 ; Absolute Extruder
G90 ; Absolute Positioning
G28 ; Go home
G1X5Y98F9000 ; Go to the middle of the front
G1Z0.05 ; close to the bed
M104 S210 ; set extruder temp S200
M190 S60 ; set bed temp & wait S55
M109 S200 ; wait for extruder temp
G92 E0 ; Zero the extruder
G1E5F50 ; extrude a blob
G1E4F1200
G1X-40F4000 ;wipe 40mm along the edge of the bed
G1Z0.3 ;lift Z 

G90 ; use absolute coordinates
G21 ; set units to millimeters
G92 E0
M82 ; use absolute distances for extrusion
G1 F600.000 E-1.00000
G92 E0
G1 Z0.300 F7800.000
G1 X-11.540 Y-11.440
G1 F600.000 E1.00000
G1 X-10.650 Y-12.270 F720.000 E1.02901
G1 X-10.060 Y-12.750 E1.04714
G1 X-9.080 Y-13.470 E1.07613
G1 X-8.320 Y-13.950 E1.09756
G1 X-7.250 Y-14.530 E1.12658
G1 X-6.560 Y-14.860 E1.14481
G1 X-5.430 Y-15.310 E1.17381
G1 X-4.620 Y-15.570 E1.19409
G1 X-3.440 Y-15.870 E1.22312
G1 X-2.680 Y-16.020 E1.24158
G1 X-1.470 Y-16.180 E1.27068
G1 X-0.610 Y-16.240 E1.29123
G1 X0.600 Y-16.240 E1.32008
G1 X1.460 Y-16.180 E1.34063
G1 X2.670 Y-16.020 E1.36973
G1 X3.430 Y-15.870 E1.38819
G1 X4.610 Y-15.570 E1.41722
G1 X5.420 Y-15.310 E1.43750
G1 X6.550 Y-14.860 E1.46650
G1 X7.240 Y-14.530 E1.48473
G1 X8.310 Y-13.950 E1.51375
G1 X9.070 Y-13.470 E1.53518
G1 X10.050 Y-12.750 E1.56417
G1 X10.640 Y-12.270 E1.58230
G1 X11.530 Y-11.440 E1.61131
G1 X12.130 Y-10.800 E1.63222
G1 X12.900 Y-9.860 E1.66119
G1 X13.350 Y-9.240 E1.67946
G1 X14.010 Y-8.210 E1.70862
G1 X14.440 Y-7.430 E1.72985
G1 X14.950 Y-6.330 E1.75876
G1 X15.230 Y-5.610 E1.77717
G1 X15.610 Y-4.450 E1.80627
G1 X15.820 Y-3.650 E1.82599
G1 X16.050 Y-2.460 E1.85489
G1 X16.160 Y-1.600 E1.87556
G1 X16.230 Y-0.380 E1.90469
G1 X16.230 Y0.380 E1.92281
G1 X16.160 Y1.590 E1.95170
G1 X16.050 Y2.440 E1.97213
G1 X15.820 Y3.640 E2.00126
G1 X15.610 Y4.470 E2.02167
G1 X15.230 Y5.620 E2.05054
G1 X14.950 Y6.320 E2.06852
G1 X14.440 Y7.420 E2.09742
G1 X14.010 Y8.200 E2.11866
G1 X13.350 Y9.230 E2.14782
G1 X12.900 Y9.850 E2.16608
G1 X12.180 Y10.730 E2.19319
G1 X11.530 Y11.430 E2.21596
G1 X10.640 Y12.260 E2.24497
G1 X10.050 Y12.750 E2.26326
G1 X8.700 Y13.740 E2.30317
G1 X8.230 Y14.050 E2.31659
G1 X7.730 Y14.330 E2.33025
G1 X6.780 Y14.760 E2.35511
G1 X5.420 Y15.300 E2.39000
G1 X4.610 Y15.560 E2.41028
G1 X3.430 Y15.860 E2.43930
G1 X2.670 Y16.010 E2.45777
G1 X1.460 Y16.170 E2.48687
G1 X0.600 Y16.230 E2.50742
G1 X-0.610 Y16.230 E2.53626
G1 X-1.470 Y16.170 E2.55682
G1 X-2.680 Y16.010 E2.58591
G1 X-3.440 Y15.860 E2.60438
G1 X-4.620 Y15.560 E2.63341
G1 X-5.430 Y15.300 E2.65369
G1 X-6.560 Y14.850 E2.68268
G1 X-7.250 Y14.520 E2.70092
G1 X-8.320 Y13.940 E2.72993
G1 X-9.080 Y13.460 E2.75136
G1 X-10.060 Y12.740 E2.78035
G1 X-10.650 Y12.260 E2.79848
G1 X-11.540 Y11.430 E2.82750
G1 X-12.140 Y10.790 E2.84841
G1 X-12.910 Y9.850 E2.87738
G1 X-13.360 Y9.230 E2.89564
G1 X-14.020 Y8.200 E2.92481
G1 X-14.450 Y7.420 E2.94604
G1 X-14.960 Y6.320 E2.97494
G1 X-15.240 Y5.620 E2.99292
G1 X-15.620 Y4.470 E3.02179
G1 X-15.840 Y3.610 E3.04295
G1 X-16.040 Y2.540 E3.06890
G1 X-16.170 Y1.590 E3.09176
G1 X-16.240 Y0.380 E3.12066
G1 X-16.240 Y-0.380 E3.13877
G1 X-16.170 Y-1.600 E3.16791
G1 X-16.060 Y-2.460 E3.18858
G1 X-15.830 Y-3.650 E3.21747
G1 X-15.620 Y-4.450 E3.23719
G1 X-15.240 Y-5.610 E3.26629
G1 X-14.960 Y-6.330 E3.28470
G1 X-14.450 Y-7.430 E3.31361
G1 X-14.020 Y-8.210 E3.33484
G1 X-13.360 Y-9.240 E3.36401
G1 X-12.910 Y-9.860 E3.38227
G1 X-12.140 Y-10.800 E3.41124
G1 X-11.597 Y-11.379 E3.43016
G1 X-11.540 Y-11.440 E3.43215
G1 F600.000 E2.43215
G92 E0
G1 X-9.034 Y-8.604 F7800.000
G1 F600.000 E1.00000
G1 X-7.885 Y-9.668 F720.000 E1.03735
G1 X-6.759 Y-10.486 E1.07053
G1 X-5.233 Y-11.325 E1.11205
G1 X-3.938 Y-11.838 E1.14523
G1 X-2.424 Y-12.238 E1.18258
G1 X-0.696 Y-12.456 E1.22410
G1 X0.871 Y-12.445 E1.26145
G1 X2.252 Y-12.271 E1.29463
G1 X3.772 Y-11.892 E1.33198
G1 X5.233 Y-11.325 E1.36933
G1 X6.759 Y-10.486 E1.41084
G1 X8.020 Y-9.557 E1.44819
G1 X9.034 Y-8.604 E1.48138
G1 X10.144 Y-7.262 E1.52289
G1 X10.974 Y-5.933 E1.56024
G1 X11.567 Y-4.674 E1.59342
G1 X12.105 Y-3.018 E1.63494
G1 X12.388 Y-1.477 E1.67229
G1 X12.475 Y-0.088 E1.70547
G1 X12.366 Y1.650 E1.74699
G1 X12.105 Y3.018 E1.78017
G1 X11.632 Y4.511 E1.81752
G1 X10.890 Y6.087 E1.85903
G1 X10.144 Y7.262 E1.89222
G1 X9.154 Y8.476 E1.92957
G1 X7.885 Y9.668 E1.97108
G1 X5.077 Y11.708 E2.05380
G1 X4.723 Y11.527 E2.06329
G1 X3.772 Y11.892 E2.08757
G1 X2.424 Y12.238 E2.12075
G1 X0.696 Y12.456 E2.16227
G1 X-0.696 Y12.456 E2.19545
G1 X-2.252 Y12.271 E2.23280
G1 X-3.938 Y11.838 E2.27432
G1 X-5.391 Y11.251 E2.31167
G1 X-6.611 Y10.580 E2.34485
G1 X-8.020 Y9.557 E2.38636
G1 X-9.154 Y8.476 E2.42371
G1 X-10.041 Y7.404 E2.45690
G1 X-10.890 Y6.087 E2.49425
G1 X-11.567 Y4.674 E2.53160
G1 X-12.105 Y3.018 E2.57311
G1 X-12.366 Y1.650 E2.60630
G1 X-12.475 Y0.088 E2.64364
G1 X-12.366 Y-1.650 E2.68516
G1 X-12.062 Y-3.187 E2.72251
G1 X-11.632 Y-4.511 E2.75569
G1 X-10.890 Y-6.087 E2.79721
G1 X-10.041 Y-7.404 E2.83456
G1 X-9.091 Y-8.543 E2.86992
G1 X-9.034 Y-8.604 E2.87191
G1 X-8.640 Y-8.210 F7800.000
G1 X-7.543 Y-9.228 F720.000 E2.90759
G1 X-6.445 Y-10.025 E2.93994
G1 X-5.011 Y-10.814 E2.97895
G1 X-3.750 Y-11.313 E3.01130
G1 X-2.302 Y-11.694 E3.04698
G1 X-0.678 Y-11.899 E3.08600
G1 X0.818 Y-11.890 E3.12168
G1 X2.164 Y-11.720 E3.15403
G1 X3.616 Y-11.357 E3.18971
G1 X5.011 Y-10.814 E3.22539
G1 X6.445 Y-10.025 E3.26440
G1 X7.651 Y-9.139 E3.30009
G1 X8.640 Y-8.210 E3.33243
G1 X9.683 Y-6.949 E3.37145
G1 X10.478 Y-5.680 E3.40713
G1 X11.056 Y-4.453 E3.43948
G1 X11.561 Y-2.896 E3.47849
G1 X11.816 Y-1.563 E3.51084
G1 X11.918 Y-0.070 E3.54652
G1 X11.816 Y1.563 E3.58554
G1 X11.526 Y3.032 E3.62122
G1 X11.107 Y4.322 E3.65357
G1 X10.410 Y5.803 E3.69258
G1 X9.601 Y7.062 E3.72826
G1 X8.736 Y8.108 E3.76061
G1 X7.543 Y9.228 E3.79962
G1 X5.026 Y11.056 E3.87379
G1 X4.752 Y10.917 E3.88113
G1 X3.616 Y11.357 E3.91016
G1 X2.302 Y11.694 E3.94251
G1 X0.678 Y11.899 E3.98152
G1 X-0.678 Y11.899 E4.01387
G1 X-2.164 Y11.720 E4.04955
G1 X-3.750 Y11.313 E4.08857
G1 X-5.138 Y10.754 E4.12425
G1 X-6.327 Y10.100 E4.15660
G1 X-7.651 Y9.139 E4.19561
G1 X-8.736 Y8.108 E4.23129
G1 X-9.683 Y6.949 E4.26698
G1 X-10.478 Y5.680 E4.30266
G1 X-11.056 Y4.453 E4.33501
G1 X-11.561 Y2.896 E4.37402
G1 X-11.816 Y1.563 E4.40637
G1 X-11.918 Y0.070 E4.44205
G1 X-11.816 Y-1.563 E4.48106
G1 X-11.526 Y-3.032 E4.51674
G1 X-11.107 Y-4.322 E4.54909
G1 X-10.410 Y-5.803 E4.58811
G1 X-9.601 Y-7.062 E4.62379
G1 X-8.697 Y-8.149 E4.65748
G1 X-8.640 Y-8.210 E4.65947
G1 X-8.246 Y-7.816 F7800.000
G1 X-7.201 Y-8.787 F720.000 E4.69349
G1 X-6.132 Y-9.564 E4.72500
G1 X-4.790 Y-10.302 E4.76151
G1 X-3.561 Y-10.789 E4.79303
G1 X-2.180 Y-11.150 E4.82704
G1 X-0.661 Y-11.342 E4.86355
G1 X0.766 Y-11.335 E4.89757
G1 X2.180 Y-11.150 E4.93158
G1 X3.561 Y-10.789 E4.96560
G1 X4.790 Y-10.302 E4.99711
G1 X6.132 Y-9.564 E5.03362
G1 X7.282 Y-8.720 E5.06764
G1 X8.246 Y-7.816 E5.09915
G1 X9.222 Y-6.635 E5.13566
G1 X9.931 Y-5.519 E5.16718
G1 X10.544 Y-4.231 E5.20119
G1 X11.017 Y-2.775 E5.23770
G1 X11.278 Y-1.372 E5.27172
G1 X11.361 Y-0.053 E5.30323
G1 X11.265 Y1.476 E5.33974
G1 X10.991 Y2.876 E5.37376
G1 X10.583 Y4.134 E5.40527
G1 X9.931 Y5.519 E5.44178
G1 X9.222 Y6.635 E5.47330
G1 X8.318 Y7.739 E5.50731
G1 X7.201 Y8.787 E5.54382
G1 X4.975 Y10.405 E5.60943
G1 X4.780 Y10.306 E5.61464
G1 X3.461 Y10.821 E5.64841
G1 X2.180 Y11.150 E5.67992
G1 X0.661 Y11.342 E5.71644
G1 X-0.766 Y11.335 E5.75045
G1 X-2.077 Y11.170 E5.78196
G1 X-3.561 Y10.789 E5.81848
G1 X-4.790 Y10.302 E5.84999
G1 X-6.043 Y9.621 E5.88400
G1 X-7.282 Y8.720 E5.92052
G1 X-8.246 Y7.816 E5.95203
G1 X-9.161 Y6.720 E5.98604
G1 X-9.931 Y5.519 E6.02006
G1 X-10.544 Y4.231 E6.05407
G1 X-11.017 Y2.775 E6.09058
G1 X-11.265 Y1.476 E6.12210
G1 X-11.361 Y0.053 E6.15611
G1 X-11.265 Y-1.476 E6.19262
G1 X-10.991 Y-2.876 E6.22664
G1 X-10.583 Y-4.134 E6.25815
G1 X-9.931 Y-5.519 E6.29467
G1 X-9.161 Y-6.720 E6.32868
G1 X-8.303 Y-7.755 E6.36070
G1 X-8.246 Y-7.816 E6.36270
G1 X-7.852 Y-7.421 F7800.000
G1 X-6.914 Y-8.302 F720.000 E6.39338
G1 X-5.819 Y-9.103 E6.42572
G1 X-4.568 Y-9.791 E6.45973
G1 X-3.372 Y-10.265 E6.49041
G1 X-2.059 Y-10.606 E6.52276
G1 X-0.643 Y-10.785 E6.55677
G1 X0.713 Y-10.781 E6.58912
G1 X1.990 Y-10.619 E6.61979
G1 X3.305 Y-10.286 E6.65214
G1 X4.568 Y-9.791 E6.68449
G1 X5.819 Y-9.103 E6.71850
G1 X6.914 Y-8.302 E6.75084
G1 X7.852 Y-7.421 E6.78152
G1 X8.761 Y-6.322 E6.81553
G1 X9.451 Y-5.236 E6.84621
G1 X10.033 Y-4.010 E6.87856
G1 X10.473 Y-2.653 E6.91257
G1 X10.715 Y-1.389 E6.94325
G1 X10.804 Y-0.035 E6.97560
G1 X10.715 Y1.389 E7.00961
G1 X10.456 Y2.721 E7.04195
G1 X10.058 Y3.945 E7.07263
G1 X9.451 Y5.236 E7.10664
G1 X8.720 Y6.379 E7.13899
G1 X7.900 Y7.370 E7.16967
G1 X6.860 Y8.347 E7.20368
G1 X4.924 Y9.754 E7.26073
G1 X4.779 Y9.680 E7.26460
G1 X4.568 Y9.791 E7.27028
G1 X3.372 Y10.265 E7.30096
G1 X2.059 Y10.606 E7.33330
G1 X0.643 Y10.785 E7.36731
G1 X-0.643 Y10.785 E7.39799
G1 X-1.990 Y10.619 E7.43034
G1 X-3.372 Y10.265 E7.46435
G1 X-4.568 Y9.791 E7.49503
G1 X-5.760 Y9.141 E7.52737
G1 X-6.914 Y8.302 E7.56139
G1 X-7.852 Y7.421 E7.59207
G1 X-8.720 Y6.379 E7.62441
G1 X-9.485 Y5.174 E7.65842
G1 X-10.058 Y3.945 E7.69077
G1 X-10.456 Y2.721 E7.72145
G1 X-10.723 Y1.319 E7.75546
G1 X-10.804 Y0.035 E7.78614
G1 X-10.723 Y-1.319 E7.81848
G1 X-10.456 Y-2.721 E7.85250
G1 X-10.033 Y-4.010 E7.88484
G1 X-9.485 Y-5.174 E7.91552
G1 X-8.761 Y-6.322 E7.94787
G1 X-7.908 Y-7.360 E7.97989
G1 X-7.852 Y-7.421 E7.98188
G1 X-7.458 Y-7.027 F7800.000
G1 X-6.545 Y-7.884 F720.000 E8.01173
G1 X-5.505 Y-8.642 E8.04240
G1 X-4.347 Y-9.279 E8.07392
G1 X-3.183 Y-9.740 E8.10376
G1 X-1.937 Y-10.062 E8.13444
G1 X-0.626 Y-10.228 E8.16595
G1 X0.661 Y-10.226 E8.19663
G1 X1.937 Y-10.062 E8.22730
G1 X3.183 Y-9.740 E8.25798
G1 X4.347 Y-9.279 E8.28783
G1 X5.505 Y-8.642 E8.31934
G1 X6.545 Y-7.884 E8.35001
G1 X7.458 Y-7.027 E8.37986
G1 X8.300 Y-6.009 E8.41137
G1 X8.988 Y-4.921 E8.44205
G1 X9.521 Y-3.788 E8.47189
G1 X9.929 Y-2.531 E8.50340
G1 X10.168 Y-1.267 E8.53408
G1 X10.247 Y-0.018 E8.56393
G1 X10.164 Y1.302 E8.59544
G1 X9.921 Y2.565 E8.62611
G1 X9.534 Y3.756 E8.65596
G1 X8.971 Y4.952 E8.68747
G1 X8.280 Y6.037 E8.71815
G1 X7.482 Y7.002 E8.74799
G1 X6.518 Y7.907 E8.77950
G1 X4.872 Y9.102 E8.82800
G1 X4.769 Y9.050 E8.83076
G1 X4.347 Y9.279 E8.84222
G1 X3.150 Y9.751 E8.87289
G1 X1.903 Y10.069 E8.90357
G1 X0.626 Y10.228 E8.93425
G1 X-0.626 Y10.228 E8.96409
G1 X-1.903 Y10.069 E8.99477
G1 X-3.183 Y9.740 E9.02628
G1 X-4.347 Y9.279 E9.05613
G1 X-5.476 Y8.661 E9.08680
G1 X-6.545 Y7.884 E9.11832
G1 X-7.482 Y7.002 E9.14899
G1 X-8.280 Y6.037 E9.17884
G1 X-8.988 Y4.921 E9.21035
G1 X-9.521 Y3.788 E9.24019
G1 X-9.921 Y2.565 E9.27087
G1 X-10.168 Y1.267 E9.30238
G1 X-10.247 Y0.018 E9.33223
G1 X-10.168 Y-1.267 E9.36290
G1 X-9.921 Y-2.565 E9.39442
G1 X-9.521 Y-3.788 E9.42509
G1 X-8.988 Y-4.921 E9.45494
G1 X-8.300 Y-6.009 E9.48562
G1 X-7.513 Y-6.964 E9.51514
G1 X-7.458 Y-7.027 E9.51713
G1 X-7.064 Y-6.633 F7800.000
G1 X-6.177 Y-7.466 F720.000 E9.54614
G1 X-5.192 Y-8.182 E9.57515
G1 X-4.126 Y-8.768 E9.60416
G1 X-2.994 Y-9.216 E9.63317
G1 X-1.816 Y-9.518 E9.66218
G1 X-0.608 Y-9.671 E9.69119
G1 X0.608 Y-9.671 E9.72020
G1 X1.816 Y-9.518 E9.74921
G1 X2.994 Y-9.216 E9.77822
G1 X4.126 Y-8.768 E9.80723
G1 X5.192 Y-8.182 E9.83624
G1 X6.177 Y-7.466 E9.86525
G1 X7.064 Y-6.633 E9.89426
G1 X7.839 Y-5.696 E9.92327
G1 X8.491 Y-4.668 E9.95228
G1 X9.010 Y-3.567 E9.98129
G1 X9.386 Y-2.410 E10.01030
G1 X9.614 Y-1.214 E10.03931
G1 X9.690 Y0.000 E10.06832
G1 X9.614 Y1.214 E10.09733
G1 X9.386 Y2.410 E10.12634
G1 X9.010 Y3.567 E10.15535
G1 X8.491 Y4.668 E10.18436
G1 X7.839 Y5.696 E10.21337
G1 X7.064 Y6.633 E10.24238
G1 X6.177 Y7.466 E10.27139
G1 X4.821 Y8.451 E10.31133
G1 X4.821 Y8.385 E10.31289
G1 X4.126 Y8.768 E10.33181
G1 X2.994 Y9.216 E10.36082
G1 X1.816 Y9.518 E10.38983
G1 X0.608 Y9.671 E10.41884
G1 X-0.608 Y9.671 E10.44785
G1 X-1.816 Y9.518 E10.47686
G1 X-2.994 Y9.216 E10.50587
G1 X-4.126 Y8.768 E10.53488
G1 X-5.192 Y8.182 E10.56389
G1 X-6.177 Y7.466 E10.59290
G1 X-7.064 Y6.633 E10.62191
G1 X-7.839 Y5.696 E10.65092
G1 X-8.491 Y4.668 E10.67993
G1 X-9.010 Y3.567 E10.70894
G1 X-9.386 Y2.410 E10.73795
G1 X-9.614 Y1.214 E10.76696
G1 X-9.690 Y0.000 E10.79597
G1 X-9.614 Y-1.214 E10.82498
G1 X-9.386 Y-2.410 E10.85399
G1 X-9.010 Y-3.567 E10.88300
G1 X-8.491 Y-4.668 E10.91201
G1 X-7.839 Y-5.696 E10.94102
G1 X-7.117 Y-6.569 E10.96803
G1 X-7.064 Y-6.633 E10.97003
G1 X-6.524 Y-6.495 F7800.000
G1 F600.000 E9.97003
G92 E0
G1 X-8.223 Y4.052 F7800.000
G1 F600.000 E1.00000
G1 X-8.166 Y4.052 F720.000 E1.00136
G1 X-8.491 Y3.362 E1.01954
G1 X-8.845 Y2.271 E1.04688
G1 X-9.060 Y1.145 E1.07422
G1 X-9.132 Y0.000 E1.10156
G1 X-9.060 Y-1.145 E1.12890
G1 X-8.845 Y-2.271 E1.15624
G1 X-8.491 Y-3.362 E1.18358
G1 X-8.002 Y-4.399 E1.21092
G1 X-7.388 Y-5.368 E1.23825
G1 X-6.657 Y-6.251 E1.26559
G1 X-5.821 Y-7.036 E1.29293
G1 X-4.893 Y-7.710 E1.32027
G1 X-3.888 Y-8.263 E1.34761
G1 X-2.822 Y-8.685 E1.37495
G1 X-1.711 Y-8.970 E1.40229
G1 X-0.573 Y-9.114 E1.42963
G1 X0.573 Y-9.114 E1.45697
G1 X1.711 Y-8.970 E1.48430
G1 X2.822 Y-8.685 E1.51164
G1 X3.888 Y-8.263 E1.53898
G1 X4.893 Y-7.710 E1.56632
G1 X5.821 Y-7.036 E1.59366
G1 X6.587 Y-6.316 E1.61873
G1 X7.388 Y-5.368 E1.64832
G1 X8.002 Y-4.399 E1.67566
G1 X8.450 Y-3.448 E1.70073
G1 X8.845 Y-2.271 E1.73032
G1 X9.060 Y-1.145 E1.75766
G1 X9.132 Y0.000 E1.78500
G1 X9.060 Y1.145 E1.81234
G1 X8.845 Y2.271 E1.83968
G1 X8.520 Y3.271 E1.86475
G1 X8.002 Y4.399 E1.89434
G1 X7.388 Y5.368 E1.92168
G1 X6.657 Y6.251 E1.94902
G1 X5.821 Y7.036 E1.97635
G1 X4.893 Y7.710 E2.00369
G1 X3.888 Y8.263 E2.03103
G1 X2.822 Y8.685 E2.05837
G1 X1.711 Y8.970 E2.08571
G1 X0.573 Y9.114 E2.11305
G1 X-0.573 Y9.114 E2.14039
G1 X-1.711 Y8.970 E2.16773
G1 X-2.822 Y8.685 E2.19507
G1 X-3.888 Y8.263 E2.22240
G1 X-4.893 Y7.710 E2.24974
G1 X-5.821 Y7.036 E2.27708
G1 X-6.657 Y6.251 E2.30442
G1 X-7.388 Y5.368 E2.33176
G1 X-8.178 Y4.122 E2.36692
G1 X-8.223 Y4.052 E2.36891
G1 X-6.389 Y3.513 F7800.000
G1 X-6.779 Y2.684 F720.000 E2.39074
G1 X-7.062 Y1.813 E2.41256
G1 X-7.234 Y0.914 E2.43439
G1 X-7.291 Y-0.000 E2.45622
G1 X-7.234 Y-0.914 E2.47805
G1 X-7.062 Y-1.813 E2.49988
G1 X-6.779 Y-2.684 E2.52171
G1 X-6.461 Y-3.361 E2.53953
G1 X-6.389 Y-3.513 E2.54353
G1 X-5.899 Y-4.286 E2.56536
G1 X-5.315 Y-4.991 E2.58719
G1 X-4.648 Y-5.618 E2.60902
G1 X-3.907 Y-6.156 E2.63085
G1 X-3.104 Y-6.597 E2.65268
G1 X-2.253 Y-6.934 E2.67450
G1 X-1.366 Y-7.162 E2.69633
G1 X-0.458 Y-7.277 E2.71816
G1 X0.458 Y-7.277 E2.73999
G1 X1.366 Y-7.162 E2.76182
G1 X2.253 Y-6.934 E2.78365
G1 X3.104 Y-6.597 E2.80547
G1 X3.907 Y-6.156 E2.82730
G1 X4.648 Y-5.618 E2.84913
G1 X5.315 Y-4.991 E2.87096
G1 X5.899 Y-4.286 E2.89279
G1 X6.389 Y-3.513 E2.91462
G1 X6.779 Y-2.684 E2.93644
G1 X7.062 Y-1.813 E2.95827
G1 X7.234 Y-0.914 E2.98010
G1 X7.291 Y0.000 E3.00193
G1 X7.234 Y0.914 E3.02376
G1 X7.062 Y1.813 E3.04559
G1 X6.779 Y2.684 E3.06741
G1 X6.389 Y3.513 E3.08924
G1 X5.899 Y4.286 E3.11107
G1 X5.315 Y4.991 E3.13290
G1 X4.648 Y5.618 E3.15473
G1 X3.907 Y6.156 E3.17656
G1 X3.104 Y6.597 E3.19838
G1 X2.409 Y6.872 E3.21621
G1 X2.253 Y6.934 E3.22021
G1 X1.366 Y7.162 E3.24204
G1 X0.458 Y7.277 E3.26387
G1 X-0.458 Y7.277 E3.28570
G1 X-1.366 Y7.162 E3.30753
G1 X-2.253 Y6.934 E3.32935
G1 X-3.104 Y6.597 E3.35118
G1 X-3.907 Y6.156 E3.37301
G1 X-4.648 Y5.618 E3.39484
G1 X-5.315 Y4.991 E3.41667
G1 X-5.899 Y4.286 E3.43850
G1 X-6.345 Y3.583 E3.45833
G1 X-6.389 Y3.513 E3.46032
G1 X-6.946 Y3.489 F7800.000
G1 X-6.878 Y3.781
G1 X-7.298 Y2.890 F720.000 E3.48382
G1 X-7.603 Y1.952 E3.50732
G1 X-7.787 Y0.984 E3.53082
G1 X-7.849 Y-0.000 E3.55432
G1 X-7.787 Y-0.984 E3.57782
G1 X-7.603 Y-1.952 E3.60132
G1 X-7.298 Y-2.890 E3.62482
G1 X-6.878 Y-3.781 E3.64832
