; generated by Slic3r 0.9.8 on 2013-01-30 at 08:45:36

; layer_height = 0.25
; perimeters = 3
; top_solid_layers = 3
; bottom_solid_layers = 3
; fill_density = 0.1
; perimeter_speed = 30
; infill_speed = 60
; travel_speed = 130
; scale = 1
; nozzle_diameter = 0.4
; filament_diameter = 2.85
; extrusion_multiplier = 0.92
; perimeters extrusion width = 0.53mm
; infill extrusion width = 0.53mm
; first layer extrusion width = 0.50mm

M107
M104 S210 ; set temperature
M83
G28
G1X5Y98F9000
G1Z0.05
M104 S210
M190 S60
M109 S220
G1E5F50
G1E-1.5F1200
G1X40F4000
G1Z0.3
M113 S1.0
M108 S12.5
G90 ; use absolute coordinates
G21 ; set units to millimeters
G92 E0
M82 ; use absolute distances for extrusion
G1 F1800.000 E-1.00000
G92 E0
G1 Z0.250 F7800.000
G1 X-7.610 Y-19.040
G1 F1800.000 E1.00000
G1 X-7.100 Y-19.210 F540.000 E1.00928
G1 X-6.320 Y-19.390 E1.02309
G1 X-5.780 Y-19.460 E1.03248
G1 X-5.250 Y-19.480 E1.04163
G1 X-0.330 Y-19.470 E1.12652
G1 X0.270 Y-19.420 E1.13690
G1 X0.570 Y-19.370 E1.14215
G1 X1.160 Y-19.230 E1.15261
G1 X1.450 Y-19.140 E1.15785
G1 X7.320 Y-17.150 E1.26479
G1 X8.060 Y-16.840 E1.27863
G1 X8.760 Y-16.450 E1.29246
G1 X9.200 Y-16.140 E1.30174
G1 X9.800 Y-15.610 E1.31556
G1 X10.170 Y-15.220 E1.32483
G1 X10.500 Y-14.800 E1.33405
G1 X10.930 Y-14.120 E1.34793
G1 X11.050 Y-13.880 E1.35256
G1 X11.270 Y-13.390 E1.36182
G1 X11.440 Y-12.880 E1.37110
G1 X11.580 Y-12.360 E1.38039
G1 X11.670 Y-11.840 E1.38949
G1 X11.720 Y-11.040 E1.40332
G1 X11.730 Y-8.540 E1.44646
G1 X11.700 Y-7.930 E1.45699
G1 X11.620 Y-7.340 E1.46727
G1 X6.500 Y14.710 E1.85782
G1 X6.340 Y15.210 E1.86687
G1 X6.240 Y15.460 E1.87152
G1 X6.140 Y15.700 E1.87601
G1 X5.900 Y16.170 E1.88511
G1 X5.620 Y16.610 E1.89411
G1 X5.310 Y17.040 E1.90326
G1 X4.780 Y17.620 E1.91681
G1 X4.180 Y18.140 E1.93051
G1 X3.530 Y18.580 E1.94405
G1 X3.070 Y18.820 E1.95300
G1 X2.590 Y19.030 E1.96204
G1 X1.830 Y19.270 E1.97579
G1 X1.060 Y19.420 E1.98933
G1 X0.540 Y19.460 E1.99833
G1 X-5.250 Y19.480 E2.09822
G1 X-5.780 Y19.460 E2.10737
G1 X-6.050 Y19.430 E2.11206
G1 X-6.580 Y19.340 E2.12133
G1 X-7.100 Y19.210 E2.13058
G1 X-7.610 Y19.040 E2.13986
G1 X-8.100 Y18.820 E2.14912
G1 X-8.570 Y18.570 E2.15831
G1 X-9.230 Y18.110 E2.17219
G1 X-9.640 Y17.770 E2.18138
G1 X-10.020 Y17.390 E2.19065
G1 X-10.190 Y17.190 E2.19518
G1 X-10.520 Y16.760 E2.20453
G1 X-10.820 Y16.320 E2.21372
G1 X-11.070 Y15.850 E2.22290
G1 X-11.290 Y15.360 E2.23217
G1 X-11.460 Y14.850 E2.24145
G1 X-11.590 Y14.330 E2.25069
G1 X-11.680 Y13.800 E2.25997
G1 X-11.710 Y13.530 E2.26465
G1 X-11.730 Y13.000 E2.27381
G1 X-11.730 Y-13.000 E2.72239
G1 X-11.710 Y-13.530 E2.73154
G1 X-11.680 Y-13.800 E2.73622
G1 X-11.530 Y-14.590 E2.75010
G1 X-11.290 Y-15.360 E2.76401
G1 X-11.070 Y-15.850 E2.77328
G1 X-10.820 Y-16.320 E2.78246
G1 X-10.360 Y-16.980 E2.79634
G1 X-10.020 Y-17.390 E2.80553
G1 X-9.640 Y-17.770 E2.81480
G1 X-9.230 Y-18.110 E2.82399
G1 X-8.570 Y-18.570 E2.83787
G1 X-8.100 Y-18.820 E2.84706
G1 X-7.675 Y-19.010 E2.85509
G1 X-7.610 Y-19.040 E2.85633
G1 F1800.000 E1.85633
G92 E0
G1 X-6.439 Y-15.871 F7800.000
G1 F1800.000 E1.00000
G1 X0.053 Y-15.871 F540.000 E1.11201
G1 X1.265 Y-15.265 E1.13540
G1 X2.311 Y-13.871 E1.16546
G1 X6.439 Y-13.871 E1.23669
G1 X8.121 Y-12.189 E1.27773
G1 X8.121 Y-7.311 E1.36190
G1 X6.439 Y-5.629 E1.40294
G1 X0.447 Y-5.629 E1.50632
G1 X0.121 Y-5.792 E1.51261
G1 X0.121 Y8.629 E1.76140
G1 X1.439 Y8.629 E1.78414
G1 X3.121 Y10.311 E1.82518
G1 X3.121 Y14.189 E1.89210
G1 X1.439 Y15.871 E1.93314
G1 X-6.439 Y15.871 E2.06907
G1 X-8.121 Y14.189 E2.11011
G1 X-8.121 Y-14.189 E2.59972
G1 X-6.490 Y-15.820 E2.63952
G1 X-6.439 Y-15.871 E2.64076
G1 X-6.241 Y-15.393 F7800.000
G1 X-0.060 Y-15.393 F540.000 E2.74740
G1 X0.950 Y-14.887 E2.76689
G1 X2.071 Y-13.393 E2.79913
G1 X6.241 Y-13.393 E2.87107
G1 X7.643 Y-11.991 E2.90527
G1 X7.643 Y-7.509 E2.98260
G1 X6.241 Y-6.107 E3.01680
G1 X0.560 Y-6.107 E3.11481
G1 X-0.357 Y-6.566 E3.13251
G1 X-0.357 Y9.107 E3.40292
G1 X1.241 Y9.107 E3.43050
G1 X2.643 Y10.509 E3.46470
G1 X2.643 Y13.991 E3.52478
G1 X1.241 Y15.393 E3.55898
G1 X-6.241 Y15.393 E3.68807
G1 X-7.643 Y13.991 E3.72227
G1 X-7.643 Y-13.991 E4.20504
G1 X-6.292 Y-15.342 E4.23800
G1 X-6.241 Y-15.393 E4.23924
G1 X-6.043 Y-14.914 F7800.000
G1 X-0.173 Y-14.914 F540.000 E4.34051
G1 X0.635 Y-14.510 E4.35611
G1 X1.832 Y-12.914 E4.39052
G1 X6.043 Y-12.914 E4.46317
G1 X7.164 Y-11.793 E4.49053
G1 X7.164 Y-7.707 E4.56102
G1 X6.043 Y-6.586 E4.58838
G1 X0.673 Y-6.586 E4.68102
G1 X-0.135 Y-6.990 E4.69662
G1 X-0.836 Y-7.924 E4.71676
G1 X-0.836 Y9.586 E5.01887
G1 X1.043 Y9.586 E5.05128
G1 X2.164 Y10.707 E5.07864
G1 X2.164 Y13.793 E5.13188
G1 X1.043 Y14.914 E5.15924
G1 X-6.043 Y14.914 E5.28149
G1 X-7.164 Y13.793 E5.30885
G1 X-7.164 Y-13.793 E5.78478
G1 X-6.094 Y-14.863 E5.81090
G1 X-6.043 Y-14.914 E5.81214
G1 X-5.845 Y-14.436 F7800.000
G1 X-0.286 Y-14.436 F540.000 E5.90804
G1 X0.320 Y-14.132 E5.91974
G1 X1.593 Y-12.436 E5.95633
G1 X5.845 Y-12.436 E6.02969
G1 X6.686 Y-11.595 E6.05021
G1 X6.686 Y-7.905 E6.11386
G1 X5.845 Y-7.064 E6.13438
G1 X0.786 Y-7.064 E6.22166
G1 X0.180 Y-7.368 E6.23335
G1 X-1.093 Y-9.064 E6.26995
G1 X-1.314 Y-9.064 E6.27377
G1 X-1.314 Y10.064 E6.60380
G1 X0.845 Y10.064 E6.64105
G1 X1.686 Y10.905 E6.66157
G1 X1.686 Y13.595 E6.70797
G1 X0.845 Y14.436 E6.72849
G1 X-5.845 Y14.436 E6.84390
G1 X-6.686 Y13.595 E6.86442
G1 X-6.686 Y-13.595 E7.33352
G1 X-5.895 Y-14.385 E7.35280
G1 X-5.845 Y-14.436 E7.35403
G1 X-5.646 Y-13.957 F7800.000
G1 X-0.399 Y-13.957 F540.000 E7.44457
G1 X0.005 Y-13.755 E7.45236
G1 X1.354 Y-11.957 E7.49114
G1 X5.646 Y-11.957 E7.56520
G1 X6.207 Y-11.396 E7.57888
G1 X6.207 Y-8.104 E7.63570
G1 X5.646 Y-7.543 E7.64937
G1 X0.899 Y-7.543 E7.73128
G1 X0.495 Y-7.745 E7.73908
G1 X-0.854 Y-9.543 E7.77785
G1 X-1.793 Y-9.543 E7.79406
G1 X-1.793 Y10.543 E8.14060
G1 X0.646 Y10.543 E8.18269
G1 X1.207 Y11.104 E8.19637
G1 X1.207 Y13.396 E8.23593
G1 X0.646 Y13.957 E8.24961
G1 X-2.500 Y13.957 E8.30389
G1 X-5.646 Y13.957 E8.35818
G1 X-6.207 Y13.396 E8.37186
G1 X-6.207 Y-13.396 E8.83412
G1 X-5.697 Y-13.906 E8.84656
G1 X-5.646 Y-13.957 E8.84780
G1 X-5.448 Y-13.479 F7800.000
G1 X-0.512 Y-13.479 F540.000 E8.93296
G1 X-0.310 Y-13.377 E8.93686
G1 X1.114 Y-11.479 E8.97781
G1 X5.448 Y-11.479 E9.05258
G1 X5.729 Y-11.198 E9.05942
G1 X5.729 Y-8.302 E9.10940
G1 X5.448 Y-8.021 E9.11624
G1 X1.012 Y-8.021 E9.19277
G1 X0.810 Y-8.123 E9.19667
G1 X-0.614 Y-10.021 E9.23763
G1 X-2.271 Y-10.021 E9.26622
G1 X-2.271 Y11.021 E9.62927
G1 X0.448 Y11.021 E9.67620
G1 X0.729 Y11.302 E9.68303
G1 X0.729 Y13.198 E9.71575
G1 X0.448 Y13.479 E9.72259
G1 X-2.500 Y13.479 E9.77346
G1 X-5.448 Y13.479 E9.82433
G1 X-5.729 Y13.198 E9.83117
G1 X-5.729 Y-13.198 E10.28658
G1 X-5.499 Y-13.428 E10.29219
G1 X-5.448 Y-13.479 E10.29342
G1 X-5.250 Y-13.000 F7800.000
G1 X-0.625 Y-13.000 F540.000 E10.37322
G1 X0.875 Y-11.000 E10.41635
G1 X5.250 Y-11.000 E10.49183
G1 X5.250 Y-8.500 E10.53497
G1 X1.125 Y-8.500 E10.60614
G1 X-0.375 Y-10.500 E10.64927
G1 X-2.750 Y-10.500 E10.69024
G1 X-2.750 Y11.500 E11.06981
G1 X0.250 Y11.500 E11.12157
G1 X0.250 Y13.000 E11.14745
G1 X-5.250 Y13.000 E11.24234
G1 X-5.250 Y-12.928 E11.68968
G1 X-5.250 Y-13.000 E11.69092
G1 X-4.836 Y-12.761 F7800.000
G1 F1800.000 E10.69092
G92 E0
G1 X0.207 Y-10.521 F7800.000
G1 F1800.000 E1.00000
G1 X4.771 Y-10.521 F540.000 E1.07875
G1 X4.771 Y-8.979 E1.10537
G1 X1.364 Y-8.979 E1.16415
G1 X0.250 Y-10.464 E1.19619
G1 X0.207 Y-10.521 E1.19743
G1 X0.293 Y-10.979 F7800.000
G1 X-3.229 Y-10.979 F540.000 E1.25819
G1 X-3.229 Y11.979 E1.65426
G1 X-0.229 Y11.979 E1.70602
G1 X-0.229 Y12.521 E1.71539
G1 X-4.771 Y12.521 E1.79377
G1 X-4.771 Y-12.521 E2.22584
G1 X-0.864 Y-12.521 E2.29325
G1 X0.250 Y-11.036 E2.32528
G1 X0.293 Y-10.979 E2.32652
G1 F1800.000 E1.32652
G92 E0
G1 X4.293 Y-9.457 F7800.000
G1 F1800.000 E1.00000
G1 X1.604 Y-9.457 F540.000 E1.04640
G1 X1.164 Y-10.043 E1.05903
G1 X4.293 Y-10.043 E1.11302
G1 X4.293 Y-9.529 E1.12188
G1 X4.293 Y-9.457 E1.12312
G1 F1800.000 E0.12312
G92 E0
G1 X-0.664 Y-11.457 F7800.000
G1 F1800.000 E1.00000
G1 X-3.707 Y-11.457 F540.000 E1.05250
G1 X-3.707 Y12.043 E1.45795
G1 X-4.293 Y12.043 E1.46805
G1 X-4.293 Y-12.043 E1.88361
G1 X-1.104 Y-12.043 E1.93863
G1 X-0.707 Y-11.515 E1.95003
G1 X-0.664 Y-11.457 E1.95127
M106 S295
G1 F1800.000 E0.95127
G92 E0
G1 Z0.500 F7800.000
G1 X-4.732 Y-12.482
G1 F1800.000 E1.00000
G1 X-0.884 Y-12.482 F1333.026 E1.06974
G1 X0.214 Y-11.018 E1.10290
G1 X-3.268 Y-11.018 E1.16600
G1 X-3.268 Y12.482 E1.59188
G1 X-4.732 Y12.482 E1.61841
G1 X-4.732 Y-12.407 E2.06945
G1 X-4.732 Y-12.482 E2.07082
G1 F1800.000 E1.07082
G92 E0
G1 X0.286 Y-10.482 F7800.000
G1 F1800.000 E1.00000
G1 X4.732 Y-10.482 F1333.026 E1.08057
G1 X4.732 Y-9.018 E1.10710
G1 X1.384 Y-9.018 E1.16778
G1 X0.331 Y-10.422 E1.19957
G1 X0.286 Y-10.482 E1.20094
G1 X-0.217 Y-10.315 F7800.000
G1 X-0.367 Y-10.515 F1333.026 E1.20547
G1 X-2.765 Y-10.515 E1.24893
G1 X-2.765 Y11.515 E1.64818
G1 X0.235 Y11.515 E1.70255
G1 X0.235 Y12.985 E1.72917
G1 X-5.235 Y12.985 E1.82829
G1 X-5.235 Y-12.985 E2.29892
G1 X-0.633 Y-12.985 E2.38232
G1 X0.867 Y-10.985 E2.42762
G1 X5.235 Y-10.985 E2.50677
G1 X5.235 Y-8.515 E2.55152
G1 X1.133 Y-8.515 E2.62586
G1 X-0.172 Y-10.255 E2.66527
G1 X-0.217 Y-10.315 E2.66664
G1 X-0.020 Y-10.778 F7800.000
G1 F1800.000 E1.66664
G92 E0
G1 X-0.178 Y12.099 F7800.000
G1 F1800.000 E1.00000
G1 X-0.651 Y12.572 F888.684 E1.02023
G1 X-1.195 Y11.928 E1.04573
G1 X-1.838 Y12.572 E1.07327
G1 X-2.382 Y11.928 E1.09876
G1 X-2.855 Y12.401 E1.11899
G1 X-3.681 Y11.596 F7800.000
G1 X-4.154 Y12.069 F888.684 E1.13745
G1 X-4.319 Y11.151 E1.16321
G1 X-3.681 Y10.513 E1.18812
G1 X-4.319 Y10.068 E1.20961
G1 X-3.681 Y9.430 E1.23452
G1 X-4.319 Y8.985 E1.25600
G1 X-3.681 Y8.347 E1.28092
G1 X-4.319 Y7.901 E1.30240
G1 X-3.681 Y7.263 E1.32731
G1 X-4.319 Y6.818 E1.34880
G1 X-3.681 Y6.180 E1.37371
G1 X-4.319 Y5.735 E1.39519
G1 X-3.681 Y5.097 E1.42011
G1 X-4.319 Y4.652 E1.44159
G1 X-3.681 Y4.014 E1.46651
G1 X-4.319 Y3.569 E1.48799
G1 X-3.681 Y2.931 E1.51290
G1 X-4.319 Y2.485 E1.53439
G1 X-3.681 Y1.847 E1.55930
G1 X-4.319 Y1.402 E1.58078
G1 X-3.681 Y0.764 E1.60570
G1 X-4.319 Y0.319 E1.62718
G1 X-3.681 Y-0.319 E1.65209
G1 X-4.319 Y-0.764 E1.67358
G1 X-3.681 Y-1.402 E1.69849
G1 X-4.319 Y-1.847 E1.71997
G1 X-3.681 Y-2.485 E1.74489
G1 X-4.319 Y-2.931 E1.76637
G1 X-3.681 Y-3.569 E1.79128
G1 X-4.319 Y-4.014 E1.81277
G1 X-3.681 Y-4.652 E1.83768
G1 X-4.319 Y-5.097 E1.85916
G1 X-3.681 Y-5.735 E1.88408
G1 X-4.319 Y-6.180 E1.90556
G1 X-3.681 Y-6.818 E1.93048
G1 X-4.319 Y-7.263 E1.95196
G1 X-3.681 Y-7.901 E1.97687
G1 X-4.319 Y-8.347 E1.99836
G1 X-3.681 Y-8.985 E2.02327
G1 X-4.319 Y-9.430 E2.04475
G1 X-3.681 Y-10.068 E2.06967
G1 X-4.319 Y-10.513 E2.09115
G1 X-3.681 Y-11.151 E2.11607
G1 F1800.000 E1.11607
G92 E0
G1 X4.319 Y-9.904 F7800.000
G1 F1800.000 E1.00000
G1 X3.846 Y-9.431 F888.684 E1.02269
G1 X3.153 Y-10.069 E1.05468
G1 X2.515 Y-9.431 E1.08531
G1 X1.821 Y-10.069 E1.11730
G1 X1.348 Y-9.596 E1.13999
G1 F1800.000 E0.13999
G92 E0
G1 X-3.401 Y-11.431 F7800.000
G1 F1800.000 E1.00000
G1 X-2.763 Y-12.069 F888.684 E1.02491
G1 X-2.318 Y-11.431 E1.04640
G1 X-1.680 Y-12.069 E1.07131
G1 F1800.000 E0.07131
G92 E0
G1 X-3.846 Y-12.069 F7800.000
G1 F1800.000 E1.00000
G1 X-4.319 Y-11.596 F888.684 E1.01846
G1 F1800.000 E0.01846
G92 E0
G1 Z0.750 F7800.000
G1 X-3.268 Y12.482
G1 F1800.000 E1.00000
G1 X-4.732 Y12.482 F1361.316 E1.02653
G1 X-4.732 Y-12.482 E1.47894
G1 X-0.884 Y-12.482 E1.54868
G1 X0.214 Y-11.018 E1.58184
G1 X-3.268 Y-11.018 E1.64494
G1 X-3.268 Y12.407 E2.06945
G1 X-3.268 Y12.482 E2.07082
G1 F1800.000 E1.07082
G92 E0
G1 X0.286 Y-10.482 F7800.000
G1 F1800.000 E1.00000
G1 X4.732 Y-10.482 F1361.316 E1.08057
G1 X4.732 Y-9.018 E1.10710
G1 X1.384 Y-9.018 E1.16778
G1 X0.331 Y-10.422 E1.19957
G1 X0.286 Y-10.482 E1.20094
G1 X-0.171 Y-10.253 F7800.000
G1 X-0.367 Y-10.515 F1361.316 E1.20688
G1 X-2.765 Y-10.515 E1.25034
G1 X-2.765 Y11.515 E1.64959
G1 X0.235 Y11.515 E1.70396
G1 X0.235 Y12.985 E1.73059
G1 X-5.235 Y12.985 E1.82971
G1 X-5.235 Y-12.985 E2.30033
G1 X-0.633 Y-12.985 E2.38373
G1 X0.867 Y-10.985 E2.42904
G1 X5.235 Y-10.985 E2.50819
G1 X5.235 Y-8.515 E2.55294
G1 X1.133 Y-8.515 E2.62727
G1 X-0.125 Y-10.193 E2.66527
G1 X-0.171 Y-10.253 E2.66664
G1 X0.027 Y-10.715 F7800.000
G1 F1800.000 E1.66664
G92 E0
G1 X-2.382 Y12.572 F7800.000
G1 F1800.000 E1.00000
G1 X-2.855 Y12.099 F907.544 E1.02023
G1 X-1.838 Y11.928 E1.05143
G1 X-1.195 Y12.572 E1.07897
G1 X-0.651 Y11.928 E1.10447
G1 X-0.178 Y12.401 E1.12470
G1 F1800.000 E0.12470
G92 E0
G1 X-3.846 Y12.069 F7800.000
G1 F1800.000 E1.00000
G1 X-4.319 Y11.596 F907.544 E1.01809
G1 X-3.681 Y11.173 E1.03882
G1 X-4.319 Y10.535 E1.06323
G1 X-3.681 Y10.111 E1.08396
G1 X-4.319 Y9.473 E1.10837
G1 X-3.681 Y9.050 E1.12910
G1 X-4.319 Y8.412 E1.15352
G1 X-3.681 Y7.988 E1.17424
G1 X-4.319 Y7.350 E1.19866
G1 X-3.681 Y6.926 E1.21938
G1 X-4.319 Y6.288 E1.24380
G1 X-3.681 Y5.865 E1.26452
G1 X-4.319 Y5.227 E1.28894
G1 X-3.681 Y4.803 E1.30966
G1 X-4.319 Y4.165 E1.33408
G1 X-3.681 Y3.742 E1.35480
G1 X-4.319 Y3.104 E1.37922
G1 X-3.681 Y2.680 E1.39994
G1 X-4.319 Y2.042 E1.42436
G1 X-3.681 Y1.619 E1.44508
G1 X-4.319 Y0.981 E1.46950
G1 X-3.681 Y0.557 E1.49023
G1 X-4.319 Y-0.081 E1.51464
G1 X-3.681 Y-0.505 E1.53537
G1 X-4.319 Y-1.143 E1.55978
G1 X-3.681 Y-1.566 E1.58051
G1 X-4.319 Y-2.204 E1.60492
G1 X-3.681 Y-2.628 E1.62565
G1 X-4.319 Y-3.266 E1.65006
G1 X-3.681 Y-3.689 E1.67079
G1 X-4.319 Y-4.327 E1.69520
G1 X-3.681 Y-4.751 E1.71593
G1 X-4.319 Y-5.389 E1.74034
G1 X-3.681 Y-5.812 E1.76107
G1 X-4.319 Y-6.450 E1.78549
G1 X-3.681 Y-6.874 E1.80621
G1 X-4.319 Y-7.512 E1.83063
G1 X-3.681 Y-7.936 E1.85135
G1 X-4.319 Y-8.573 E1.87577
G1 X-3.681 Y-8.997 E1.89649
G1 X-4.319 Y-9.635 E1.92091
G1 X-3.681 Y-10.059 E1.94163
G1 X-4.319 Y-10.697 E1.96605
G1 X-3.681 Y-11.120 E1.98677
G1 X-4.319 Y-11.758 E2.01119
G1 X-3.568 Y-12.069 E2.03318
G1 X-2.930 Y-11.431 E2.05760
G1 X-2.507 Y-12.069 E2.07832
G1 X-1.869 Y-11.431 E2.10274
G1 X-1.445 Y-12.069 E2.12346
G1 X-0.972 Y-11.596 E2.14157
G1 F1800.000 E1.14157
G92 E0
G1 X1.945 Y-9.431 F7800.000
G1 F1800.000 E1.00000
G1 X1.472 Y-9.904 F907.544 E1.02165
G1 X2.577 Y-10.069 E1.05781
G1 X3.215 Y-9.431 E1.08701
G1 X3.846 Y-10.069 E1.11607
G1 X4.319 Y-9.596 E1.13770
G1 F1800.000 E0.13770
G92 E0
G1 Z1.000 F7800.000
G1 X-4.732 Y-12.482
G1 F1800.000 E1.00000
G1 X-0.884 Y-12.482 F1333.027 E1.06974
G1 X0.214 Y-11.018 E1.10290
G1 X-3.268 Y-11.018 E1.16600
G1 X-3.268 Y12.482 E1.59188
G1 X-4.732 Y12.482 E1.61841
G1 X-4.732 Y-12.407 E2.06945
G1 X-4.732 Y-12.482 E2.07082
G1 F1800.000 E1.07082
G92 E0
G1 X0.286 Y-10.482 F7800.000
G1 F1800.000 E1.00000
G1 X4.732 Y-10.482 F1333.027 E1.08057
G1 X4.732 Y-9.018 E1.10710
G1 X1.384 Y-9.018 E1.16778
G1 X0.331 Y-10.422 E1.19957
G1 X0.286 Y-10.482 E1.20094
G1 X-0.124 Y-10.190 F7800.000
G1 X-0.367 Y-10.515 F1333.027 E1.20830
G1 X-2.765 Y-10.515 E1.25176
G1 X-2.765 Y11.515 E1.65101
G1 X0.235 Y11.515 E1.70538
G1 X0.235 Y12.985 E1.73201
G1 X-5.235 Y12.985 E1.83112
G1 X-5.235 Y-12.985 E2.30175
G1 X-0.633 Y-12.985 E2.38515
G1 X0.867 Y-10.985 E2.43046
G1 X5.235 Y-10.985 E2.50960
G1 X5.235 Y-8.515 E2.55435
G1 X1.133 Y-8.515 E2.62869
G1 X-0.078 Y-10.130 E2.66527
G1 X-0.124 Y-10.190 E2.66664
G1 X0.074 Y-10.653 F7800.000
G1 F1800.000 E1.66664
G92 E0
G1 X-0.178 Y12.099 F7800.000
G1 F1800.000 E1.00000
G1 X-0.651 Y12.572 F888.685 E1.02023
G1 X-1.195 Y11.928 E1.04573
G1 X-1.838 Y12.572 E1.07327
G1 X-2.382 Y11.928 E1.09876
G1 X-2.855 Y12.401 E1.11900
G1 X-3.681 Y11.596 F7800.000
G1 X-4.154 Y12.069 F888.685 E1.13746
G1 X-4.319 Y11.151 E1.16321
G1 X-3.681 Y10.513 E1.18813
G1 X-4.319 Y10.068 E1.20961
G1 X-3.681 Y9.430 E1.23452
G1 X-4.319 Y8.985 E1.25601
G1 X-3.681 Y8.347 E1.28092
G1 X-4.319 Y7.901 E1.30240
G1 X-3.681 Y7.263 E1.32732
G1 X-4.319 Y6.818 E1.34880
G1 X-3.681 Y6.180 E1.37371
G1 X-4.319 Y5.735 E1.39520
G1 X-3.681 Y5.097 E1.42011
G1 X-4.319 Y4.652 E1.44159
G1 X-3.681 Y4.014 E1.46651
G1 X-4.319 Y3.569 E1.48799
G1 X-3.681 Y2.931 E1.51291
G1 X-4.319 Y2.485 E1.53439
G1 X-3.681 Y1.847 E1.55930
G1 X-4.319 Y1.402 E1.58079
G1 X-3.681 Y0.764 E1.60570
G1 X-4.319 Y0.319 E1.62718
G1 X-3.681 Y-0.319 E1.65210
