; generated by Slic3r 0.9.8 on 2013-01-30 at 21:41:10

; layer_height = 0.25
; perimeters = 3
; top_solid_layers = 3
; bottom_solid_layers = 3
; fill_density = 0.1
; perimeter_speed = 40
; infill_speed = 80
; travel_speed = 130
; scale = 1
; nozzle_diameter = 0.4
; filament_diameter = 2.85
; extrusion_multiplier = 0.92
; perimeters extrusion width = 0.53mm
; infill extrusion width = 0.53mm
; first layer extrusion width = 0.50mm

M107
M104 S210 ; set temperature
M83
G28
G1X5Y98F9000
G1Z0.05
M104 S210
M190 S60
M109 S220
G1E5F50
G1E-1.5F1200
G1X40F4000
G1Z0.3
M113 S1.0
M108 S12.5
G90 ; use absolute coordinates
G21 ; set units to millimeters
G92 E0
M82 ; use absolute distances for extrusion
G1 F1800.000 E-1.00000
G92 E0
G1 Z0.250 F7800.000
G1 X-10.820 Y-18.570
G1 F1800.000 E1.00000
G1 X-10.350 Y-18.820 F720.000 E1.00918
G1 X-9.860 Y-19.040 E1.01845
G1 X-9.350 Y-19.210 E1.02773
G1 X-8.570 Y-19.390 E1.04154
G1 X-8.030 Y-19.460 E1.05093
G1 X-7.500 Y-19.480 E1.06008
G1 X-2.880 Y-19.480 E1.13979
G1 X-2.140 Y-19.440 E1.15258
G1 X-1.650 Y-19.360 E1.16114
G1 X8.720 Y-17.360 E1.34336
G1 X9.480 Y-17.170 E1.35687
G1 X10.210 Y-16.880 E1.37042
G1 X10.680 Y-16.640 E1.37953
G1 X11.340 Y-16.210 E1.39312
G1 X11.750 Y-15.880 E1.40220
G1 X12.310 Y-15.330 E1.41574
G1 X12.640 Y-14.930 E1.42469
G1 X12.800 Y-14.720 E1.42924
G1 X13.210 Y-14.050 E1.44280
G1 X13.430 Y-13.580 E1.45175
G1 X13.700 Y-12.840 E1.46534
G1 X13.830 Y-12.330 E1.47442
G1 X13.920 Y-11.810 E1.48352
G1 X13.950 Y-11.550 E1.48804
G1 X13.970 Y-11.030 E1.49702
G1 X13.980 Y-8.530 E1.54015
G1 X13.960 Y-8.050 E1.54844
G1 X12.440 Y13.700 E1.92461
G1 X12.410 Y13.960 E1.92913
G1 X12.310 Y14.480 E1.93826
G1 X12.080 Y15.230 E1.95180
G1 X11.880 Y15.720 E1.96093
G1 X11.640 Y16.190 E1.97003
G1 X11.210 Y16.850 E1.98362
G1 X10.700 Y17.450 E1.99721
G1 X10.520 Y17.640 E2.00172
G1 X10.120 Y17.990 E2.01089
G1 X9.710 Y18.300 E2.01976
G1 X9.260 Y18.590 E2.02900
G1 X8.800 Y18.830 E2.03795
G1 X8.320 Y19.040 E2.04699
G1 X7.570 Y19.280 E2.06058
G1 X7.050 Y19.380 E2.06971
G1 X6.530 Y19.450 E2.07876
G1 X6.000 Y19.470 E2.08792
G1 X-7.500 Y19.480 E2.32083
G1 X-8.020 Y19.460 E2.32981
G1 X-8.530 Y19.400 E2.33867
G1 X-8.790 Y19.350 E2.34324
G1 X-9.550 Y19.150 E2.35680
G1 X-10.040 Y18.960 E2.36586
G1 X-10.510 Y18.740 E2.37482
G1 X-10.960 Y18.480 E2.38378
G1 X-11.600 Y18.020 E2.39738
G1 X-11.990 Y17.670 E2.40642
G1 X-12.350 Y17.300 E2.41533
G1 X-12.830 Y16.680 E2.42886
G1 X-13.240 Y16.010 E2.44241
G1 X-13.560 Y15.300 E2.45585
G1 X-13.790 Y14.550 E2.46938
G1 X-13.850 Y14.300 E2.47382
G1 X-13.930 Y13.780 E2.48289
G1 X-13.960 Y13.520 E2.48741
G1 X-13.980 Y13.000 E2.49639
G1 X-13.980 Y-13.000 E2.94497
G1 X-13.960 Y-13.530 E2.95412
G1 X-13.890 Y-14.070 E2.96351
G1 X-13.710 Y-14.850 E2.97732
G1 X-13.540 Y-15.360 E2.98660
G1 X-13.320 Y-15.850 E2.99587
G1 X-13.070 Y-16.320 E3.00505
G1 X-12.610 Y-16.980 E3.01893
G1 X-12.270 Y-17.390 E3.02812
G1 X-11.890 Y-17.770 E3.03739
G1 X-11.690 Y-17.940 E3.04192
G1 X-11.260 Y-18.270 E3.05127
G1 X-10.879 Y-18.530 E3.05922
G1 X-10.820 Y-18.570 E3.06046
G1 F1800.000 E2.06046
G92 E0
G1 X-6.543 Y12.043 F7800.000
G1 F1800.000 E1.00000
G1 X-6.543 Y-12.043 F720.000 E1.41555
G1 X-3.354 Y-12.043 E1.47058
G1 X-2.914 Y-11.457 E1.48322
G1 X-5.957 Y-11.457 E1.53571
G1 X-5.957 Y12.043 E1.94116
G1 X-6.471 Y12.043 E1.95003
G1 X-6.543 Y12.043 E1.95127
G1 F1800.000 E0.95127
G92 E0
G1 X-0.646 Y-9.457 F7800.000
G1 F1800.000 E1.00000
G1 X-1.086 Y-10.043 F720.000 E1.01263
G1 X6.543 Y-10.043 E1.14425
G1 X6.543 Y-9.457 E1.15436
G1 X-0.575 Y-9.457 E1.27716
G1 X-0.646 Y-9.457 E1.27840
G1 F1800.000 E0.27840
G92 E0
G1 X-1.957 Y-10.979 F7800.000
G1 F1800.000 E1.00000
G1 X-5.479 Y-10.979 F720.000 E1.06076
G1 X-5.479 Y11.979 E1.45684
G1 X5.521 Y11.979 E1.64662
G1 X5.521 Y12.521 E1.65599
G1 X-7.021 Y12.521 E1.87239
G1 X-7.021 Y-12.521 E2.30446
G1 X-3.114 Y-12.521 E2.37187
G1 X-2.000 Y-11.036 E2.40390
G1 X-1.957 Y-10.979 E2.40514
G1 X-2.043 Y-10.521 F7800.000
G1 X7.021 Y-10.521 F720.000 E2.56153
G1 X7.021 Y-8.979 E2.58815
G1 X-0.886 Y-8.979 E2.72458
G1 X-2.000 Y-10.464 E2.75661
G1 X-2.043 Y-10.521 E2.75785
G1 X-2.625 Y-10.500 F7800.000
G1 X-5.000 Y-10.500 F720.000 E2.79883
G1 X-5.000 Y11.500 E3.17839
G1 X6.000 Y11.500 E3.36818
G1 X6.000 Y13.000 E3.39406
G1 X-7.500 Y13.000 E3.62697
G1 X-7.500 Y-13.000 E4.07555
G1 X-2.875 Y-13.000 E4.15535
G1 X-1.375 Y-11.000 E4.19848
G1 X7.500 Y-11.000 E4.35160
G1 X7.500 Y-8.500 E4.39473
G1 X-1.125 Y-8.500 E4.54354
G1 X-2.582 Y-10.443 E4.58544
G1 X-2.625 Y-10.500 E4.58667
G1 X-2.727 Y-10.968 F7800.000
M106 S255
G1 F1800.000 E3.58667
G92 E0
G1 Z0.500 F7800.000
G1 X-6.982 Y-12.482
G1 F1800.000 E1.00000
G1 X-3.134 Y-12.482 F1905.690 E1.06974
G1 X-2.036 Y-11.018 E1.10290
G1 X-5.518 Y-11.018 E1.16600
G1 X-5.518 Y12.482 E1.59188
G1 X-6.982 Y12.482 E1.61841
G1 X-6.982 Y-12.407 E2.06945
G1 X-6.982 Y-12.482 E2.07082
G1 F1800.000 E1.07082
G92 E0
G1 X-1.964 Y-10.482 F7800.000
G1 F1800.000 E1.00000
G1 X6.982 Y-10.482 F1905.690 E1.16212
G1 X6.982 Y-9.018 E1.18865
G1 X-0.866 Y-9.018 E1.33088
G1 X-1.919 Y-10.422 E1.36268
G1 X-1.964 Y-10.482 E1.36404
G1 X-2.617 Y-10.515 F7800.000
G1 X-5.015 Y-10.515 F1905.690 E1.40750
G1 X-5.015 Y11.515 E1.80675
G1 X5.985 Y11.515 E2.00610
G1 X5.985 Y12.985 E2.03273
G1 X-7.485 Y12.985 E2.27683
G1 X-7.485 Y-12.985 E2.74745
G1 X-2.883 Y-12.985 E2.83085
G1 X-1.383 Y-10.985 E2.87616
G1 X7.485 Y-10.985 E3.03686
G1 X7.485 Y-8.515 E3.08161
G1 X-1.117 Y-8.515 E3.23750
G1 X-2.572 Y-10.455 E3.28144
G1 X-2.617 Y-10.515 E3.28280
G1 X-2.724 Y-11.006 F7800.000
G1 F1800.000 E2.28280
G92 E0
G1 X5.572 Y12.099 F7800.000
G1 F1800.000 E1.00000
G1 X5.099 Y12.572 F952.845 E1.01964
G1 X4.589 Y11.928 E1.04376
G1 X3.946 Y12.572 E1.07049
G1 X3.437 Y11.928 E1.09461
G1 X2.794 Y12.572 E1.12134
G1 X2.284 Y11.928 E1.14545
G1 X1.641 Y12.572 E1.17218
G1 X1.131 Y11.928 E1.19630
G1 X0.488 Y12.572 E1.22303
G1 X-0.021 Y11.928 E1.24715
G1 X-0.665 Y12.572 E1.27388
G1 X-1.174 Y11.928 E1.29799
G1 X-1.817 Y12.572 E1.32473
G1 X-2.327 Y11.928 E1.34884
G1 X-2.970 Y12.572 E1.37557
G1 X-3.480 Y11.928 E1.39969
G1 X-4.123 Y12.572 E1.42642
G1 X-4.632 Y11.928 E1.45053
G1 X-5.105 Y12.401 E1.47018
G1 X-5.931 Y11.596 F7800.000
G1 X-6.404 Y12.069 F952.845 E1.48864
G1 X-6.569 Y11.151 E1.51439
G1 X-5.931 Y10.513 E1.53931
G1 X-6.569 Y10.068 E1.56079
G1 X-5.931 Y9.430 E1.58570
G1 X-6.569 Y8.985 E1.60719
G1 X-5.931 Y8.347 E1.63210
G1 X-6.569 Y7.901 E1.65358
G1 X-5.931 Y7.263 E1.67850
G1 X-6.569 Y6.818 E1.69998
G1 X-5.931 Y6.180 E1.72489
G1 X-6.569 Y5.735 E1.74638
G1 X-5.931 Y5.097 E1.77129
G1 X-6.569 Y4.652 E1.79277
G1 X-5.931 Y4.014 E1.81769
G1 X-6.569 Y3.569 E1.83917
G1 X-5.931 Y2.931 E1.86409
G1 X-6.569 Y2.485 E1.88557
G1 X-5.931 Y1.847 E1.91048
G1 X-6.569 Y1.402 E1.93197
G1 X-5.931 Y0.764 E1.95688
G1 X-6.569 Y0.319 E1.97836
G1 X-5.931 Y-0.319 E2.00328
G1 X-6.569 Y-0.764 E2.02476
G1 X-5.931 Y-1.402 E2.04967
G1 X-6.569 Y-1.847 E2.07116
G1 X-5.931 Y-2.485 E2.09607
G1 X-6.569 Y-2.931 E2.11755
G1 X-5.931 Y-3.569 E2.14247
G1 X-6.569 Y-4.014 E2.16395
G1 X-5.931 Y-4.652 E2.18886
G1 X-6.569 Y-5.097 E2.21035
G1 X-5.931 Y-5.735 E2.23526
G1 X-6.569 Y-6.180 E2.25675
G1 X-5.931 Y-6.818 E2.28166
G1 X-6.569 Y-7.263 E2.30314
G1 X-5.931 Y-7.901 E2.32806
G1 X-6.569 Y-8.347 E2.34954
G1 X-5.931 Y-8.985 E2.37445
G1 X-6.569 Y-9.430 E2.39594
G1 X-5.931 Y-10.068 E2.42085
G1 X-6.569 Y-10.513 E2.44233
G1 X-5.931 Y-11.151 E2.46725
G1 X-5.651 Y-11.431 F7800.000
G1 X-5.013 Y-12.069 F952.845 E2.49216
G1 X-4.568 Y-11.431 E2.51365
G1 X-3.930 Y-12.069 E2.53856
G1 F1800.000 E1.53856
G92 E0
G1 X-6.096 Y-12.069 F7800.000
G1 F1800.000 E1.00000
G1 X-6.569 Y-11.596 F952.845 E1.01846
G1 F1800.000 E0.01846
G92 E0
G1 X6.569 Y-9.904 F7800.000
G1 F1800.000 E1.00000
G1 X6.096 Y-9.431 F952.845 E1.02035
G1 X5.540 Y-10.069 E1.04610
G1 X4.902 Y-9.431 E1.07356
G1 X4.346 Y-10.069 E1.09931
G1 X3.709 Y-9.431 E1.12677
G1 X3.153 Y-10.069 E1.15253
G1 X2.515 Y-9.431 E1.17999
G1 X1.959 Y-10.069 E1.20574
G1 X1.321 Y-9.431 E1.23320
G1 X0.765 Y-10.069 E1.25895
G1 X0.127 Y-9.431 E1.28641
G1 X-0.429 Y-10.069 E1.31216
G1 X-0.902 Y-9.596 E1.33251
G1 F1800.000 E0.33251
G92 E0
G1 Z0.750 F7800.000
G1 X-6.982 Y-12.482
G1 F1800.000 E1.00000
G1 X-3.134 Y-12.482 F1943.007 E1.06974
G1 X-2.036 Y-11.018 E1.10290
G1 X-5.518 Y-11.018 E1.16600
G1 X-5.518 Y12.482 E1.59188
G1 X-6.982 Y12.482 E1.61841
G1 X-6.982 Y-12.407 E2.06945
G1 X-6.982 Y-12.482 E2.07082
G1 F1800.000 E1.07082
G92 E0
G1 X-1.964 Y-10.482 F7800.000
G1 F1800.000 E1.00000
G1 X6.982 Y-10.482 F1943.007 E1.16212
G1 X6.982 Y-9.018 E1.18865
G1 X-0.866 Y-9.018 E1.33088
G1 X-1.919 Y-10.422 E1.36268
G1 X-1.964 Y-10.482 E1.36404
G1 X-2.617 Y-10.515 F7800.000
G1 X-5.015 Y-10.515 F1943.007 E1.40750
G1 X-5.015 Y11.515 E1.80675
G1 X5.985 Y11.515 E2.00610
G1 X5.985 Y12.985 E2.03273
G1 X-7.485 Y12.985 E2.27683
G1 X-7.485 Y-12.985 E2.74745
G1 X-2.883 Y-12.985 E2.83085
G1 X-1.383 Y-10.985 E2.87616
G1 X7.485 Y-10.985 E3.03686
G1 X7.485 Y-8.515 E3.08161
G1 X-1.117 Y-8.515 E3.23750
G1 X-2.572 Y-10.455 E3.28144
G1 X-2.617 Y-10.515 E3.28280
G1 X-2.724 Y-11.006 F7800.000
G1 F1800.000 E2.28280
G92 E0
G1 X-4.632 Y12.572 F7800.000
G1 F1800.000 E1.00000
G1 X-5.105 Y12.099 F971.503 E1.01964
G1 X-4.123 Y11.928 E1.04894
G1 X-3.480 Y12.572 E1.07567
G1 X-2.970 Y11.928 E1.09979
G1 X-2.327 Y12.572 E1.12652
G1 X-1.817 Y11.928 E1.15063
G1 X-1.174 Y12.572 E1.17737
G1 X-0.665 Y11.928 E1.20148
G1 X-0.021 Y12.572 E1.22821
G1 X0.488 Y11.928 E1.25233
G1 X1.131 Y12.572 E1.27906
G1 X1.641 Y11.928 E1.30317
G1 X2.284 Y12.572 E1.32991
G1 X2.794 Y11.928 E1.35402
G1 X3.437 Y12.572 E1.38075
G1 X3.946 Y11.928 E1.40487
G1 X4.589 Y12.572 E1.43160
G1 X5.099 Y11.928 E1.45571
G1 X5.572 Y12.401 E1.47536
G1 F1800.000 E0.47536
G92 E0
G1 X-6.096 Y12.069 F7800.000
G1 F1800.000 E1.00000
G1 X-6.569 Y11.596 F971.503 E1.01809
G1 X-5.931 Y11.173 E1.03882
G1 X-6.569 Y10.535 E1.06323
G1 X-5.931 Y10.111 E1.08396
G1 X-6.569 Y9.473 E1.10837
G1 X-5.931 Y9.050 E1.12910
G1 X-6.569 Y8.412 E1.15352
G1 X-5.931 Y7.988 E1.17424
G1 X-6.569 Y7.350 E1.19866
G1 X-5.931 Y6.926 E1.21938
G1 X-6.569 Y6.288 E1.24380
G1 X-5.931 Y5.865 E1.26452
G1 X-6.569 Y5.227 E1.28894
G1 X-5.931 Y4.803 E1.30966
G1 X-6.569 Y4.165 E1.33408
G1 X-5.931 Y3.742 E1.35480
G1 X-6.569 Y3.104 E1.37922
G1 X-5.931 Y2.680 E1.39994
G1 X-6.569 Y2.042 E1.42436
G1 X-5.931 Y1.619 E1.44508
G1 X-6.569 Y0.981 E1.46950
G1 X-5.931 Y0.557 E1.49023
G1 X-6.569 Y-0.081 E1.51464
G1 X-5.931 Y-0.505 E1.53537
G1 X-6.569 Y-1.143 E1.55978
G1 X-5.931 Y-1.566 E1.58051
G1 X-6.569 Y-2.204 E1.60492
G1 X-5.931 Y-2.628 E1.62565
G1 X-6.569 Y-3.266 E1.65006
G1 X-5.931 Y-3.689 E1.67079
G1 X-6.569 Y-4.327 E1.69520
G1 X-5.931 Y-4.751 E1.71593
G1 X-6.569 Y-5.389 E1.74034
G1 X-5.931 Y-5.812 E1.76107
G1 X-6.569 Y-6.450 E1.78549
G1 X-5.931 Y-6.874 E1.80621
G1 X-6.569 Y-7.512 E1.83063
G1 X-5.931 Y-7.936 E1.85135
G1 X-6.569 Y-8.573 E1.87577
G1 X-5.931 Y-8.997 E1.89649
G1 X-6.569 Y-9.635 E1.92091
G1 X-5.931 Y-10.059 E1.94163
G1 X-6.569 Y-10.697 E1.96605
G1 X-5.931 Y-11.120 E1.98677
G1 X-6.569 Y-11.758 E2.01119
G1 X-5.818 Y-12.069 E2.03318
G1 X-5.180 Y-11.431 E2.05760
G1 X-4.757 Y-12.069 E2.07832
G1 X-4.119 Y-11.431 E2.10274
G1 X-3.695 Y-12.069 E2.12346
G1 X-3.222 Y-11.596 E2.14157
G1 F1800.000 E1.14157
G92 E0
G1 X-0.305 Y-9.431 F7800.000
G1 F1800.000 E1.00000
G1 X-0.778 Y-9.904 F971.503 E1.02001
G1 X0.230 Y-10.069 E1.05057
G1 X0.868 Y-9.431 E1.07755
G1 X1.403 Y-10.069 E1.10246
G1 X2.041 Y-9.431 E1.12944
G1 X2.577 Y-10.069 E1.15435
G1 X3.215 Y-9.431 E1.18134
G1 X3.750 Y-10.069 E1.20624
G1 X4.388 Y-9.431 E1.23323
G1 X4.923 Y-10.069 E1.25813
G1 X5.561 Y-9.431 E1.28512
G1 X6.096 Y-10.069 E1.31002
G1 X6.569 Y-9.596 E1.33002
G1 F1800.000 E0.33002
G92 E0
G1 Z1.000 F7800.000
G1 X-3.134 Y-12.482
G1 F1800.000 E1.00000
G1 X-2.036 Y-11.018 F1905.690 E1.03316
G1 X-5.518 Y-11.018 E1.09627
G1 X-5.518 Y12.482 E1.52214
G1 X-6.982 Y12.482 E1.54868
G1 X-6.982 Y-12.482 E2.00109
G1 X-3.209 Y-12.482 E2.06945
G1 X-3.134 Y-12.482 E2.07082
G1 F1800.000 E1.07082
G92 E0
G1 X-1.964 Y-10.482 F7800.000
G1 F1800.000 E1.00000
G1 X6.982 Y-10.482 F1905.690 E1.16212
G1 X6.982 Y-9.018 E1.18865
G1 X-0.866 Y-9.018 E1.33088
G1 X-1.919 Y-10.422 E1.36268
G1 X-1.964 Y-10.482 E1.36404
G1 X-2.617 Y-10.515 F7800.000
G1 X-5.015 Y-10.515 F1905.690 E1.40750
G1 X-5.015 Y11.515 E1.80675
G1 X5.985 Y11.515 E2.00610
G1 X5.985 Y12.985 E2.03273
G1 X-7.485 Y12.985 E2.27683
G1 X-7.485 Y-12.985 E2.74745
G1 X-2.883 Y-12.985 E2.83085
G1 X-1.383 Y-10.985 E2.87616
G1 X7.485 Y-10.985 E3.03686
G1 X7.485 Y-8.515 E3.08161
G1 X-1.117 Y-8.515 E3.23750
G1 X-2.572 Y-10.455 E3.28144
G1 X-2.617 Y-10.515 E3.28280
G1 X-2.724 Y-11.006 F7800.000
G1 F1800.000 E2.28280
G92 E0
G1 X5.572 Y12.099 F7800.000
G1 F1800.000 E1.00000
G1 X5.099 Y12.572 F952.845 E1.01964
G1 X4.589 Y11.928 E1.04376
G1 X3.946 Y12.572 E1.07049
G1 X3.437 Y11.928 E1.09461
G1 X2.794 Y12.572 E1.12134
G1 X2.284 Y11.928 E1.14545
G1 X1.641 Y12.572 E1.17218
G1 X1.131 Y11.928 E1.19630
G1 X0.488 Y12.572 E1.22303
G1 X-0.021 Y11.928 E1.24715
G1 X-0.665 Y12.572 E1.27388
G1 X-1.174 Y11.928 E1.29799
G1 X-1.817 Y12.572 E1.32473
G1 X-2.327 Y11.928 E1.34884
G1 X-2.970 Y12.572 E1.37557
G1 X-3.480 Y11.928 E1.39969
G1 X-4.123 Y12.572 E1.42642
G1 X-4.632 Y11.928 E1.45053
G1 X-5.105 Y12.401 E1.47018
G1 X-5.931 Y11.596 F7800.000
G1 X-6.404 Y12.069 F952.845 E1.48864
G1 X-6.569 Y11.151 E1.51439
G1 X-5.931 Y10.513 E1.53931
G1 X-6.569 Y10.068 E1.56079
G1 X-5.931 Y9.430 E1.58570
G1 X-6.569 Y8.985 E1.60719
G1 X-5.931 Y8.347 E1.63210
G1 X-6.569 Y7.901 E1.65358
G1 X-5.931 Y7.263 E1.67850
G1 X-6.569 Y6.818 E1.69998
G1 X-5.931 Y6.180 E1.72489
G1 X-6.569 Y5.735 E1.74638
G1 X-5.931 Y5.097 E1.77129
G1 X-6.569 Y4.652 E1.79277
G1 X-5.931 Y4.014 E1.81769
G1 X-6.569 Y3.569 E1.83917
G1 X-5.931 Y2.931 E1.86409
G1 X-6.569 Y2.485 E1.88557
G1 X-5.931 Y1.847 E1.91048
G1 X-6.569 Y1.402 E1.93197
G1 X-5.931 Y0.764 E1.95688
G1 X-6.569 Y0.319 E1.97836
G1 X-5.931 Y-0.319 E2.00328
G1 X-6.569 Y-0.764 E2.02476
G1 X-5.931 Y-1.402 E2.04967
G1 X-6.569 Y-1.847 E2.07116
G1 X-5.931 Y-2.485 E2.09607
G1 X-6.569 Y-2.931 E2.11755
G1 X-5.931 Y-3.569 E2.14247
G1 X-6.569 Y-4.014 E2.16395
G1 X-5.931 Y-4.652 E2.18886
G1 X-6.569 Y-5.097 E2.21035
G1 X-5.931 Y-5.735 E2.23526
G1 X-6.569 Y-6.180 E2.25675
G1 X-5.931 Y-6.818 E2.28166
G1 X-6.569 Y-7.263 E2.30314
G1 X-5.931 Y-7.901 E2.32806
G1 X-6.569 Y-8.347 E2.34954
G1 X-5.931 Y-8.985 E2.37446
G1 X-6.569 Y-9.430 E2.39594
G1 X-5.931 Y-10.068 E2.42085
G1 X-6.569 Y-10.513 E2.44234
G1 X-5.931 Y-11.151 E2.46725
G1 X-5.651 Y-11.431 F7800.000
G1 X-5.013 Y-12.069 F952.845 E2.49216
G1 X-4.568 Y-11.431 E2.51365
G1 X-3.930 Y-12.069 E2.53856
G1 F1800.000 E1.53856
G92 E0
G1 X-6.096 Y-12.069 F7800.000
G1 F1800.000 E1.00000
G1 X-6.569 Y-11.596 F952.845 E1.01846
G1 F1800.000 E0.01846
G92 E0
G1 X6.569 Y-9.904 F7800.000
G1 F1800.000 E1.00000
G1 X6.096 Y-9.431 F952.845 E1.02035
G1 X5.540 Y-10.069 E1.04610
G1 X4.902 Y-9.431 E1.07356
G1 X4.346 Y-10.069 E1.09931
G1 X3.709 Y-9.431 E1.12677
G1 X3.153 Y-10.069 E1.15253
G1 X2.515 Y-9.431 E1.17999
G1 X1.959 Y-10.069 E1.20574
G1 X1.321 Y-9.431 E1.23320
G1 X0.765 Y-10.069 E1.25895
G1 X0.127 Y-9.431 E1.28641
G1 X-0.429 Y-10.069 E1.31216
G1 X-0.902 Y-9.596 E1.33251
G1 F1800.000 E0.33251
G92 E0
G1 Z1.250 F7800.000
G1 X-2.036 Y-11.018
G1 F1800.000 E1.00000
G1 X-5.518 Y-11.018 F1943.007 E1.06310
G1 X-5.518 Y12.482 E1.48898
G1 X-6.982 Y12.482 E1.51551
G1 X-6.982 Y-12.482 E1.96792
G1 X-3.134 Y-12.482 E2.03766
G1 X-2.081 Y-11.078 E2.06945
G1 X-2.036 Y-11.018 E2.07082
G1 F1800.000 E1.07082
G92 E0
G1 X6.982 Y-10.482 F7800.000
G1 F1800.000 E1.00000
G1 X6.982 Y-9.018 F1943.007 E1.02653
G1 X-0.866 Y-9.018 E1.16876
G1 X-1.964 Y-10.482 E1.20192
G1 X6.907 Y-10.482 E1.36268
G1 X6.982 Y-10.482 E1.36404
G1 X7.485 Y-10.985 F7800.000
G1 X7.485 Y-8.515 F1943.007 E1.40879
G1 X-1.117 Y-8.515 E1.56468
G1 X-2.617 Y-10.515 E1.60999
G1 X-5.015 Y-10.515 E1.65345
G1 X-5.015 Y11.515 E2.05270
G1 X5.985 Y11.515 E2.25205
G1 X5.985 Y12.985 E2.27867
G1 X-7.485 Y12.985 E2.52277
G1 X-7.485 Y-12.985 E2.99340
G1 X-2.883 Y-12.985 E3.07680
G1 X-1.383 Y-10.985 E3.12210
G1 X7.409 Y-10.985 E3.28144
