; generated by Slic3r 0.9.8 on 2013-01-30 at 22:45:00

; layer_height = 0.25
; perimeters = 3
; top_solid_layers = 3
; bottom_solid_layers = 3
; fill_density = 0.1
; perimeter_speed = 40
; infill_speed = 80
; travel_speed = 130
; scale = 1
; nozzle_diameter = 0.4
; filament_diameter = 2.85
; extrusion_multiplier = 0.92
; perimeters extrusion width = 0.53mm
; infill extrusion width = 0.53mm
; first layer extrusion width = 0.50mm

M107
M104 S210 ; set temperature
M83
G28
G1X5Y98F9000
G1Z0.05
M104 S210
M190 S60
M109 S220
G1E5F50
G1E-1.5F1200
G1X40F4000
G1Z0.3
M113 S1.0
M108 S12.5
G90 ; use absolute coordinates
G21 ; set units to millimeters
G92 E0
M82 ; use absolute distances for extrusion
G1 F1800.000 E-1.00000
G92 E0
G1 Z0.250 F7800.000
G1 X-5.930 Y-20.900
G1 F1800.000 E1.00000
G1 X-5.500 Y-21.570 F720.000 E1.01374
G1 X-4.990 Y-22.190 E1.02759
G1 X-4.810 Y-22.380 E1.03210
G1 X-4.210 Y-22.900 E1.04580
G1 X-3.770 Y-23.200 E1.05499
G1 X-3.550 Y-23.340 E1.05949
G1 X-3.080 Y-23.590 E1.06867
G1 X-2.340 Y-23.890 E1.08245
G1 X-1.580 Y-24.100 E1.09605
G1 X-0.790 Y-24.220 E1.10984
G1 X-0.260 Y-24.240 E1.11899
G1 X14.250 Y-24.240 E1.36933
G1 X14.780 Y-24.220 E1.37848
G1 X15.050 Y-24.190 E1.38317
G1 X15.580 Y-24.100 E1.39244
G1 X16.350 Y-23.890 E1.40621
G1 X16.850 Y-23.700 E1.41544
G1 X17.330 Y-23.460 E1.42470
G1 X18.010 Y-23.040 E1.43849
G1 X18.430 Y-22.710 E1.44771
G1 X18.630 Y-22.540 E1.45224
G1 X19.010 Y-22.160 E1.46151
G1 X19.180 Y-21.960 E1.46604
G1 X19.510 Y-21.540 E1.47525
G1 X19.810 Y-21.090 E1.48458
G1 X20.060 Y-20.620 E1.49377
G1 X20.280 Y-20.140 E1.50288
G1 X20.450 Y-19.630 E1.51215
G1 X20.590 Y-19.110 E1.52144
G1 X20.680 Y-18.590 E1.53055
G1 X20.720 Y-18.060 E1.53972
G1 X21.720 Y3.870 E1.91847
G1 X21.730 Y8.740 E2.00249
G1 X21.710 Y9.270 E2.01164
G1 X21.600 Y10.060 E2.02541
G1 X21.470 Y10.570 E2.03449
G1 X21.200 Y11.320 E2.04824
G1 X20.970 Y11.800 E2.05742
G1 X20.700 Y12.260 E2.06662
G1 X20.230 Y12.900 E2.08032
G1 X19.680 Y13.480 E2.09411
G1 X19.070 Y13.990 E2.10783
G1 X18.620 Y14.280 E2.11707
G1 X18.160 Y14.540 E2.12619
G1 X-0.030 Y22.770 E2.47065
G1 X-1.300 Y23.300 E2.49439
G1 X-2.300 Y23.620 E2.51250
G1 X-3.640 Y23.940 E2.53627
G1 X-4.670 Y24.100 E2.55426
G1 X-6.040 Y24.200 E2.57796
G1 X-6.990 Y24.200 E2.59435
G1 X-8.350 Y24.100 E2.61787
G1 X-9.370 Y23.940 E2.63569
G1 X-10.710 Y23.620 E2.65946
G1 X-11.710 Y23.300 E2.67757
G1 X-12.980 Y22.770 E2.70131
G1 X-13.880 Y22.310 E2.71875
G1 X-15.050 Y21.590 E2.74246
G1 X-15.860 Y20.990 E2.75985
G1 X-16.900 Y20.100 E2.78346
G1 X-17.610 Y19.390 E2.80079
G1 X-18.500 Y18.350 E2.82440
G1 X-19.100 Y17.540 E2.84179
G1 X-19.820 Y16.370 E2.86550
G1 X-20.280 Y15.470 E2.88294
G1 X-20.810 Y14.200 E2.90668
G1 X-21.130 Y13.200 E2.92479
G1 X-21.450 Y11.860 E2.94856
G1 X-21.610 Y10.820 E2.96672
G1 X-21.710 Y9.410 E2.99110
G1 X-21.700 Y8.840 E3.00094
G1 X-21.670 Y8.550 E3.00597
G1 X-21.590 Y7.980 E3.01590
G1 X-21.450 Y7.420 E3.02586
G1 X-21.150 Y6.610 E3.04076
G1 X-20.900 Y6.100 E3.05056
G1 X-5.965 Y-20.837 E3.58197
G1 X-5.930 Y-20.900 E3.58320
G1 F1800.000 E2.58320
G92 E0
G1 X-3.121 Y-18.939 F7800.000
G1 F1800.000 E1.00000
G1 X-1.439 Y-20.621 F720.000 E1.04104
G1 X15.439 Y-20.621 E1.33225
G1 X17.121 Y-18.939 E1.37328
G1 X17.121 Y-14.061 E1.45746
G1 X15.439 Y-12.379 E1.49849
G1 X5.121 Y-12.379 E1.67651
G1 X5.121 Y2.713 E1.93688
G1 X5.172 Y2.558 E1.93969
G1 X5.377 Y2.155 E1.94749
G1 X5.747 Y1.646 E1.95835
G1 X5.977 Y1.397 E1.96420
G1 X6.324 Y1.101 E1.97207
G1 X6.605 Y0.912 E1.97791
G1 X7.166 Y0.627 E1.98878
G1 X7.596 Y0.487 E1.99657
G1 X8.274 Y0.380 E2.00841
G1 X8.726 Y0.380 E2.01621
G1 X9.348 Y0.478 E2.02708
G1 X9.674 Y0.570 E2.03292
G1 X10.000 Y0.705 E2.03901
G1 X10.326 Y0.570 E2.04510
G1 X10.652 Y0.478 E2.05094
G1 X11.274 Y0.380 E2.06181
G1 X11.726 Y0.380 E2.06960
G1 X12.348 Y0.478 E2.08047
G1 X12.674 Y0.570 E2.08631
G1 X13.000 Y0.705 E2.09240
G1 X13.489 Y0.522 E2.10140
G1 X13.877 Y0.429 E2.10830
G1 X14.214 Y0.389 E2.11414
G1 X14.843 Y0.389 E2.12501
G1 X15.289 Y0.459 E2.13280
G1 X15.942 Y0.672 E2.14464
G1 X16.345 Y0.877 E2.15244
G1 X16.900 Y1.280 E2.16428
G1 X17.220 Y1.600 E2.17208
G1 X17.623 Y2.155 E2.18392
G1 X17.828 Y2.558 E2.19172
G1 X18.040 Y3.209 E2.20353
G1 X18.111 Y3.652 E2.21128
G1 X18.124 Y9.935 E2.31968
G1 X16.441 Y11.621 E2.36078
G1 X4.794 Y11.621 E2.56173
G1 X4.587 Y12.484 E2.57703
G1 X4.517 Y12.698 E2.58093
G1 X3.905 Y14.175 E2.60851
G1 X3.803 Y14.376 E2.61240
G1 X2.967 Y15.739 E2.63998
G1 X2.835 Y15.922 E2.64387
G1 X1.797 Y17.137 E2.67145
G1 X1.637 Y17.297 E2.67534
G1 X0.422 Y18.335 E2.70292
G1 X0.239 Y18.468 E2.70682
G1 X-1.124 Y19.303 E2.73440
G1 X-1.325 Y19.405 E2.73829
G1 X-2.802 Y20.017 E2.76587
G1 X-3.016 Y20.087 E2.76976
G1 X-4.571 Y20.460 E2.79734
G1 X-4.794 Y20.495 E2.80123
G1 X-6.387 Y20.620 E2.82881
G1 X-6.613 Y20.620 E2.83270
G1 X-8.206 Y20.495 E2.86028
G1 X-8.429 Y20.460 E2.86418
G1 X-9.984 Y20.087 E2.89176
G1 X-10.198 Y20.017 E2.89565
G1 X-11.675 Y19.405 E2.92323
G1 X-11.876 Y19.303 E2.92712
G1 X-13.239 Y18.468 E2.95470
G1 X-13.422 Y18.335 E2.95859
G1 X-14.637 Y17.297 E2.98617
G1 X-14.797 Y17.137 E2.99007
G1 X-15.835 Y15.922 E3.01765
G1 X-15.968 Y15.739 E3.02154
G1 X-16.803 Y14.376 E3.04912
G1 X-16.905 Y14.175 E3.05301
G1 X-17.517 Y12.698 E3.08059
G1 X-17.587 Y12.484 E3.08448
G1 X-17.960 Y10.929 E3.11206
G1 X-17.995 Y10.706 E3.11596
G1 X-18.190 Y8.223 E3.15893
G1 X-16.485 Y6.379 E3.20227
G1 X-11.607 Y6.379 E3.28643
G1 X-9.957 Y7.904 E3.32521
G1 X-9.829 Y9.527 E3.35329
G1 X-9.706 Y10.042 E3.36242
G1 X-9.503 Y10.530 E3.37154
G1 X-9.227 Y10.981 E3.38067
G1 X-8.883 Y11.383 E3.38980
G1 X-8.481 Y11.727 E3.39892
G1 X-8.030 Y12.003 E3.40805
G1 X-7.542 Y12.206 E3.41717
G1 X-7.027 Y12.329 E3.42630
G1 X-6.500 Y12.371 E3.43542
G1 X-5.973 Y12.329 E3.44455
G1 X-5.458 Y12.206 E3.45367
G1 X-4.970 Y12.003 E3.46280
G1 X-4.519 Y11.727 E3.47192
G1 X-4.117 Y11.383 E3.48105
G1 X-3.773 Y10.981 E3.49017
G1 X-3.497 Y10.530 E3.49930
G1 X-3.294 Y10.042 E3.50843
G1 X-3.171 Y9.527 E3.51755
G1 X-3.121 Y8.897 E3.52846
G1 X-3.121 Y-18.868 E4.00748
G1 X-3.121 Y-18.939 E4.00872
G1 X-2.643 Y-18.741 F7800.000
G1 X-1.241 Y-20.143 F720.000 E4.04292
G1 X15.241 Y-20.143 E4.32729
G1 X16.643 Y-18.741 E4.36149
G1 X16.643 Y-14.259 E4.43882
G1 X15.241 Y-12.857 E4.47302
G1 X4.643 Y-12.857 E4.65587
G1 X4.643 Y3.857 E4.94425
G1 X5.367 Y3.857 E4.95675
G1 X5.368 Y3.687 E4.95969
G1 X5.427 Y3.320 E4.96610
G1 X5.615 Y2.741 E4.97660
G1 X5.786 Y2.406 E4.98310
G1 X6.117 Y1.950 E4.99283
G1 X6.309 Y1.742 E4.99769
G1 X6.613 Y1.483 E5.00459
G1 X6.848 Y1.326 E5.00946
G1 X7.350 Y1.070 E5.01919
G1 X7.708 Y0.954 E5.02569
G1 X8.312 Y0.858 E5.03623
G1 X8.688 Y0.858 E5.04273
G1 X9.245 Y0.946 E5.05245
G1 X9.517 Y1.023 E5.05732
G1 X9.998 Y1.239 E5.06643
G1 X10.483 Y1.023 E5.07559
G1 X10.755 Y0.946 E5.08045
G1 X11.312 Y0.858 E5.09018
G1 X11.688 Y0.858 E5.09668
G1 X12.245 Y0.946 E5.10641
G1 X12.517 Y1.023 E5.11127
G1 X13.001 Y1.239 E5.12043
G1 X13.114 Y1.176 E5.12265
G1 X13.619 Y0.983 E5.13198
G1 X13.962 Y0.900 E5.13806
G1 X14.242 Y0.867 E5.14293
G1 X14.805 Y0.867 E5.15265
G1 X15.177 Y0.926 E5.15915
G1 X15.759 Y1.115 E5.16969
G1 X16.094 Y1.286 E5.17619
G1 X16.589 Y1.645 E5.18674
G1 X16.855 Y1.911 E5.19323
G1 X17.214 Y2.406 E5.20378
G1 X17.385 Y2.741 E5.21027
G1 X17.573 Y3.321 E5.22079
G1 X17.632 Y3.691 E5.22725
G1 X17.645 Y9.738 E5.33158
G1 X16.243 Y11.143 E5.36582
G1 X4.416 Y11.143 E5.56986
G1 X4.126 Y12.354 E5.59135
G1 X4.068 Y12.532 E5.59459
G1 X3.470 Y13.975 E5.62152
G1 X3.385 Y14.142 E5.62477
G1 X2.569 Y15.473 E5.65170
G1 X2.459 Y15.625 E5.65494
G1 X1.445 Y16.812 E5.68187
G1 X1.312 Y16.945 E5.68512
G1 X0.125 Y17.959 E5.71205
G1 X-0.027 Y18.069 E5.71529
G1 X-1.358 Y18.885 E5.74222
G1 X-1.525 Y18.970 E5.74547
G1 X-2.968 Y19.568 E5.77240
G1 X-3.146 Y19.626 E5.77564
G1 X-4.664 Y19.990 E5.80257
G1 X-4.850 Y20.019 E5.80581
G1 X-6.406 Y20.142 E5.83275
G1 X-6.594 Y20.142 E5.83599
G1 X-8.150 Y20.019 E5.86292
G1 X-8.336 Y19.990 E5.86616
G1 X-9.854 Y19.626 E5.89310
G1 X-10.032 Y19.568 E5.89634
G1 X-11.474 Y18.970 E5.92327
G1 X-11.642 Y18.885 E5.92651
G1 X-12.973 Y18.069 E5.95344
G1 X-13.125 Y17.959 E5.95669
G1 X-14.312 Y16.945 E5.98362
G1 X-14.445 Y16.812 E5.98686
G1 X-15.459 Y15.625 E6.01380
G1 X-15.569 Y15.473 E6.01704
G1 X-16.385 Y14.142 E6.04397
G1 X-16.470 Y13.975 E6.04721
G1 X-17.068 Y12.532 E6.07415
G1 X-17.126 Y12.354 E6.07739
G1 X-17.490 Y10.836 E6.10432
G1 X-17.519 Y10.650 E6.10756
G1 X-17.697 Y8.394 E6.14660
G1 X-16.276 Y6.857 E6.18272
G1 X-11.795 Y6.857 E6.26004
G1 X-10.419 Y8.129 E6.29235
G1 X-10.303 Y9.602 E6.31785
G1 X-10.162 Y10.190 E6.32828
G1 X-9.931 Y10.748 E6.33871
G1 X-9.615 Y11.263 E6.34913
G1 X-9.223 Y11.723 E6.35956
G1 X-8.763 Y12.115 E6.36998
G1 X-8.248 Y12.431 E6.38040
G1 X-7.690 Y12.662 E6.39083
G1 X-7.102 Y12.803 E6.40125
G1 X-6.500 Y12.851 E6.41168
G1 X-5.898 Y12.803 E6.42210
G1 X-5.310 Y12.662 E6.43253
G1 X-4.752 Y12.431 E6.44295
G1 X-4.237 Y12.115 E6.45338
G1 X-3.777 Y11.723 E6.46381
G1 X-3.385 Y11.263 E6.47423
G1 X-3.069 Y10.748 E6.48465
G1 X-2.838 Y10.190 E6.49508
G1 X-2.697 Y9.602 E6.50550
G1 X-2.643 Y8.916 E6.51739
G1 X-2.643 Y-18.669 E6.99331
G1 X-2.643 Y-18.741 E6.99455
G1 X-2.164 Y-18.543 F7800.000
G1 X-1.043 Y-19.664 F720.000 E7.02191
G1 X15.043 Y-19.664 E7.29944
G1 X16.164 Y-18.543 E7.32680
G1 X16.164 Y-14.457 E7.39729
G1 X15.043 Y-13.336 E7.42465
G1 X4.164 Y-13.336 E7.61234
G1 X4.164 Y4.336 E7.91723
G1 X5.844 Y4.336 E7.94621
G1 X5.846 Y3.726 E7.95673
G1 X5.894 Y3.433 E7.96186
G1 X6.059 Y2.925 E7.97107
G1 X6.195 Y2.657 E7.97627
G1 X6.488 Y2.254 E7.98486
G1 X6.641 Y2.088 E7.98875
G1 X6.902 Y1.865 E7.99468
G1 X7.090 Y1.740 E7.99857
G1 X7.534 Y1.514 E8.00716
G1 X7.820 Y1.420 E8.01236
G1 X8.349 Y1.337 E8.02160
G1 X8.651 Y1.337 E8.02680
G1 X9.142 Y1.415 E8.03539
G1 X9.360 Y1.476 E8.03929
G1 X9.677 Y1.607 E8.04521
G1 X9.992 Y1.803 E8.05161
G1 X10.358 Y1.593 E8.05890
G1 X10.640 Y1.476 E8.06417
G1 X10.858 Y1.415 E8.06806
G1 X11.349 Y1.337 E8.07665
G1 X11.651 Y1.337 E8.08185
G1 X12.142 Y1.415 E8.09044
G1 X12.360 Y1.476 E8.09434
G1 X12.642 Y1.593 E8.09961
G1 X13.008 Y1.803 E8.10690
G1 X13.323 Y1.607 E8.11330
G1 X13.606 Y1.490 E8.11857
G1 X14.046 Y1.372 E8.12643
G1 X14.270 Y1.346 E8.13033
G1 X14.768 Y1.346 E8.13892
G1 X15.065 Y1.393 E8.14412
G1 X15.575 Y1.558 E8.15336
G1 X15.843 Y1.695 E8.15856
G1 X16.277 Y2.010 E8.16780
G1 X16.490 Y2.223 E8.17300
G1 X16.805 Y2.657 E8.18224
G1 X16.941 Y2.925 E8.18744
G1 X17.107 Y3.434 E8.19666
G1 X17.154 Y3.729 E8.20183
G1 X17.166 Y9.540 E8.30208
G1 X16.044 Y10.664 E8.32948
G1 X4.033 Y10.664 E8.53672
G1 X3.665 Y12.224 E8.56436
G1 X3.035 Y13.774 E8.59323
G1 X2.171 Y15.207 E8.62210
G1 X1.093 Y16.487 E8.65097
G1 X-0.171 Y17.583 E8.67984
G1 X-1.592 Y18.467 E8.70871
G1 X-3.133 Y19.118 E8.73758
G1 X-4.758 Y19.520 E8.76645
G1 X-6.425 Y19.663 E8.79532
G1 X-8.094 Y19.544 E8.82419
G1 X-9.724 Y19.165 E8.85306
G1 X-11.274 Y18.535 E8.88193
G1 X-12.829 Y17.583 E8.91339
G1 X-14.093 Y16.487 E8.94226
G1 X-15.171 Y15.207 E8.97113
G1 X-15.967 Y13.908 E8.99741
G1 X-16.618 Y12.367 E9.02628
G1 X-17.044 Y10.594 E9.05773
G1 X-17.203 Y8.565 E9.09284
G1 X-16.067 Y7.336 E9.12173
G1 X-11.982 Y7.336 E9.19221
G1 X-10.882 Y8.353 E9.21806
G1 X-10.777 Y9.677 E9.24098
G1 X-10.619 Y10.338 E9.25270
G1 X-10.359 Y10.966 E9.26443
G1 X-10.004 Y11.546 E9.27615
G1 X-9.562 Y12.062 E9.28788
G1 X-9.046 Y12.504 E9.29960
G1 X-8.466 Y12.859 E9.31133
G1 X-7.838 Y13.119 E9.32305
G1 X-7.177 Y13.277 E9.33478
G1 X-6.500 Y13.331 E9.34650
G1 X-5.823 Y13.277 E9.35823
G1 X-5.162 Y13.119 E9.36995
G1 X-4.534 Y12.859 E9.38167
G1 X-3.954 Y12.504 E9.39340
G1 X-3.438 Y12.062 E9.40512
G1 X-2.996 Y11.546 E9.41685
G1 X-2.641 Y10.966 E9.42857
G1 X-2.381 Y10.338 E9.44030
G1 X-2.223 Y9.677 E9.45202
G1 X-2.164 Y8.935 E9.46488
G1 X-2.164 Y-18.471 E9.93771
G1 X-2.164 Y-18.543 E9.93895
G1 X-1.686 Y-18.345 F7800.000
G1 X-0.845 Y-19.186 F720.000 E9.95947
G1 X14.845 Y-19.186 E10.23016
G1 X15.686 Y-18.345 E10.25068
G1 X15.686 Y-14.655 E10.31433
G1 X14.845 Y-13.814 E10.33485
G1 X3.686 Y-13.814 E10.52737
G1 X3.686 Y4.814 E10.84878
G1 X6.320 Y4.814 E10.89424
G1 X6.325 Y3.765 E10.91234
G1 X6.360 Y3.545 E10.91618
G1 X6.502 Y3.109 E10.92410
G1 X6.605 Y2.907 E10.92800
G1 X6.859 Y2.558 E10.93545
G1 X6.973 Y2.434 E10.93837
G1 X7.192 Y2.247 E10.94332
G1 X7.332 Y2.153 E10.94625
G1 X7.717 Y1.957 E10.95370
G1 X7.932 Y1.887 E10.95760
G1 X8.387 Y1.815 E10.96554
G1 X8.613 Y1.815 E10.96944
G1 X9.040 Y1.883 E10.97689
G1 X9.203 Y1.929 E10.97982
G1 X9.468 Y2.038 E10.98477
G1 X9.615 Y2.121 E10.98769
G1 X10.007 Y2.417 E10.99614
G1 X10.237 Y2.214 E11.00144
G1 X10.558 Y2.028 E11.00785
G1 X10.960 Y1.883 E11.01522
G1 X11.387 Y1.815 E11.02267
G1 X11.613 Y1.815 E11.02657
G1 X12.040 Y1.883 E11.03402
G1 X12.203 Y1.929 E11.03695
G1 X12.542 Y2.079 E11.04335
G1 X12.763 Y2.214 E11.04781
G1 X12.994 Y2.417 E11.05313
G1 X13.384 Y2.121 E11.06158
G1 X13.532 Y2.038 E11.06451
G1 X13.771 Y1.939 E11.06897
G1 X14.130 Y1.844 E11.07537
G1 X14.298 Y1.824 E11.07829
G1 X14.730 Y1.824 E11.08575
G1 X14.953 Y1.860 E11.08964
G1 X15.391 Y2.002 E11.09759
G1 X15.593 Y2.105 E11.10149
G1 X15.965 Y2.375 E11.10943
G1 X16.125 Y2.535 E11.11333
G1 X16.395 Y2.907 E11.12127
G1 X16.498 Y3.109 E11.12517
G1 X16.640 Y3.546 E11.13310
G1 X16.675 Y3.768 E11.13697
G1 X16.687 Y9.343 E11.23316
G1 X15.846 Y10.186 E11.25371
G1 X3.596 Y10.186 E11.46505
G1 X3.551 Y10.649 E11.47308
G1 X3.204 Y12.094 E11.49872
G1 X2.600 Y13.574 E11.52629
G1 X1.773 Y14.941 E11.55386
G1 X0.742 Y16.162 E11.58144
G1 X-0.468 Y17.207 E11.60901
G1 X-1.826 Y18.049 E11.63659
G1 X-3.299 Y18.669 E11.66416
G1 X-4.851 Y19.051 E11.69174
G1 X-6.444 Y19.185 E11.71931
G1 X-8.038 Y19.068 E11.74688
G1 X-9.594 Y18.704 E11.77446
G1 X-11.074 Y18.100 E11.80203
G1 X-12.532 Y17.207 E11.83155
G1 X-13.742 Y16.162 E11.85912
G1 X-14.773 Y14.941 E11.88669
G1 X-15.600 Y13.574 E11.91427
G1 X-16.169 Y12.201 E11.93990
G1 X-16.568 Y10.538 E11.96942
G1 X-16.710 Y8.737 E12.00058
G1 X-15.858 Y7.814 E12.02225
G1 X-12.169 Y7.814 E12.08589
G1 X-11.344 Y8.577 E12.10527
G1 X-11.251 Y9.753 E12.12562
G1 X-11.075 Y10.487 E12.13864
G1 X-10.786 Y11.184 E12.15166
G1 X-10.392 Y11.828 E12.16469
G1 X-9.902 Y12.402 E12.17771
G1 X-9.328 Y12.892 E12.19074
G1 X-8.684 Y13.286 E12.20376
G1 X-7.987 Y13.575 E12.21678
G1 X-7.253 Y13.751 E12.22981
G1 X-6.500 Y13.811 E12.24283
G1 X-5.747 Y13.751 E12.25586
G1 X-5.013 Y13.575 E12.26888
G1 X-4.316 Y13.286 E12.28190
G1 X-3.672 Y12.892 E12.29493
G1 X-3.098 Y12.402 E12.30795
G1 X-2.608 Y11.828 E12.32098
G1 X-2.214 Y11.184 E12.33400
G1 X-1.925 Y10.487 E12.34703
G1 X-1.749 Y9.753 E12.36005
G1 X-1.686 Y8.953 E12.37388
G1 X-1.686 Y-18.273 E12.84362
G1 X-1.686 Y-18.345 E12.84486
G1 X-1.207 Y-18.146 F7800.000
G1 X-0.646 Y-18.707 F720.000 E12.85854
G1 X14.646 Y-18.707 E13.12238
G1 X15.207 Y-18.146 E13.13606
G1 X15.207 Y-14.854 E13.19288
G1 X14.646 Y-14.293 E13.20656
G1 X3.207 Y-14.293 E13.40392
G1 X3.207 Y5.293 E13.74183
G1 X6.797 Y5.293 E13.80377
G1 X6.803 Y3.804 E13.82945
G1 X6.827 Y3.658 E13.83202
G1 X6.945 Y3.292 E13.83864
G1 X7.014 Y3.158 E13.84124
G1 X7.229 Y2.862 E13.84756
G1 X7.481 Y2.629 E13.85347
G1 X7.901 Y2.400 E13.86173
G1 X8.044 Y2.354 E13.86433
G1 X8.425 Y2.294 E13.87097
G1 X8.575 Y2.294 E13.87357
G1 X8.937 Y2.351 E13.87989
G1 X9.259 Y2.470 E13.88580
G1 X9.653 Y2.740 E13.89406
G1 X9.760 Y2.847 E13.89666
G1 X10.005 Y3.196 E13.90402
G1 X10.164 Y2.936 E13.90928
G1 X10.423 Y2.677 E13.91560
G1 X10.759 Y2.463 E13.92248
G1 X11.063 Y2.351 E13.92807
G1 X11.425 Y2.294 E13.93439
G1 X11.575 Y2.294 E13.93698
G1 X11.937 Y2.351 E13.94330
G1 X12.308 Y2.497 E13.95018
G1 X12.577 Y2.677 E13.95577
G1 X12.836 Y2.936 E13.96209
G1 X13.000 Y3.206 E13.96753
G1 X13.129 Y2.981 E13.97201
G1 X13.279 Y2.806 E13.97598
G1 X13.643 Y2.525 E13.98391
G1 X13.741 Y2.470 E13.98586
G1 X13.937 Y2.389 E13.98951
G1 X14.214 Y2.316 E13.99446
G1 X14.692 Y2.303 E14.00271
G1 X14.841 Y2.326 E14.00531
G1 X15.208 Y2.445 E14.01196
G1 X15.342 Y2.514 E14.01455
G1 X15.653 Y2.740 E14.02120
G1 X15.760 Y2.847 E14.02380
G1 X15.986 Y3.158 E14.03044
G1 X16.055 Y3.292 E14.03304
G1 X16.173 Y3.658 E14.03967
G1 X16.197 Y3.806 E14.04226
G1 X16.208 Y9.145 E14.13437
G1 X15.647 Y9.707 E14.14807
