; generated by Slic3r 0.9.8 on 2013-01-31 at 20:43:59

; layer_height = 0.25
; perimeters = 3
; top_solid_layers = 3
; bottom_solid_layers = 3
; fill_density = 0.1
; perimeter_speed = 50
; infill_speed = 90
; travel_speed = 130
; scale = 1
; nozzle_diameter = 0.4
; filament_diameter = 2.85
; extrusion_multiplier = 0.91
; perimeters extrusion width = 0.53mm
; infill extrusion width = 0.53mm
; first layer extrusion width = 0.50mm

M107
M104 S210 ; set temperature
M83
G28
G1X5Y98F9000
G1Z0.05
M104 S210
M190 S60
M109 S210
G1E5F50
G1E-1.5F1200
G1X40F4000
G1Z0.3
M113 S1.0
M108 S12.5
G90 ; use absolute coordinates
G21 ; set units to millimeters
G92 E0
M82 ; use absolute distances for extrusion
G1 F1800.000 E-1.00000
G92 E0
G1 Z0.250 F7800.000
G1 X-5.930 Y-20.900
G1 F1800.000 E1.00000
G1 X-5.500 Y-21.570 F900.000 E1.01359
G1 X-4.990 Y-22.190 E1.02729
G1 X-4.810 Y-22.380 E1.03175
G1 X-4.210 Y-22.900 E1.04530
G1 X-3.770 Y-23.200 E1.05439
G1 X-3.550 Y-23.340 E1.05884
G1 X-3.080 Y-23.590 E1.06793
G1 X-2.340 Y-23.890 E1.08155
G1 X-1.580 Y-24.100 E1.09501
G1 X-0.790 Y-24.220 E1.10864
G1 X-0.260 Y-24.240 E1.11770
G1 X14.250 Y-24.240 E1.36532
G1 X14.780 Y-24.220 E1.37437
G1 X15.050 Y-24.190 E1.37900
G1 X15.580 Y-24.100 E1.38818
G1 X16.350 Y-23.890 E1.40180
G1 X16.850 Y-23.700 E1.41093
G1 X17.330 Y-23.460 E1.42009
G1 X18.010 Y-23.040 E1.43372
G1 X18.430 Y-22.710 E1.44284
G1 X18.630 Y-22.540 E1.44732
G1 X19.010 Y-22.160 E1.45649
G1 X19.180 Y-21.960 E1.46097
G1 X19.510 Y-21.540 E1.47009
G1 X19.810 Y-21.090 E1.47931
G1 X20.060 Y-20.620 E1.48840
G1 X20.280 Y-20.140 E1.49741
G1 X20.450 Y-19.630 E1.50658
G1 X20.590 Y-19.110 E1.51577
G1 X20.680 Y-18.590 E1.52478
G1 X20.720 Y-18.060 E1.53385
G1 X21.720 Y3.870 E1.90849
G1 X21.730 Y8.740 E1.99160
G1 X21.710 Y9.270 E2.00065
G1 X21.600 Y10.060 E2.01426
G1 X21.470 Y10.570 E2.02324
G1 X21.200 Y11.320 E2.03684
G1 X20.970 Y11.800 E2.04593
G1 X20.700 Y12.260 E2.05503
G1 X20.230 Y12.900 E2.06858
G1 X19.680 Y13.480 E2.08222
G1 X19.070 Y13.990 E2.09579
G1 X18.620 Y14.280 E2.10493
G1 X18.160 Y14.540 E2.11394
G1 X-0.030 Y22.770 E2.45466
G1 X-1.300 Y23.300 E2.47815
G1 X-2.300 Y23.620 E2.49606
G1 X-3.640 Y23.940 E2.51957
G1 X-4.670 Y24.100 E2.53736
G1 X-6.040 Y24.200 E2.56081
G1 X-6.990 Y24.200 E2.57702
G1 X-8.350 Y24.100 E2.60029
G1 X-9.370 Y23.940 E2.61791
G1 X-10.710 Y23.620 E2.64142
G1 X-11.710 Y23.300 E2.65934
G1 X-12.980 Y22.770 E2.68282
G1 X-13.880 Y22.310 E2.70007
G1 X-15.050 Y21.590 E2.72352
G1 X-15.860 Y20.990 E2.74072
G1 X-16.900 Y20.100 E2.76408
G1 X-17.610 Y19.390 E2.78121
G1 X-18.500 Y18.350 E2.80457
G1 X-19.100 Y17.540 E2.82178
G1 X-19.820 Y16.370 E2.84522
G1 X-20.280 Y15.470 E2.86247
G1 X-20.810 Y14.200 E2.88595
G1 X-21.130 Y13.200 E2.90387
G1 X-21.450 Y11.860 E2.92738
G1 X-21.610 Y10.820 E2.94534
G1 X-21.710 Y9.410 E2.96946
G1 X-21.700 Y8.840 E2.97919
G1 X-21.670 Y8.550 E2.98417
G1 X-21.590 Y7.980 E2.99399
G1 X-21.450 Y7.420 E3.00384
G1 X-21.150 Y6.610 E3.01858
G1 X-20.900 Y6.100 E3.02827
G1 X-5.965 Y-20.837 E3.55390
G1 X-5.930 Y-20.900 E3.55513
G1 F1800.000 E2.55513
G92 E0
G1 X-2.164 Y-18.543 F7800.000
G1 F1800.000 E1.00000
G1 X-1.043 Y-19.664 F900.000 E1.02706
G1 X15.043 Y-19.664 E1.30157
G1 X16.164 Y-18.543 E1.32863
G1 X16.164 Y-14.457 E1.39836
G1 X15.043 Y-13.336 E1.42542
G1 X4.164 Y-13.336 E1.61107
G1 X4.164 Y4.336 E1.91265
G1 X5.844 Y4.336 E1.94132
G1 X5.846 Y3.726 E1.95172
G1 X5.894 Y3.433 E1.95679
G1 X6.059 Y2.925 E1.96590
G1 X6.195 Y2.657 E1.97104
G1 X6.488 Y2.254 E1.97954
G1 X6.641 Y2.088 E1.98339
G1 X6.902 Y1.865 E1.98925
G1 X7.090 Y1.740 E1.99310
G1 X7.534 Y1.514 E2.00160
G1 X7.820 Y1.420 E2.00674
G1 X8.349 Y1.337 E2.01589
G1 X8.651 Y1.337 E2.02103
G1 X9.142 Y1.415 E2.02953
G1 X9.360 Y1.476 E2.03338
G1 X9.677 Y1.607 E2.03924
G1 X9.992 Y1.803 E2.04557
G1 X10.358 Y1.593 E2.05277
G1 X10.640 Y1.476 E2.05799
G1 X10.858 Y1.415 E2.06184
G1 X11.349 Y1.337 E2.07034
G1 X11.651 Y1.337 E2.07548
G1 X12.142 Y1.415 E2.08398
G1 X12.360 Y1.476 E2.08783
G1 X12.642 Y1.593 E2.09305
G1 X13.008 Y1.803 E2.10025
G1 X13.323 Y1.607 E2.10658
G1 X13.606 Y1.490 E2.11180
G1 X14.046 Y1.372 E2.11958
G1 X14.270 Y1.346 E2.12343
G1 X14.768 Y1.346 E2.13193
G1 X15.065 Y1.393 E2.13707
G1 X15.575 Y1.558 E2.14621
G1 X15.843 Y1.695 E2.15135
G1 X16.277 Y2.010 E2.16049
G1 X16.490 Y2.223 E2.16564
G1 X16.805 Y2.657 E2.17478
G1 X16.941 Y2.925 E2.17992
G1 X17.107 Y3.434 E2.18904
G1 X17.154 Y3.729 E2.19415
G1 X17.166 Y9.540 E2.29332
G1 X16.044 Y10.664 E2.32042
G1 X4.033 Y10.664 E2.52540
G1 X3.665 Y12.224 E2.55274
G1 X3.035 Y13.774 E2.58130
G1 X2.171 Y15.207 E2.60986
G1 X1.093 Y16.487 E2.63841
G1 X-0.171 Y17.583 E2.66697
G1 X-1.592 Y18.467 E2.69553
G1 X-3.133 Y19.118 E2.72408
G1 X-4.758 Y19.520 E2.75264
G1 X-6.425 Y19.663 E2.78119
G1 X-8.094 Y19.544 E2.80975
G1 X-9.724 Y19.165 E2.83831
G1 X-11.274 Y18.535 E2.86686
G1 X-12.829 Y17.583 E2.89798
G1 X-14.093 Y16.487 E2.92653
G1 X-15.171 Y15.207 E2.95509
G1 X-15.967 Y13.908 E2.98109
G1 X-16.618 Y12.367 E3.00964
G1 X-17.044 Y10.594 E3.04076
G1 X-17.203 Y8.565 E3.07548
G1 X-16.067 Y7.336 E3.10405
G1 X-11.982 Y7.336 E3.17377
G1 X-10.882 Y8.353 E3.19934
G1 X-10.777 Y9.677 E3.22201
G1 X-10.619 Y10.338 E3.23361
G1 X-10.359 Y10.966 E3.24520
G1 X-10.004 Y11.546 E3.25680
G1 X-9.562 Y12.062 E3.26840
G1 X-9.046 Y12.504 E3.27999
G1 X-8.466 Y12.859 E3.29159
G1 X-7.838 Y13.119 E3.30319
G1 X-7.177 Y13.277 E3.31479
G1 X-6.500 Y13.331 E3.32638
G1 X-5.823 Y13.277 E3.33798
G1 X-5.162 Y13.119 E3.34958
G1 X-4.534 Y12.859 E3.36117
G1 X-3.954 Y12.504 E3.37277
G1 X-3.438 Y12.062 E3.38437
G1 X-2.996 Y11.546 E3.39597
G1 X-2.641 Y10.966 E3.40756
G1 X-2.381 Y10.338 E3.41916
G1 X-2.223 Y9.677 E3.43076
G1 X-2.164 Y8.935 E3.44347
G1 X-2.164 Y-18.471 E3.91117
G1 X-2.164 Y-18.543 E3.91239
G1 X-1.686 Y-18.345 F7800.000
G1 X-0.845 Y-19.186 F900.000 E3.93269
G1 X14.845 Y-19.186 E4.20043
G1 X15.686 Y-18.345 E4.22073
G1 X15.686 Y-14.655 E4.28369
G1 X14.845 Y-13.814 E4.30399
G1 X3.686 Y-13.814 E4.49442
G1 X3.686 Y4.814 E4.81233
G1 X6.320 Y4.814 E4.85730
G1 X6.325 Y3.765 E4.87520
G1 X6.360 Y3.545 E4.87900
G1 X6.502 Y3.109 E4.88683
G1 X6.605 Y2.907 E4.89069
G1 X6.859 Y2.558 E4.89806
G1 X6.973 Y2.434 E4.90095
G1 X7.192 Y2.247 E4.90585
G1 X7.332 Y2.153 E4.90874
G1 X7.717 Y1.957 E4.91611
G1 X7.932 Y1.887 E4.91997
G1 X8.387 Y1.815 E4.92783
G1 X8.613 Y1.815 E4.93168
G1 X9.040 Y1.883 E4.93906
G1 X9.203 Y1.929 E4.94195
G1 X9.468 Y2.038 E4.94684
G1 X9.615 Y2.121 E4.94973
G1 X10.007 Y2.417 E4.95809
G1 X10.237 Y2.214 E4.96334
G1 X10.558 Y2.028 E4.96967
G1 X10.960 Y1.883 E4.97696
G1 X11.387 Y1.815 E4.98434
G1 X11.613 Y1.815 E4.98819
G1 X12.040 Y1.883 E4.99556
G1 X12.203 Y1.929 E4.99845
G1 X12.542 Y2.079 E5.00479
G1 X12.763 Y2.214 E5.00920
G1 X12.994 Y2.417 E5.01446
G1 X13.384 Y2.121 E5.02282
G1 X13.532 Y2.038 E5.02571
G1 X13.771 Y1.939 E5.03013
G1 X14.130 Y1.844 E5.03646
G1 X14.298 Y1.824 E5.03935
G1 X14.730 Y1.824 E5.04672
G1 X14.953 Y1.860 E5.05058
G1 X15.391 Y2.002 E5.05844
G1 X15.593 Y2.105 E5.06229
G1 X15.965 Y2.375 E5.07015
G1 X16.125 Y2.535 E5.07401
G1 X16.395 Y2.907 E5.08186
G1 X16.498 Y3.109 E5.08572
G1 X16.640 Y3.546 E5.09356
G1 X16.675 Y3.768 E5.09739
G1 X16.687 Y9.343 E5.19254
G1 X15.846 Y10.186 E5.21286
G1 X3.596 Y10.186 E5.42191
G1 X3.551 Y10.649 E5.42985
G1 X3.204 Y12.094 E5.45521
G1 X2.600 Y13.574 E5.48248
G1 X1.773 Y14.941 E5.50975
G1 X0.742 Y16.162 E5.53703
G1 X-0.468 Y17.207 E5.56430
G1 X-1.826 Y18.049 E5.59158
G1 X-3.299 Y18.669 E5.61885
G1 X-4.851 Y19.051 E5.64613
G1 X-6.444 Y19.185 E5.67340
G1 X-8.038 Y19.068 E5.70068
G1 X-9.594 Y18.704 E5.72795
G1 X-11.074 Y18.100 E5.75522
G1 X-12.532 Y17.207 E5.78442
G1 X-13.742 Y16.162 E5.81169
G1 X-14.773 Y14.941 E5.83897
G1 X-15.600 Y13.574 E5.86624
G1 X-16.169 Y12.201 E5.89160
G1 X-16.568 Y10.538 E5.92079
G1 X-16.710 Y8.737 E5.95162
G1 X-15.858 Y7.814 E5.97305
G1 X-12.169 Y7.814 E6.03599
G1 X-11.344 Y8.577 E6.05517
G1 X-11.251 Y9.753 E6.07529
G1 X-11.075 Y10.487 E6.08817
G1 X-10.786 Y11.184 E6.10106
G1 X-10.392 Y11.828 E6.11394
G1 X-9.902 Y12.402 E6.12682
G1 X-9.328 Y12.892 E6.13970
G1 X-8.684 Y13.286 E6.15259
G1 X-7.987 Y13.575 E6.16547
G1 X-7.253 Y13.751 E6.17835
G1 X-6.500 Y13.811 E6.19123
G1 X-5.747 Y13.751 E6.20412
G1 X-5.013 Y13.575 E6.21700
G1 X-4.316 Y13.286 E6.22988
G1 X-3.672 Y12.892 E6.24276
G1 X-3.098 Y12.402 E6.25565
G1 X-2.608 Y11.828 E6.26853
G1 X-2.214 Y11.184 E6.28141
G1 X-1.925 Y10.487 E6.29429
G1 X-1.749 Y9.753 E6.30718
G1 X-1.686 Y8.953 E6.32086
G1 X-1.686 Y-18.273 E6.78549
G1 X-1.686 Y-18.345 E6.78671
G1 X-1.207 Y-18.146 F7800.000
G1 X-0.646 Y-18.707 F900.000 E6.80024
G1 X14.646 Y-18.707 E7.06122
G1 X15.207 Y-18.146 E7.07476
G1 X15.207 Y-14.854 E7.13095
G1 X14.646 Y-14.293 E7.14448
G1 X3.207 Y-14.293 E7.33970
G1 X3.207 Y5.293 E7.67394
G1 X6.797 Y5.293 E7.73521
G1 X6.803 Y3.804 E7.76061
G1 X6.827 Y3.658 E7.76314
G1 X6.945 Y3.292 E7.76970
G1 X7.014 Y3.158 E7.77227
G1 X7.229 Y2.862 E7.77852
G1 X7.481 Y2.629 E7.78437
G1 X7.901 Y2.400 E7.79253
G1 X8.044 Y2.354 E7.79510
G1 X8.425 Y2.294 E7.80167
G1 X8.575 Y2.294 E7.80425
G1 X8.937 Y2.351 E7.81049
G1 X9.259 Y2.470 E7.81634
G1 X9.653 Y2.740 E7.82451
G1 X9.760 Y2.847 E7.82708
G1 X10.005 Y3.196 E7.83437
G1 X10.164 Y2.936 E7.83957
G1 X10.423 Y2.677 E7.84582
G1 X10.759 Y2.463 E7.85262
G1 X11.063 Y2.351 E7.85815
G1 X11.425 Y2.294 E7.86440
G1 X11.575 Y2.294 E7.86697
G1 X11.937 Y2.351 E7.87322
G1 X12.308 Y2.497 E7.88002
G1 X12.577 Y2.677 E7.88555
G1 X12.836 Y2.936 E7.89180
G1 X13.000 Y3.206 E7.89719
G1 X13.129 Y2.981 E7.90161
G1 X13.279 Y2.806 E7.90555
G1 X13.643 Y2.525 E7.91339
G1 X13.741 Y2.470 E7.91532
G1 X13.937 Y2.389 E7.91893
G1 X14.214 Y2.316 E7.92382
G1 X14.692 Y2.303 E7.93198
G1 X14.841 Y2.326 E7.93455
G1 X15.208 Y2.445 E7.94113
G1 X15.342 Y2.514 E7.94370
G1 X15.653 Y2.740 E7.95027
G1 X15.760 Y2.847 E7.95284
G1 X15.986 Y3.158 E7.95941
G1 X16.055 Y3.292 E7.96198
G1 X16.173 Y3.658 E7.96854
G1 X16.197 Y3.806 E7.97110
G1 X16.208 Y9.145 E8.06221
G1 X15.647 Y9.707 E8.07576
G1 X3.154 Y9.707 E8.28897
G1 X3.081 Y10.556 E8.30350
G1 X2.743 Y11.964 E8.32821
G1 X2.165 Y13.373 E8.35421
G1 X1.375 Y14.675 E8.38020
G1 X0.390 Y15.837 E8.40619
G1 X-0.764 Y16.831 E8.43219
G1 X-2.060 Y17.631 E8.45818
G1 X-3.465 Y18.220 E8.48417
G1 X-4.944 Y18.581 E8.51016
G1 X-6.462 Y18.706 E8.53616
G1 X-7.981 Y18.593 E8.56215
G1 X-9.464 Y18.243 E8.58814
G1 X-10.873 Y17.666 E8.61413
G1 X-12.236 Y16.830 E8.64141
G1 X-13.390 Y15.837 E8.66740
G1 X-14.375 Y14.675 E8.69339
G1 X-15.166 Y13.373 E8.71938
G1 X-15.720 Y12.035 E8.74410
G1 X-16.081 Y10.556 E8.77009
G1 X-16.217 Y8.908 E8.79831
G1 X-15.648 Y8.293 E8.81259
G1 X-12.357 Y8.293 E8.86877
G1 X-11.806 Y8.801 E8.88155
G1 X-11.726 Y9.828 E8.89912
G1 X-11.532 Y10.635 E8.91329
G1 X-11.214 Y11.402 E8.92746
G1 X-10.780 Y12.110 E8.94162
G1 X-10.241 Y12.741 E8.95579
G1 X-9.610 Y13.280 E8.96996
G1 X-8.902 Y13.714 E8.98413
G1 X-8.135 Y14.032 E8.99830
G1 X-7.328 Y14.226 E9.01246
G1 X-6.500 Y14.291 E9.02663
G1 X-5.672 Y14.226 E9.04080
G1 X-4.865 Y14.032 E9.05497
G1 X-4.098 Y13.714 E9.06914
G1 X-3.390 Y13.280 E9.08330
G1 X-2.759 Y12.741 E9.09747
G1 X-2.220 Y12.110 E9.11164
G1 X-1.786 Y11.402 E9.12581
G1 X-1.468 Y10.635 E9.13998
G1 X-1.274 Y9.828 E9.15414
G1 X-1.207 Y8.972 E9.16879
G1 X-1.207 Y-18.075 E9.63036
G1 X-1.207 Y-18.146 E9.63158
G1 X-0.729 Y-17.948 F7800.000
G1 X-0.448 Y-18.229 F900.000 E9.63835
G1 X14.448 Y-18.229 E9.89256
G1 X14.729 Y-17.948 E9.89933
G1 X14.729 Y-15.052 E9.94876
G1 X14.448 Y-14.771 E9.95552
G1 X2.729 Y-14.771 E10.15553
G1 X2.729 Y5.771 E10.50610
G1 X7.273 Y5.771 E10.58366
G1 X7.293 Y3.770 E10.61782
G1 X7.389 Y3.476 E10.62309
G1 X7.600 Y3.166 E10.62949
G1 X7.817 Y2.980 E10.63437
G1 X8.156 Y2.821 E10.64077
G1 X8.538 Y2.772 E10.64733
G1 X8.834 Y2.819 E10.65245
G1 X9.049 Y2.901 E10.65638
G1 X9.395 Y3.158 E10.66373
G1 X9.599 Y3.451 E10.66982
G1 X9.705 Y3.771 E10.67558
G1 X10.295 Y3.771 E10.68564
G1 X10.348 Y3.576 E10.68909
G1 X10.485 Y3.309 E10.69422
G1 X10.785 Y3.001 E10.70157
G1 X10.959 Y2.898 E10.70502
G1 X11.166 Y2.819 E10.70878
G1 X11.462 Y2.772 E10.71391
G1 X11.834 Y2.819 E10.72031
G1 X12.041 Y2.898 E10.72407
G1 X12.214 Y3.001 E10.72752
G1 X12.471 Y3.248 E10.73360
G1 X12.652 Y3.576 E10.74000
G1 X12.705 Y3.771 E10.74345
G1 X13.295 Y3.771 E10.75351
G1 X13.348 Y3.576 E10.75696
G1 X13.512 Y3.270 E10.76288
G1 X13.666 Y3.100 E10.76681
G1 X13.901 Y2.929 E10.77177
G1 X14.103 Y2.838 E10.77554
G1 X14.299 Y2.788 E10.77899
G1 X14.729 Y2.793 E10.78634
G1 X15.024 Y2.889 E10.79163
G1 X15.342 Y3.105 E10.79819
G1 X15.577 Y3.409 E10.80474
G1 X15.707 Y3.770 E10.81130
G1 X15.729 Y8.948 E10.89965
G1 X15.449 Y9.229 E10.90642
G1 X2.711 Y9.229 E11.12379
G1 X2.611 Y10.462 E11.14491
G1 X2.282 Y11.834 E11.16898
G1 X1.731 Y13.173 E11.19369
G1 X0.976 Y14.409 E11.21841
G1 X0.038 Y15.512 E11.24312
G1 X-1.061 Y16.454 E11.26783
G1 X-2.294 Y17.214 E11.29254
G1 X-3.631 Y17.770 E11.31725
G1 X-5.038 Y18.111 E11.34196
G1 X-6.481 Y18.228 E11.36667
G1 X-7.925 Y18.117 E11.39138
G1 X-9.334 Y17.782 E11.41609
G1 X-10.673 Y17.231 E11.44080
G1 X-11.939 Y16.454 E11.46616
G1 X-13.038 Y15.512 E11.49087
G1 X-13.977 Y14.409 E11.51558
G1 X-14.731 Y13.173 E11.54029
G1 X-15.282 Y11.834 E11.56500
G1 X-15.611 Y10.462 E11.58907
G1 X-15.723 Y9.079 E11.61275
G1 X-15.439 Y8.771 E11.61990
G1 X-12.544 Y8.771 E11.66930
G1 X-12.269 Y9.026 E11.67570
G1 X-12.200 Y9.903 E11.69071
G1 X-11.988 Y10.783 E11.70616
G1 X-11.642 Y11.620 E11.72162
G1 X-11.169 Y12.392 E11.73707
G1 X-10.580 Y13.081 E11.75252
G1 X-9.892 Y13.669 E11.76798
G1 X-9.120 Y14.142 E11.78343
G1 X-8.283 Y14.488 E11.79888
G1 X-7.403 Y14.700 E11.81434
G1 X-6.500 Y14.771 E11.82979
G1 X-5.597 Y14.700 E11.84524
G1 X-4.717 Y14.488 E11.86070
G1 X-3.880 Y14.142 E11.87615
G1 X-3.108 Y13.669 E11.89160
G1 X-2.419 Y13.081 E11.90706
G1 X-1.831 Y12.392 E11.92251
G1 X-1.358 Y11.620 E11.93796
G1 X-1.012 Y10.783 E11.95342
G1 X-0.800 Y9.903 E11.96887
G1 X-0.729 Y8.991 E11.98448
G1 X-0.729 Y-17.876 E12.44299
G1 X-0.729 Y-17.948 E12.44421
G1 X-0.250 Y-17.750 F7800.000
G1 X14.250 Y-17.750 F900.000 E12.69166
G1 X14.250 Y-15.250 E12.73432
G1 X2.250 Y-15.250 E12.93911
G1 X2.250 Y6.250 E13.30602
G1 X7.750 Y6.250 E13.39988
G1 X7.760 Y3.883 E13.44028
G1 X7.832 Y3.660 E13.44428
G1 X7.970 Y3.470 E13.44828
G1 X8.160 Y3.332 E13.45228
G1 X8.383 Y3.260 E13.45628
G1 X8.500 Y3.251 E13.45829
G1 X8.732 Y3.287 E13.46229
G1 X8.840 Y3.332 E13.46429
G1 X9.030 Y3.470 E13.46829
G1 X9.168 Y3.660 E13.47229
G1 X9.213 Y3.768 E13.47430
G1 X9.240 Y3.883 E13.47631
G1 X9.269 Y4.250 E13.48259
G1 X10.731 Y4.250 E13.50755
G1 X10.760 Y3.883 E13.51383
G1 X10.787 Y3.768 E13.51584
G1 X10.894 Y3.560 E13.51984
G1 X11.060 Y3.394 E13.52384
G1 X11.160 Y3.332 E13.52585
G1 X11.268 Y3.287 E13.52785
G1 X11.500 Y3.251 E13.53185
G1 X11.732 Y3.287 E13.53585
G1 X11.840 Y3.332 E13.53786
G1 X11.940 Y3.394 E13.53987
G1 X12.106 Y3.560 E13.54387
G1 X12.213 Y3.768 E13.54787
G1 X12.240 Y3.883 E13.54987
G1 X12.269 Y4.250 E13.55616
G1 X13.731 Y4.250 E13.58111
G1 X13.760 Y3.883 E13.58740
G1 X13.787 Y3.768 E13.58940
G1 X13.894 Y3.560 E13.59340
G1 X14.060 Y3.394 E13.59740
G1 X14.160 Y3.332 E13.59941
G1 X14.383 Y3.260 E13.60341
G1 X14.617 Y3.260 E13.60741
G1 X14.732 Y3.287 E13.60942
G1 X14.840 Y3.332 E13.61143
G1 X15.030 Y3.470 E13.61542
G1 X15.106 Y3.560 E13.61743
G1 X15.213 Y3.768 E13.62143
G1 X15.250 Y4.010 E13.62560
G1 X15.250 Y8.750 E13.70649
G1 X2.269 Y8.750 E13.92802
G1 X2.142 Y10.369 E13.95573
G1 X1.821 Y11.704 E13.97916
G1 X1.296 Y12.972 E14.00259
G1 X0.578 Y14.143 E14.02602
G1 X-0.313 Y15.187 E14.04945
G1 X-1.357 Y16.078 E14.07288
G1 X-2.528 Y16.796 E14.09631
G1 X-3.796 Y17.321 E14.11974
G1 X-5.131 Y17.642 E14.14317
G1 X-6.500 Y17.749 E14.16660
G1 X-7.869 Y17.642 E14.19003
G1 X-9.204 Y17.321 E14.21346
G1 X-10.472 Y16.796 E14.23689
G1 X-11.643 Y16.078 E14.26032
G1 X-12.687 Y15.187 E14.28375
G1 X-13.578 Y14.143 E14.30718
G1 X-14.296 Y12.972 E14.33060
G1 X-14.821 Y11.704 E14.35403
G1 X-15.142 Y10.369 E14.37746
G1 X-15.230 Y9.250 E14.39661
G1 X-12.731 Y9.250 E14.43925
G1 X-12.674 Y9.978 E14.45171
G1 X-12.445 Y10.932 E14.46845
G1 X-12.069 Y11.838 E14.48519
G1 X-11.557 Y12.674 E14.50193
G1 X-10.920 Y13.420 E14.51867
