; generated by Slic3r 0.9.8 on 2013-01-26 at 09:12:40

; layer_height = 0.3
; perimeters = 3
; top_solid_layers = 3
; bottom_solid_layers = 3
; fill_density = 0.2
; perimeter_speed = 30
; infill_speed = 60
; travel_speed = 130
; scale = 1
; nozzle_diameter = 0.4
; filament_diameter = 2.9
; extrusion_multiplier = 1
; perimeters extrusion width = 0.50mm
; infill extrusion width = 0.50mm
; first layer extrusion width = 0.42mm

M107
M104 S220 ; set temperature
M83
G28
G1X5Y98F9000
G1Z0.05
M104 S210
M190 S60
M109 S220
G1E5F50
G1E-1.5F1200
G1X40F4000
G1Z0.3
M113 S1.0
M108 S12.5
G90 ; use absolute coordinates
G21 ; set units to millimeters
G92 E0
M82 ; use absolute distances for extrusion
G1 F1800.000 E-1.00000
G92 E0
G1 Z0.300 F7800.000
G1 X-13.270 Y-13.040
G1 F1800.000 E1.00000
G1 X-12.790 Y-13.500 F360.000 E1.01265
G1 X-12.290 Y-13.940 E1.02532
G1 X-11.750 Y-14.340 E1.03810
G1 X-10.900 Y-14.870 E1.05716
G1 X-10.010 Y-15.320 E1.07614
G1 X-9.070 Y-15.680 E1.09529
G1 X-8.430 Y-15.870 E1.10799
G1 X-7.780 Y-16.020 E1.12068
G1 X-7.450 Y-16.080 E1.12706
G1 X-6.790 Y-16.160 E1.13971
G1 X-6.460 Y-16.190 E1.14601
G1 X-5.790 Y-16.210 E1.15876
G1 X5.780 Y-16.210 E1.37888
G1 X6.450 Y-16.190 E1.39164
G1 X7.440 Y-16.080 E1.41059
G1 X8.100 Y-15.950 E1.42338
G1 X9.060 Y-15.680 E1.44236
G1 X10.000 Y-15.320 E1.46151
G1 X10.600 Y-15.030 E1.47418
G1 X11.180 Y-14.700 E1.48688
G1 X11.740 Y-14.340 E1.49955
G1 X12.280 Y-13.940 E1.51233
G1 X13.030 Y-13.270 E1.53146
G1 X13.490 Y-12.790 E1.54411
G1 X13.930 Y-12.290 E1.55678
G1 X14.330 Y-11.750 E1.56957
G1 X14.860 Y-10.900 E1.58863
G1 X15.310 Y-10.010 E1.60760
G1 X15.670 Y-9.070 E1.62675
G1 X15.860 Y-8.430 E1.63945
G1 X16.010 Y-7.780 E1.65214
G1 X16.070 Y-7.450 E1.65852
G1 X16.150 Y-6.790 E1.67117
G1 X16.180 Y-6.460 E1.67748
G1 X16.200 Y-5.790 E1.69023
G1 X16.200 Y5.780 E1.91035
G1 X16.180 Y6.450 E1.92310
G1 X16.070 Y7.440 E1.94205
G1 X15.940 Y8.100 E1.95485
G1 X15.670 Y9.060 E1.97382
G1 X15.440 Y9.690 E1.98658
G1 X15.170 Y10.300 E1.99927
G1 X14.860 Y10.890 E2.01195
G1 X14.330 Y11.740 E2.03101
G1 X13.930 Y12.280 E2.04379
G1 X13.490 Y12.780 E2.05646
G1 X13.260 Y13.030 E2.06293
G1 X12.780 Y13.490 E2.07558
G1 X12.280 Y13.930 E2.08825
G1 X11.740 Y14.330 E2.10103
G1 X10.890 Y14.860 E2.12009
G1 X10.000 Y15.310 E2.13906
G1 X9.060 Y15.670 E2.15821
G1 X8.420 Y15.860 E2.17091
G1 X7.770 Y16.010 E2.18361
G1 X7.440 Y16.070 E2.18999
G1 X6.780 Y16.150 E2.20264
G1 X6.450 Y16.180 E2.20894
G1 X5.780 Y16.200 E2.22169
G1 X-5.790 Y16.200 E2.44181
G1 X-6.460 Y16.180 E2.45456
G1 X-7.450 Y16.070 E2.47351
G1 X-8.110 Y15.940 E2.48631
G1 X-9.070 Y15.670 E2.50528
G1 X-10.010 Y15.310 E2.52443
G1 X-10.610 Y15.020 E2.53711
G1 X-11.190 Y14.690 E2.54981
G1 X-11.750 Y14.330 E2.56247
G1 X-12.290 Y13.930 E2.57526
G1 X-13.040 Y13.260 E2.59439
G1 X-13.500 Y12.780 E2.60704
G1 X-13.940 Y12.280 E2.61971
G1 X-14.340 Y11.740 E2.63250
G1 X-14.870 Y10.890 E2.65155
G1 X-15.320 Y10.000 E2.67053
G1 X-15.680 Y9.060 E2.68968
G1 X-15.870 Y8.420 E2.70238
G1 X-16.020 Y7.770 E2.71507
G1 X-16.080 Y7.440 E2.72145
G1 X-16.160 Y6.780 E2.73410
G1 X-16.190 Y6.450 E2.74040
G1 X-16.210 Y5.780 E2.75316
G1 X-16.210 Y-5.790 E2.97327
G1 X-16.190 Y-6.460 E2.98603
G1 X-16.080 Y-7.450 E3.00498
G1 X-15.950 Y-8.110 E3.01778
G1 X-15.680 Y-9.070 E3.03675
G1 X-15.450 Y-9.700 E3.04951
G1 X-15.180 Y-10.310 E3.06220
G1 X-14.870 Y-10.900 E3.07488
G1 X-14.340 Y-11.750 E3.09394
G1 X-13.940 Y-12.290 E3.10672
G1 X-13.313 Y-12.994 E3.12466
G1 X-13.270 Y-13.040 E3.12585
G1 F1800.000 E2.12585
G92 E0
G1 X4.950 Y4.950 F7800.000
G1 F1800.000 E1.00000
G1 X-4.950 Y4.950 F360.000 E1.18836
G1 X-4.950 Y-4.950 E1.37671
G1 X4.950 Y-4.950 E1.56507
G1 X4.950 Y4.887 E1.75223
G1 X4.950 Y4.950 E1.75342
G1 X5.369 Y5.369 F7800.000
G1 X-5.369 Y5.369 F360.000 E1.95772
G1 X-5.369 Y-5.369 E2.16201
G1 X5.369 Y-5.369 E2.36630
G1 X5.369 Y5.306 E2.56940
G1 X5.369 Y5.369 E2.57060
G1 X5.788 Y5.788 F7800.000
G1 X-5.788 Y5.788 F360.000 E2.79083
G1 X-5.788 Y-5.788 E3.01106
G1 X5.788 Y-5.788 E3.23130
G1 X5.788 Y5.725 E3.45033
G1 X5.788 Y5.788 E3.45153
G1 X5.425 Y5.579 F7800.000
G1 F1800.000 E2.45153
G92 E0
G1 X-4.398 Y4.665 F7800.000
G1 F1800.000 E1.00000
G1 X-4.665 Y4.398 F720.000 E1.00732
G1 X-4.665 Y3.794 E1.01904
G1 X-3.794 Y4.665 E1.04294
G1 X-3.190 Y4.665 E1.05467
G1 X-4.665 Y3.190 E1.09515
G1 X-4.665 Y2.585 E1.10687
G1 X-2.585 Y4.665 E1.16393
G1 X-1.981 Y4.665 E1.17565
G1 X-4.665 Y1.981 E1.24929
G1 X-4.665 Y1.377 E1.26101
G1 X-1.377 Y4.665 E1.35123
G1 X-0.773 Y4.665 E1.36296
G1 X-4.665 Y0.773 E1.46975
G1 X-4.665 Y0.169 E1.48148
G1 X-0.169 Y4.665 E1.60485
G1 X0.435 Y4.665 E1.61658
G1 X-4.665 Y-0.435 E1.75653
G1 X-4.665 Y-1.040 E1.76826
G1 X1.040 Y4.665 E1.92479
G1 X1.644 Y4.665 E1.93651
G1 X-4.665 Y-1.644 E2.10963
G1 X-4.665 Y-2.248 E2.12135
G1 X2.248 Y4.665 E2.31105
G1 X2.852 Y4.665 E2.32277
G1 X-4.665 Y-2.852 E2.52904
G1 X-4.665 Y-3.456 E2.54077
G1 X3.456 Y4.665 E2.76362
G1 X4.061 Y4.665 E2.77534
G1 X-4.665 Y-4.061 E3.01477
G1 X-4.665 Y-4.665 E3.02650
G1 X4.665 Y4.665 E3.28250
G1 X4.665 Y4.061 E3.29422
G1 X-4.061 Y-4.665 E3.53365
G1 X-3.456 Y-4.665 E3.54538
G1 X4.665 Y3.456 E3.76823
G1 X4.665 Y2.852 E3.77995
G1 X-2.852 Y-4.665 E3.98623
G1 X-2.248 Y-4.665 E3.99795
G1 X4.665 Y2.248 E4.18765
G1 X4.665 Y1.644 E4.19937
G1 X-1.644 Y-4.665 E4.37248
G1 X-1.040 Y-4.665 E4.38421
G1 X4.665 Y1.040 E4.54074
G1 X4.665 Y0.436 E4.55247
G1 X-0.436 Y-4.665 E4.69242
G1 X0.169 Y-4.665 E4.70415
G1 X4.665 Y-0.169 E4.82752
G1 X4.665 Y-0.773 E4.83925
G1 X0.773 Y-4.665 E4.94604
G1 X1.377 Y-4.665 E4.95777
G1 X4.665 Y-1.377 E5.04798
G1 X4.665 Y-1.981 E5.05971
G1 X1.981 Y-4.665 E5.13334
G1 X2.585 Y-4.665 E5.14507
G1 X4.665 Y-2.585 E5.20212
G1 X4.665 Y-3.190 E5.21385
G1 X3.190 Y-4.665 E5.25433
G1 X3.794 Y-4.665 E5.26605
G1 X4.665 Y-3.794 E5.28995
G1 X4.665 Y-4.398 E5.30168
G1 X4.398 Y-4.665 E5.30900
M106 S255
G1 F1800.000 E4.30900
G92 E0
G1 Z0.600 F7800.000
G1 X-4.793 Y4.793
G1 F1800.000 E1.00000
G1 X-4.793 Y-4.793 F867.168 E1.20835
G1 X4.793 Y-4.793 E1.41669
G1 X4.793 Y4.793 E1.62504
G1 X-4.721 Y4.793 E1.83182
G1 X-4.793 Y4.793 E1.83338
G1 X-5.271 Y5.271 F7800.000
G1 X-5.271 Y-5.271 F867.168 E2.06253
G1 X5.271 Y-5.271 E2.29168
G1 X5.271 Y5.271 E2.52082
G1 X-5.200 Y5.271 E2.74841
G1 X-5.271 Y5.271 E2.74997
G1 X-5.750 Y5.750 F7800.000
G1 X-5.750 Y-5.750 F867.168 E2.99992
G1 X5.750 Y-5.750 E3.24987
G1 X5.750 Y5.750 E3.49982
G1 X-5.678 Y5.750 E3.74821
G1 X-5.750 Y5.750 E3.74977
G1 X-5.511 Y5.336 F7800.000
G1 F1800.000 E2.74977
G92 E0
G1 X-4.162 Y-4.467 F7800.000
G1 F1800.000 E1.00000
G1 X-4.467 Y-4.162 F1734.336 E1.00955
G1 X-4.467 Y-3.472 E1.02486
G1 X-3.472 Y-4.467 E1.05605
G1 X-2.781 Y-4.467 E1.07136
G1 X-4.467 Y-2.781 E1.12420
G1 X-4.467 Y-2.091 E1.13950
G1 X-2.091 Y-4.467 E1.21398
G1 X-1.401 Y-4.467 E1.22929
G1 X-4.467 Y-1.401 E1.32542
G1 X-4.467 Y-0.711 E1.34072
G1 X-0.711 Y-4.467 E1.45849
G1 X-0.020 Y-4.467 E1.47379
G1 X-4.467 Y-0.020 E1.61320
G1 X-4.467 Y0.670 E1.62851
G1 X0.670 Y-4.467 E1.78956
G1 X1.360 Y-4.467 E1.80487
G1 X-4.467 Y1.360 E1.98757
G1 X-4.467 Y2.051 E2.00287
G1 X2.051 Y-4.467 E2.20721
G1 X2.741 Y-4.467 E2.22252
G1 X-4.467 Y2.741 E2.44850
G1 X-4.467 Y3.431 E2.46380
G1 X3.431 Y-4.467 E2.71143
G1 X4.122 Y-4.467 E2.72673
G1 X-4.467 Y4.122 E2.99601
G1 X-4.122 Y4.467 E3.00683
G1 X4.467 Y-4.122 E3.27610
G1 X4.467 Y-3.431 E3.29141
G1 X-3.431 Y4.467 E3.53904
G1 X-2.741 Y4.467 E3.55434
G1 X4.467 Y-2.741 E3.78032
G1 X4.467 Y-2.051 E3.79563
G1 X-2.051 Y4.467 E3.99997
G1 X-1.360 Y4.467 E4.01527
G1 X4.467 Y-1.360 E4.19797
G1 X4.467 Y-0.670 E4.21328
G1 X-0.670 Y4.467 E4.37433
G1 X0.020 Y4.467 E4.38964
G1 X4.467 Y0.020 E4.52905
G1 X4.467 Y0.711 E4.54436
G1 X0.711 Y4.467 E4.66213
G1 X1.401 Y4.467 E4.67743
G1 X4.467 Y1.401 E4.77356
G1 X4.467 Y2.091 E4.78886
G1 X2.091 Y4.467 E4.86334
G1 X2.781 Y4.467 E4.87865
G1 X4.467 Y2.781 E4.93149
G1 X4.467 Y3.472 E4.94679
G1 X3.472 Y4.467 E4.97799
G1 X4.162 Y4.467 E4.99330
G1 X4.467 Y4.162 E5.00285
G1 F1800.000 E4.00285
G92 E0
G1 Z0.900 F7800.000
G1 X-4.793 Y-4.793
G1 F1800.000 E1.00000
G1 X4.793 Y-4.793 F939.388 E1.20835
G1 X4.793 Y4.793 E1.41669
G1 X-4.793 Y4.793 E1.62504
G1 X-4.793 Y-4.721 E1.83182
G1 X-4.793 Y-4.793 E1.83338
G1 X-5.271 Y-5.271 F7800.000
G1 X5.271 Y-5.271 F939.388 E2.06253
G1 X5.271 Y5.271 E2.29168
G1 X-5.271 Y5.271 E2.52082
G1 X-5.271 Y-5.200 E2.74841
G1 X-5.271 Y-5.271 E2.74997
G1 X-5.750 Y-5.750 F7800.000
G1 X5.750 Y-5.750 F939.388 E2.99992
G1 X5.750 Y5.750 E3.24987
G1 X-5.750 Y5.750 E3.49982
G1 X-5.750 Y-5.678 E3.74821
G1 X-5.750 Y-5.750 E3.74977
G1 X-5.336 Y-5.511 F7800.000
G1 F1800.000 E2.74977
G92 E0
G1 X4.467 Y-4.162 F7800.000
G1 F1800.000 E1.00000
G1 X4.162 Y-4.467 F1565.646 E1.00955
G1 X3.472 Y-4.467 E1.02486
G1 X4.467 Y-3.472 E1.05605
G1 X4.467 Y-2.781 E1.07136
G1 X2.781 Y-4.467 E1.12420
G1 X2.091 Y-4.467 E1.13950
G1 X4.467 Y-2.091 E1.21399
G1 X4.467 Y-1.401 E1.22929
G1 X1.401 Y-4.467 E1.32541
G1 X0.711 Y-4.467 E1.34072
G1 X4.467 Y-0.711 E1.45849
G1 X4.467 Y-0.020 E1.47379
G1 X0.020 Y-4.467 E1.61320
G1 X-0.670 Y-4.467 E1.62850
G1 X4.467 Y0.670 E1.78956
G1 X4.467 Y1.360 E1.80486
G1 X-1.360 Y-4.467 E1.98756
G1 X-2.051 Y-4.467 E2.00286
G1 X4.467 Y2.051 E2.20720
G1 X4.467 Y2.741 E2.22251
G1 X-2.741 Y-4.467 E2.44849
G1 X-3.431 Y-4.467 E2.46379
G1 X4.467 Y3.431 E2.71142
G1 X4.467 Y4.122 E2.72672
G1 X-4.122 Y-4.467 E2.99599
G1 X-4.467 Y-4.122 E3.00681
G1 X4.122 Y4.467 E3.27608
G1 X3.431 Y4.467 E3.29139
G1 X-4.467 Y-3.431 E3.53901
G1 X-4.467 Y-2.741 E3.55432
G1 X2.741 Y4.467 E3.78030
G1 X2.051 Y4.467 E3.79560
G1 X-4.467 Y-2.051 E3.99995
G1 X-4.467 Y-1.360 E4.01525
G1 X1.360 Y4.467 E4.19795
G1 X0.670 Y4.467 E4.21325
G1 X-4.467 Y-0.670 E4.37431
G1 X-4.467 Y0.020 E4.38961
G1 X-0.020 Y4.467 E4.52902
G1 X-0.711 Y4.467 E4.54432
G1 X-4.467 Y0.710 E4.66209
G1 X-4.467 Y1.401 E4.67740
G1 X-1.401 Y4.467 E4.77352
G1 X-2.091 Y4.467 E4.78883
G1 X-4.467 Y2.091 E4.86331
G1 X-4.467 Y2.781 E4.87861
G1 X-2.781 Y4.467 E4.93146
G1 X-3.472 Y4.467 E4.94676
G1 X-4.467 Y3.472 E4.97796
G1 X-4.467 Y4.162 E4.99326
G1 X-4.162 Y4.467 E5.00282
G1 F1800.000 E4.00282
G92 E0
G1 Z1.200 F7800.000
G1 X3.043 Y-3.043
G1 F1800.000 E1.00000
G1 X3.043 Y3.043 F600.000 E1.13227
G1 X-3.043 Y3.043 E1.26455
G1 X-3.043 Y-3.043 E1.39682
G1 X2.971 Y-3.043 E1.52754
G1 X3.043 Y-3.043 E1.52910
G1 X3.521 Y-3.521 F7800.000
G1 X3.521 Y3.521 F600.000 E1.68217
G1 X-3.521 Y3.521 E1.83525
G1 X-3.521 Y-3.521 E1.98832
G1 X3.450 Y-3.521 E2.13984
G1 X3.521 Y-3.521 E2.14140
G1 X4.000 Y-4.000 F7800.000
G1 X4.000 Y4.000 F600.000 E2.31528
G1 X-4.000 Y4.000 E2.48915
G1 X-4.000 Y-4.000 E2.66303
G1 X3.928 Y-4.000 E2.83535
G1 X4.000 Y-4.000 E2.83691
G1 X3.761 Y-3.586 F7800.000
G1 F1800.000 E1.83691
G92 E0
G1 X2.717 Y2.412 F7800.000
G1 F1800.000 E1.00000
G1 X2.412 Y2.717 F960.560 E1.00946
G1 X1.728 Y2.717 E1.02448
G1 X2.717 Y1.728 E1.05519
G1 X2.717 Y1.044 E1.07021
G1 X1.044 Y2.717 E1.12215
G1 X0.360 Y2.717 E1.13717
G1 X2.717 Y0.360 E1.21035
G1 X2.717 Y-0.323 E1.22537
G1 X-0.323 Y2.717 E1.31979
G1 X-1.007 Y2.717 E1.33481
G1 X2.717 Y-1.007 E1.45047
G1 X2.717 Y-1.691 E1.46549
G1 X-1.691 Y2.717 E1.60239
G1 X-2.375 Y2.717 E1.61741
G1 X2.717 Y-2.375 E1.77555
G1 X2.375 Y-2.717 E1.78617
G1 X-2.717 Y2.375 E1.94431
G1 X-2.717 Y1.691 E1.95933
G1 X1.691 Y-2.717 E2.09623
G1 X1.007 Y-2.717 E2.11125
G1 X-2.717 Y1.007 E2.22691
G1 X-2.717 Y0.323 E2.24193
G1 X0.323 Y-2.717 E2.33635
G1 X-0.361 Y-2.717 E2.35137
G1 X-2.717 Y-0.361 E2.42456
G1 X-2.717 Y-1.044 E2.43957
G1 X-1.044 Y-2.717 E2.49152
G1 X-1.728 Y-2.717 E2.50654
G1 X-2.717 Y-1.728 E2.53724
G1 X-2.717 Y-2.412 E2.55226
G1 X-2.412 Y-2.717 E2.56172
G1 F1800.000 E1.56172
G92 E0
G1 Z1.500 F7800.000
G1 X-3.043 Y3.043
G1 F1800.000 E1.00000
G1 X-3.043 Y-3.043 F600.000 E1.13227
G1 X3.043 Y-3.043 E1.26455
G1 X3.043 Y3.043 E1.39682
G1 X-2.971 Y3.043 E1.52754
G1 X-3.043 Y3.043 E1.52910
G1 X-3.521 Y3.521 F7800.000
G1 X-3.521 Y-3.521 F600.000 E1.68217
G1 X3.521 Y-3.521 E1.83525
G1 X3.521 Y3.521 E1.98832
G1 X-3.450 Y3.521 E2.13984
G1 X-3.521 Y3.521 E2.14140
G1 X-4.000 Y4.000 F7800.000
G1 X-4.000 Y-4.000 F600.000 E2.31528
G1 X4.000 Y-4.000 E2.48915
G1 X4.000 Y4.000 E2.66303
G1 X-3.928 Y4.000 E2.83535
G1 X-4.000 Y4.000 E2.83691
G1 X-3.761 Y3.586 F7800.000
G1 X-2.412 Y2.717
G1 X-2.717 Y2.412 F960.560 E2.84637
G1 X-2.717 Y1.728 E2.86139
G1 X-1.728 Y2.717 E2.89210
G1 X-1.044 Y2.717 E2.90711
G1 X-2.717 Y1.044 E2.95906
G1 X-2.717 Y0.361 E2.97408
G1 X-0.360 Y2.717 E3.04726
G1 X0.323 Y2.717 E3.06228
G1 X-2.717 Y-0.323 E3.15670
G1 X-2.717 Y-1.007 E3.17172
G1 X1.007 Y2.717 E3.28738
G1 X1.691 Y2.717 E3.30240
G1 X-2.717 Y-1.691 E3.43930
G1 X-2.717 Y-2.375 E3.45432
G1 X2.375 Y2.717 E3.61246
G1 X2.717 Y2.375 E3.62309
G1 X-2.375 Y-2.717 E3.78123
G1 X-1.691 Y-2.717 E3.79625
G1 X2.717 Y1.691 E3.93315
G1 X2.717 Y1.007 E3.94817
G1 X-1.007 Y-2.717 E4.06383
G1 X-0.323 Y-2.717 E4.07885
G1 X2.717 Y0.323 E4.17327
G1 X2.717 Y-0.361 E4.18829
G1 X0.361 Y-2.717 E4.26147
G1 X1.044 Y-2.717 E4.27649
G1 X2.717 Y-1.044 E4.32843
G1 X2.717 Y-1.728 E4.34345
G1 X1.728 Y-2.717 E4.37416
G1 X2.412 Y-2.717 E4.38918
G1 X2.717 Y-2.412 E4.39864
G1 F1800.000 E3.39864
G92 E0
G1 Z1.800 F7800.000
G1 X-3.043 Y3.043
G1 F1800.000 E1.00000
G1 X-3.043 Y-3.043 F600.000 E1.13227
G1 X3.043 Y-3.043 E1.26455
G1 X3.043 Y3.043 E1.39682
G1 X-2.971 Y3.043 E1.52754
G1 X-3.043 Y3.043 E1.52910
G1 X-3.521 Y3.521 F7800.000
G1 X-3.521 Y-3.521 F600.000 E1.68217
G1 X3.521 Y-3.521 E1.83525
G1 X3.521 Y3.521 E1.98832
G1 X-3.450 Y3.521 E2.13984
G1 X-3.521 Y3.521 E2.14140
G1 X-4.000 Y4.000 F7800.000
G1 X-4.000 Y-4.000 F600.000 E2.31528
G1 X4.000 Y-4.000 E2.48915
G1 X4.000 Y4.000 E2.66303
G1 X-3.928 Y4.000 E2.83535
G1 X-4.000 Y4.000 E2.83691
G1 X-3.761 Y3.586 F7800.000
G1 F1800.000 E1.83691
G92 E0
G1 X-2.412 Y-2.717 F7800.000
G1 F1800.000 E1.00000
G1 X-2.717 Y-2.412 F960.560 E1.00946
G1 X-2.717 Y-1.728 E1.02448
G1 X-1.728 Y-2.717 E1.05519
G1 X-1.044 Y-2.717 E1.07021
G1 X-2.717 Y-1.044 E1.12215
G1 X-2.717 Y-0.361 E1.13717
G1 X-0.361 Y-2.717 E1.21035
G1 X0.323 Y-2.717 E1.22537
G1 X-2.717 Y0.323 E1.31979
G1 X-2.717 Y1.007 E1.33481
G1 X1.007 Y-2.717 E1.45047
G1 X1.691 Y-2.717 E1.46549
G1 X-2.717 Y1.691 E1.60239
G1 X-2.717 Y2.375 E1.61741
G1 X2.375 Y-2.717 E1.77555
G1 X2.717 Y-2.375 E1.78618
G1 X-2.375 Y2.717 E1.94432
G1 X-1.691 Y2.717 E1.95934
G1 X2.717 Y-1.691 E2.09624
G1 X2.717 Y-1.007 E2.11126
G1 X-1.007 Y2.717 E2.22692
G1 X-0.323 Y2.717 E2.24194
G1 X2.717 Y-0.323 E2.33636
G1 X2.717 Y0.360 E2.35138
G1 X0.361 Y2.717 E2.42456
G1 X1.044 Y2.717 E2.43958
G1 X2.717 Y1.044 E2.49152
G1 X2.717 Y1.728 E2.50654
G1 X1.728 Y2.717 E2.53725
G1 X2.412 Y2.717 E2.55227
G1 X2.717 Y2.412 E2.56173
G1 F1800.000 E1.56173
G92 E0
G1 Z2.100 F7800.000
G1 X3.043 Y-3.043
G1 F1800.000 E1.00000
G1 X3.043 Y3.043 F600.000 E1.13227
G1 X-3.043 Y3.043 E1.26455
G1 X-3.043 Y-3.043 E1.39682
G1 X2.971 Y-3.043 E1.52754
G1 X3.043 Y-3.043 E1.52910
G1 X3.521 Y-3.521 F7800.000
G1 X3.521 Y3.521 F600.000 E1.68217
G1 X-3.521 Y3.521 E1.83525
G1 X-3.521 Y-3.521 E1.98832
G1 X3.450 Y-3.521 E2.13984
G1 X3.521 Y-3.521 E2.14140
G1 X4.000 Y-4.000 F7800.000
G1 X4.000 Y4.000 F600.000 E2.31528
G1 X-4.000 Y4.000 E2.48915
G1 X-4.000 Y-4.000 E2.66303
G1 X3.928 Y-4.000 E2.83535
G1 X4.000 Y-4.000 E2.83691
G1 X3.761 Y-3.586 F7800.000
G1 X2.717 Y-2.412
G1 X2.412 Y-2.717 F847.873 E2.84637
G1 X1.728 Y-2.717 E2.86139
G1 X2.717 Y-1.728 E2.89210
G1 X2.717 Y-1.044 E2.90711
G1 X1.044 Y-2.717 E2.95906
G1 X0.361 Y-2.717 E2.97408
G1 X2.717 Y-0.361 E3.04726
G1 X2.717 Y0.323 E3.06228
G1 X-0.323 Y-2.717 E3.15670
G1 X-1.007 Y-2.717 E3.17172
G1 X2.717 Y1.007 E3.28738
G1 X2.717 Y1.691 E3.30240
G1 X-1.691 Y-2.717 E3.43930
G1 X-2.375 Y-2.717 E3.45432
G1 X2.717 Y2.375 E3.61246
G1 X2.375 Y2.717 E3.62308
G1 X-2.717 Y-2.375 E3.78122
G1 X-2.717 Y-1.691 E3.79624
G1 X1.691 Y2.717 E3.93314
G1 X1.007 Y2.717 E3.94816
G1 X-2.717 Y-1.007 E4.06382
G1 X-2.717 Y-0.323 E4.07884
G1 X0.323 Y2.717 E4.17326
G1 X-0.360 Y2.717 E4.18828
G1 X-2.717 Y0.360 E4.26146
G1 X-2.717 Y1.044 E4.27648
G1 X-1.044 Y2.717 E4.32843
G1 X-1.728 Y2.717 E4.34344
G1 X-2.717 Y1.728 E4.37415
G1 X-2.717 Y2.412 E4.38917
G1 X-2.412 Y2.717 E4.39863
G1 F1800.000 E3.39863
G92 E0
M107
