; generated by Slic3r 0.9.8 on 2013-02-03 at 12:13:15

; layer_height = 0.3
; perimeters = 3
; top_solid_layers = 2
; bottom_solid_layers = 2
; fill_density = 0.1
; perimeter_speed = 50
; infill_speed = 80
; travel_speed = 130
; scale = 1
; nozzle_diameter = 0.4
; filament_diameter = 2.85
; extrusion_multiplier = 0.91
; perimeters extrusion width = 0.42mm
; infill extrusion width = 0.42mm
; support material extrusion width = 0.42mm
; first layer extrusion width = 0.60mm

M107
M104 S210 ; set temperature
M83
G28
G1X5Y98F9000
G1Z0.05
M104 S210
M190 S60
M109 S220
G1E5F50
G1E-1.5F1200
G1X40F4000
G1Z0.3
M113 S1.0
M108 S12.5
G90 ; use absolute coordinates
G21 ; set units to millimeters
G92 E0
M82 ; use absolute distances for extrusion
G1 F1800.000 E-1.00000
G92 E0
G1 Z0.300 F7800.000
G1 X-21.820 Y-8.060
G1 F1800.000 E1.00000
G1 X-21.610 Y-8.550 F900.000 E1.01271
G1 X-21.480 Y-8.790 E1.01922
G1 X-21.210 Y-9.250 E1.03193
G1 X-20.910 Y-9.690 E1.04463
G1 X-20.560 Y-10.100 E1.05748
G1 X-20.190 Y-10.480 E1.07012
G1 X-19.570 Y-10.990 E1.08926
G1 X-19.350 Y-11.150 E1.09575
G1 X-18.890 Y-11.430 E1.10858
G1 X-18.410 Y-11.670 E1.12138
G1 X-17.920 Y-11.870 E1.13400
G1 X-17.150 Y-12.100 E1.15315
G1 X-16.620 Y-12.190 E1.16597
G1 X-16.090 Y-12.250 E1.17868
G1 X-3.140 Y-12.490 E1.48746
G1 X4.180 Y-12.490 E1.66197
G1 X16.090 Y-12.250 E1.94596
G1 X16.880 Y-12.150 E1.96494
G1 X17.410 Y-12.030 E1.97789
G1 X17.920 Y-11.870 E1.99064
G1 X18.410 Y-11.670 E2.00325
G1 X19.120 Y-11.290 E2.02245
G1 X19.780 Y-10.830 E2.04163
G1 X20.180 Y-10.480 E2.05430
G1 X20.560 Y-10.100 E2.06711
G1 X20.900 Y-9.680 E2.08000
G1 X21.210 Y-9.250 E2.09263
G1 X21.600 Y-8.550 E2.11174
G1 X21.900 Y-7.800 E2.13099
G1 X22.110 Y-7.030 E2.15002
G1 X22.230 Y-6.230 E2.16931
G1 X22.250 Y-5.700 E2.18195
G1 X22.250 Y5.690 E2.45348
G1 X22.230 Y6.220 E2.46613
G1 X22.110 Y7.020 E2.48541
G1 X21.980 Y7.540 E2.49819
G1 X21.810 Y8.040 E2.51078
G1 X21.480 Y8.770 E2.52988
G1 X21.210 Y9.230 E2.54259
G1 X20.900 Y9.670 E2.55543
G1 X20.740 Y9.880 E2.56172
G1 X20.380 Y10.280 E2.57455
G1 X19.990 Y10.640 E2.58720
G1 X19.570 Y10.980 E2.60008
G1 X18.900 Y11.410 E2.61906
G1 X18.180 Y11.760 E2.63815
G1 X17.420 Y12.020 E2.65730
G1 X16.900 Y12.140 E2.67002
G1 X16.370 Y12.210 E2.68276
G1 X15.830 Y12.250 E2.69567
G1 X5.420 Y12.480 E2.94390
G1 X-5.470 Y12.480 E3.20352
G1 X-15.850 Y12.250 E3.45104
G1 X-16.640 Y12.180 E3.46994
G1 X-17.170 Y12.080 E3.48280
G1 X-17.430 Y12.020 E3.48916
G1 X-18.190 Y11.760 E3.50831
G1 X-18.910 Y11.410 E3.52740
G1 X-19.360 Y11.130 E3.54003
G1 X-19.580 Y10.970 E3.54652
G1 X-20.200 Y10.460 E3.56565
G1 X-20.750 Y9.880 E3.58471
G1 X-21.220 Y9.230 E3.60383
G1 X-21.610 Y8.530 E3.62294
G1 X-21.910 Y7.790 E3.64197
G1 X-22.120 Y7.020 E3.66100
G1 X-22.240 Y6.220 E3.68028
G1 X-22.260 Y5.690 E3.69293
G1 X-22.260 Y-5.700 E3.96446
G1 X-22.240 Y-6.240 E3.97734
G1 X-22.170 Y-6.770 E3.99009
G1 X-22.060 Y-7.290 E4.00276
G1 X-21.848 Y-7.981 E4.02000
G1 X-21.820 Y-8.060 E4.02199
G1 F1800.000 E3.02199
G92 E0
G1 X-17.371 Y-6.392 F7800.000
G1 F1800.000 E1.00000
G1 X-16.392 Y-7.371 F900.000 E1.03301
G1 X-6.160 Y-7.371 E1.27693
G1 X-5.493 Y-7.648 E1.29415
G1 X-5.117 Y-7.272 E1.30682
G1 X-4.860 Y-7.893 E1.32284
G1 X0.973 Y-7.893 E1.46190
G1 X1.587 Y-7.638 E1.47775
G1 X1.860 Y-7.366 E1.48694
G1 X2.935 Y-8.441 E1.52320
G1 X4.320 Y-8.441 E1.55621
G1 X5.499 Y-7.262 E1.59595
G1 X5.608 Y-7.371 E1.59963
G1 X16.392 Y-7.371 E1.85673
G1 X17.371 Y-6.392 E1.88973
G1 X17.371 Y6.392 E2.19451
G1 X16.392 Y7.371 E2.22752
G1 X7.135 Y7.371 E2.44822
G1 X7.096 Y7.796 E2.45840
G1 X5.098 Y8.519 E2.50904
G1 X3.851 Y7.272 E2.55108
G1 X3.594 Y7.893 E2.56710
G1 X-2.240 Y7.893 E2.70617
G1 X-2.854 Y7.638 E2.72202
G1 X-3.126 Y7.366 E2.73120
G1 X-4.202 Y8.441 E2.76746
G1 X-5.586 Y8.441 E2.80047
G1 X-6.656 Y7.371 E2.83654
G1 X-16.392 Y7.371 E3.06864
G1 X-17.371 Y6.392 E3.10165
G1 X-17.371 Y-6.309 E3.40443
G1 X-17.371 Y-6.392 E3.40643
G1 X-16.814 Y-6.161 F7800.000
G1 X-16.161 Y-6.814 F900.000 E3.42843
G1 X-6.050 Y-6.814 E3.66949
G1 X-5.624 Y-6.991 E3.68048
G1 X-4.922 Y-6.288 E3.70416
G1 X-4.488 Y-7.336 E3.73118
G1 X0.862 Y-7.336 E3.85872
G1 X1.272 Y-7.166 E3.86929
G1 X2.089 Y-6.349 E3.89685
G1 X2.089 Y-6.807 E3.90778
G1 X3.166 Y-7.884 E3.94409
G1 X4.089 Y-7.884 E3.96610
G1 X5.499 Y-6.474 E4.01362
G1 X5.838 Y-6.814 E4.02507
G1 X16.161 Y-6.814 E4.27117
G1 X16.814 Y-6.161 E4.29318
G1 X16.814 Y6.161 E4.58695
G1 X16.161 Y6.814 E4.60896
G1 X6.626 Y6.814 E4.83627
G1 X6.573 Y7.393 E4.85013
G1 X5.241 Y7.874 E4.88389
G1 X3.655 Y6.288 E4.93737
G1 X3.221 Y7.336 E4.96439
G1 X-2.129 Y7.336 E5.09194
G1 X-2.538 Y7.166 E5.10250
G1 X-3.356 Y6.349 E5.13006
G1 X-3.356 Y6.807 E5.14100
G1 X-4.433 Y7.884 E5.17731
G1 X-5.356 Y7.884 E5.19931
G1 X-6.426 Y6.814 E5.23538
G1 X-16.161 Y6.814 E5.46748
G1 X-16.814 Y6.161 E5.48949
G1 X-16.814 Y-6.078 E5.78127
G1 X-16.814 Y-6.161 E5.78326
G1 X-16.257 Y-5.931 F7800.000
G1 X-15.931 Y-6.257 F900.000 E5.79426
G1 X-6.069 Y-6.257 E6.02936
G1 X-6.031 Y-6.219 E6.03065
G1 X-5.755 Y-6.333 E6.03778
G1 X4.602 Y4.023 E6.38693
G1 X4.695 Y3.005 E6.41130
G1 X-4.400 Y-6.091 E6.71796
G1 X-4.116 Y-6.778 E6.73570
G1 X0.751 Y-6.778 E6.85173
G1 X0.956 Y-6.694 E6.85702
G1 X4.728 Y-2.922 E6.98419
G1 X4.728 Y-4.033 E7.01068
G1 X2.646 Y-6.115 E7.08087
G1 X2.646 Y-6.576 E7.09187
G1 X3.397 Y-7.327 E7.11718
G1 X3.858 Y-7.327 E7.12818
G1 X5.743 Y-5.442 E7.19172
G1 X5.743 Y-5.931 E7.20336
G1 X6.069 Y-6.257 E7.21436
G1 X15.931 Y-6.257 E7.44945
G1 X16.257 Y-5.931 E7.46045
G1 X16.257 Y5.931 E7.74323
G1 X15.931 Y6.257 E7.75423
G1 X6.118 Y6.257 E7.98816
G1 X6.051 Y6.989 E8.00570
G1 X5.385 Y7.230 E8.02258
G1 X-4.728 Y-2.883 E8.36353
G1 X-4.728 Y-1.772 E8.39003
G1 X3.134 Y6.091 E8.65510
G1 X2.849 Y6.778 E8.67284
G1 X-2.018 Y6.778 E8.78888
G1 X-2.223 Y6.694 E8.79416
G1 X-4.728 Y4.188 E8.87863
G1 X-4.728 Y5.300 E8.90512
G1 X-3.913 Y6.115 E8.93261
G1 X-3.913 Y6.576 E8.94361
G1 X-4.663 Y7.327 E8.96892
G1 X-5.125 Y7.327 E8.97992
G1 X-6.195 Y6.257 E9.01599
G1 X-15.931 Y6.257 E9.24809
G1 X-16.257 Y5.931 E9.25909
G1 X-16.257 Y-5.847 E9.53987
G1 X-16.257 Y-5.931 E9.54187
G1 F1800.000 E8.54187
G92 E0
G1 X-5.743 Y-0.362 F7800.000
G1 F1800.000 E1.00000
G1 X-0.317 Y5.064 F900.000 E1.18295
G1 X-1.428 Y5.064 E1.20944
G1 X-5.743 Y0.749 E1.35492
G1 X-5.743 Y-0.278 E1.37942
G1 X-5.743 Y-0.362 E1.38141
G1 F1800.000 E0.38141
G92 E0
G1 X-0.950 Y-5.064 F7800.000
G1 F1800.000 E1.00000
G1 X0.161 Y-5.064 F900.000 E1.02649
G1 X3.094 Y-2.131 E1.12538
G1 X5.743 Y0.517 E1.21467
G1 X5.743 Y1.629 E1.24117
G1 X-0.891 Y-5.005 E1.46482
G1 X-0.950 Y-5.064 E1.46681
G1 F1800.000 E0.46681
G92 E0
G1 X-3.633 Y-3.000 F7800.000
G1 F1800.000 E1.00000
G1 X-5.585 Y-4.952 F1080.000 E1.06581
G1 X-5.585 Y-1.416 E1.15010
G1 X-3.169 Y1.000 E1.23157
G1 X-3.000 Y1.169 F7800.000
G1 X1.753 Y5.921 F1080.000 E1.39180
G1 X-1.783 Y5.921 E1.47609
G1 X-5.585 Y2.119 E1.60428
G1 X-5.585 Y5.655 E1.68857
G1 X-5.319 Y5.921 E1.69756
G1 F1800.000 E0.69756
G92 E0
G1 X-3.000 Y-2.367 F7800.000
G1 F1800.000 E1.00000
G1 X5.288 Y5.921 F1080.000 E1.27943
G1 X5.585 Y2.683 E1.35695
G1 X4.500 Y1.598 E1.39354
G1 X3.902 Y1.000 F7800.000
G1 X-3.019 Y-5.921 F1080.000 E1.62690
G1 X0.516 Y-5.921 E1.71118
G1 X3.438 Y-3.000 E1.80967
G1 X4.500 Y-1.938 F7800.000
G1 X5.585 Y-0.852 F1080.000 E1.84626
G1 X5.585 Y-4.388 E1.93055
G1 X4.052 Y-5.921 E1.98225
G1 F1800.000 E0.98225
G92 E0
G1 X6.300 Y-5.700 F7800.000
G1 F1800.000 E1.00000
G1 X15.700 Y-5.700 F900.000 E1.22409
G1 X15.700 Y5.700 E1.49587
G1 X6.300 Y5.700 E1.71996
G1 X6.300 Y-5.616 E1.98974
G1 X6.300 Y-5.700 E1.99173
G1 X6.782 Y-5.421 F7800.000
G1 X6.857 Y-5.143
G1 X15.143 Y-5.143 F900.000 E2.18926
G1 X15.143 Y5.143 E2.43447
G1 X6.857 Y5.143 E2.63200
G1 X6.857 Y-5.059 E2.87522
G1 X6.857 Y-5.143 E2.87722
G1 F1800.000 E1.87722
G92 E0
G1 X7.414 Y4.586 F7800.000
G1 F1800.000 E1.00000
G1 X7.414 Y-4.586 F900.000 E1.21865
G1 X14.586 Y-4.586 E1.38962
G1 X14.586 Y4.586 E1.60827
G1 X7.498 Y4.586 E1.77725
G1 X7.414 Y4.586 E1.77924
G1 F1800.000 E0.77924
G92 E0
G1 X-6.300 Y5.700 F7800.000
G1 F1800.000 E1.00000
G1 X-15.700 Y5.700 F900.000 E1.22409
G1 X-15.700 Y-5.700 E1.49587
G1 X-6.300 Y-5.700 E1.71996
G1 X-6.300 Y5.616 E1.98974
G1 X-6.300 Y5.700 E1.99173
G1 X-6.782 Y5.421 F7800.000
G1 X-6.857 Y5.143
G1 X-15.143 Y5.143 F900.000 E2.18926
G1 X-15.143 Y-5.143 E2.43447
G1 X-6.857 Y-5.143 E2.63200
G1 X-6.857 Y5.059 E2.87522
G1 X-6.857 Y5.143 E2.87722
G1 F1800.000 E1.87722
G92 E0
G1 X-14.586 Y-4.586 F7800.000
G1 F1800.000 E1.00000
G1 X-7.414 Y-4.586 F900.000 E1.17097
G1 X-7.414 Y4.586 E1.38962
G1 X-14.586 Y4.586 E1.56059
G1 X-14.586 Y-4.502 E1.77725
G1 X-14.586 Y-4.586 E1.77924
G1 F1800.000 E0.77924
G92 E0
G1 X8.149 Y4.206 F7800.000
G1 F1800.000 E1.00000
G1 X7.794 Y3.851 F1440.000 E1.01260
G1 X7.794 Y3.021 E1.03346
G1 X8.979 Y4.206 E1.07557
G1 X9.809 Y4.206 E1.09643
G1 X7.794 Y2.191 E1.16804
G1 X7.794 Y1.360 E1.18890
G1 X10.640 Y4.206 E1.29002
G1 X11.470 Y4.206 E1.31088
G1 X7.794 Y0.530 E1.44149
G1 X7.794 Y-0.300 E1.46235
G1 X12.300 Y4.206 E1.62247
G1 X13.130 Y4.206 E1.64333
G1 X7.794 Y-1.130 E1.83294
G1 X7.794 Y-1.961 E1.85380
G1 X13.961 Y4.206 E2.07292
G1 X14.206 Y3.621 E2.08886
G1 X7.794 Y-2.791 E2.31670
G1 X7.794 Y-3.621 E2.33756
G1 X14.206 Y2.791 E2.56540
G1 X14.206 Y1.961 E2.58626
G1 X8.039 Y-4.206 E2.80538
G1 X8.870 Y-4.206 E2.82624
G1 X14.206 Y1.130 E3.01586
G1 X14.206 Y0.300 E3.03672
G1 X9.700 Y-4.206 E3.19683
G1 X10.530 Y-4.206 E3.21769
G1 X14.206 Y-0.530 E3.34831
G1 X14.206 Y-1.360 E3.36917
G1 X11.361 Y-4.206 E3.47028
G1 X12.191 Y-4.206 E3.49114
G1 X14.206 Y-2.191 E3.56274
G1 X14.206 Y-3.021 E3.58361
G1 X13.021 Y-4.206 E3.62571
G1 X13.851 Y-4.206 E3.64657
G1 X14.206 Y-3.851 E3.65918
G1 F1800.000 E2.65918
G92 E0
G1 X-7.794 Y-3.851 F7800.000
G1 F1800.000 E1.00000
G1 X-8.149 Y-4.206 F1440.000 E1.01260
G1 X-8.979 Y-4.206 E1.03346
G1 X-7.794 Y-3.021 E1.07557
G1 X-7.794 Y-2.191 E1.09643
G1 X-9.809 Y-4.206 E1.16804
G1 X-10.639 Y-4.206 E1.18890
G1 X-7.794 Y-1.360 E1.29001
G1 X-7.794 Y-0.530 E1.31087
G1 X-11.470 Y-4.206 E1.44148
G1 X-12.300 Y-4.206 E1.46234
G1 X-7.794 Y0.300 E1.62246
G1 X-7.794 Y1.130 E1.64332
G1 X-13.130 Y-4.206 E1.83294
G1 X-13.961 Y-4.206 E1.85380
G1 X-7.794 Y1.961 E2.07292
G1 X-7.794 Y2.791 E2.09378
G1 X-14.206 Y-3.621 E2.32162
G1 X-14.206 Y-2.791 E2.34248
G1 X-7.794 Y3.621 E2.57032
G1 X-8.039 Y4.206 E2.58625
G1 X-14.206 Y-1.961 E2.80537
G1 X-14.206 Y-1.130 E2.82623
G1 X-8.870 Y4.206 E3.01585
G1 X-9.700 Y4.206 E3.03671
G1 X-14.206 Y-0.300 E3.19683
G1 X-14.206 Y0.530 E3.21769
G1 X-10.530 Y4.206 E3.34830
G1 X-11.360 Y4.206 E3.36916
G1 X-14.206 Y1.360 E3.47027
G1 X-14.206 Y2.191 E3.49113
G1 X-12.191 Y4.206 E3.56274
G1 X-13.021 Y4.206 E3.58360
G1 X-14.206 Y3.021 E3.62571
G1 X-14.206 Y3.851 E3.64658
G1 X-13.851 Y4.206 E3.65918
M106 S254
G1 F1800.000 E2.65918
G92 E0
G1 Z0.600 F7800.000
G1 X-5.576 Y5.664
G1 F1800.000 E1.00000
G1 X-5.319 Y5.921 F3600.000 E1.00653
G1 F1800.000 E0.00653
G92 E0
G1 X-5.576 Y2.128 F7800.000
G1 F1800.000 E1.00000
G1 X-1.783 Y5.921 F3600.000 E1.09615
G1 X1.753 Y5.921 E1.15953
G1 X-3.000 Y1.169 E1.28001
G1 X-3.169 Y1.000 F7800.000
G1 X-5.576 Y-1.407 F3600.000 E1.34103
G1 F1800.000 E0.34103
G92 E0
G1 X-3.633 Y-3.000 F7800.000
G1 F1800.000 E1.00000
G1 X-5.576 Y-4.943 F3600.000 E1.04925
G1 F1800.000 E0.04925
G92 E0
G1 X-3.000 Y-2.367 F7800.000
G1 F1800.000 E1.00000
G1 X5.288 Y5.921 F3600.000 E1.21011
G1 X5.576 Y2.785 E1.26656
G1 X5.576 Y2.674 F7800.000
G1 X4.500 Y1.598 F3600.000 E1.29384
G1 X3.902 Y1.000 F7800.000
G1 X-3.019 Y-5.921 F3600.000 E1.46930
G1 X0.516 Y-5.921 E1.53268
G1 X3.438 Y-3.000 E1.60673
G1 X4.500 Y-1.938 F7800.000
G1 X5.576 Y-0.862 F3600.000 E1.63401
G1 F1800.000 E0.63401
G92 E0
G1 X5.576 Y-4.397 F7800.000
G1 F1800.000 E1.00000
G1 X4.052 Y-5.921 F3600.000 E1.03864
G1 F1800.000 E0.03864
G92 E0
G1 X-14.950 Y-4.950 F7800.000
G1 F1800.000 E1.00000
G1 X-7.050 Y-4.950 F3000.000 E1.14162
G1 X-7.050 Y4.950 E1.31909
G1 X-14.950 Y4.950 E1.46071
G1 X-14.950 Y-4.887 E1.63705
G1 X-14.950 Y-4.950 E1.63818
G1 X-15.369 Y-5.369 F7800.000
G1 X-6.631 Y-5.369 F3000.000 E1.79482
G1 X-6.631 Y5.369 E1.98730
G1 X-15.369 Y5.369 E2.14394
G1 X-15.369 Y-5.306 E2.33530
G1 X-15.369 Y-5.369 E2.33643
G1 X-15.788 Y-5.788 F7800.000
G1 X-6.212 Y-5.788 F3000.000 E2.50808
G1 X-6.212 Y5.788 E2.71559
G1 X-15.788 Y5.788 E2.88724
G1 X-15.788 Y-5.725 E3.09362
G1 X-15.788 Y-5.788 E3.09475
G1 X-15.425 Y-5.579 F7800.000
G1 F1800.000 E2.09475
G92 E0
G1 X7.050 Y4.950 F7800.000
G1 F1800.000 E1.00000
G1 X7.050 Y-4.950 F3000.000 E1.17747
G1 X14.950 Y-4.950 E1.31909
G1 X14.950 Y4.950 E1.49656
G1 X7.113 Y4.950 E1.63705
G1 X7.050 Y4.950 E1.63818
G1 X6.631 Y5.369 F7800.000
G1 X6.631 Y-5.369 F3000.000 E1.83067
G1 X15.369 Y-5.369 E1.98730
G1 X15.369 Y5.369 E2.17979
G1 X6.694 Y5.369 E2.33530
G1 X6.631 Y5.369 E2.33643
G1 X6.212 Y5.788 F7800.000
G1 X6.212 Y-5.788 F3000.000 E2.54393
G1 X15.788 Y-5.788 E2.71559
G1 X15.788 Y5.788 E2.92309
G1 X6.275 Y5.788 E3.09362
G1 X6.212 Y5.788 E3.09475
G1 X6.421 Y5.425 F7800.000
G1 F1800.000 E2.09475
G92 E0
G1 X-7.335 Y4.398 F7800.000
G1 F1800.000 E1.00000
G1 X-7.602 Y4.665 F4800.000 E1.00682
G1 X-8.199 Y4.665 E1.01761
G1 X-7.335 Y3.801 E1.03969
G1 X-7.335 Y3.203 E1.05049
G1 X-8.797 Y4.665 E1.08784
G1 X-9.394 Y4.665 E1.09863
G1 X-7.335 Y2.606 E1.15124
G1 X-7.335 Y2.009 E1.16204
G1 X-9.991 Y4.665 E1.22991
G1 X-10.588 Y4.665 E1.24071
G1 X-7.335 Y1.412 E1.32385
G1 X-7.335 Y0.815 E1.33464
G1 X-11.185 Y4.665 E1.43304
G1 X-11.783 Y4.665 E1.44384
G1 X-7.335 Y0.217 E1.55751
G1 X-7.335 Y-0.380 E1.56830
G1 X-12.380 Y4.665 E1.69723
G1 X-12.977 Y4.665 E1.70803
G1 X-7.335 Y-0.977 E1.85222
G1 X-7.335 Y-1.574 E1.86302
G1 X-13.574 Y4.665 E2.02248
G1 X-14.172 Y4.665 E2.03327
G1 X-7.335 Y-2.172 E2.20800
G1 X-7.335 Y-2.769 E2.21879
G1 X-14.665 Y4.561 E2.40612
G1 X-14.665 Y3.963 E2.41692
G1 X-7.335 Y-3.366 E2.60425
G1 X-7.335 Y-3.963 E2.61504
G1 X-14.665 Y3.366 E2.80237
G1 X-14.665 Y2.769 E2.81316
G1 X-7.335 Y-4.561 E3.00049
G1 X-7.828 Y-4.665 E3.00960
G1 X-14.665 Y2.172 E3.18433
G1 X-14.665 Y1.574 E3.19512
G1 X-8.426 Y-4.665 E3.35458
G1 X-9.023 Y-4.665 E3.36538
G1 X-14.665 Y0.977 E3.50957
G1 X-14.665 Y0.380 E3.52037
G1 X-9.620 Y-4.665 E3.64930
G1 X-10.217 Y-4.665 E3.66009
G1 X-14.665 Y-0.217 E3.77376
G1 X-14.665 Y-0.815 E3.78455
G1 X-10.815 Y-4.665 E3.88296
G1 X-11.412 Y-4.665 E3.89375
G1 X-14.665 Y-1.412 E3.97689
G1 X-14.665 Y-2.009 E3.98769
G1 X-12.009 Y-4.665 E4.05556
G1 X-12.606 Y-4.665 E4.06636
G1 X-14.665 Y-2.606 E4.11897
G1 X-14.665 Y-3.203 E4.12976
G1 X-13.203 Y-4.665 E4.16711
G1 X-13.801 Y-4.665 E4.17790
G1 X-14.665 Y-3.801 E4.19999
G1 X-14.665 Y-4.398 E4.21078
G1 X-14.398 Y-4.665 E4.21760
G1 F1800.000 E3.21760
G92 E0
G1 X7.602 Y-4.665 F7800.000
G1 F1800.000 E1.00000
G1 X7.335 Y-4.398 F4800.000 E1.00682
G1 X7.335 Y-3.801 E1.01761
G1 X8.199 Y-4.665 E1.03970
G1 X8.797 Y-4.665 E1.05049
G1 X7.335 Y-3.203 E1.08784
G1 X7.335 Y-2.606 E1.09863
G1 X9.394 Y-4.665 E1.15124
G1 X9.991 Y-4.665 E1.16204
G1 X7.335 Y-2.009 E1.22991
G1 X7.335 Y-1.412 E1.24071
G1 X10.588 Y-4.665 E1.32385
G1 X11.185 Y-4.665 E1.33464
G1 X7.335 Y-0.815 E1.43304
G1 X7.335 Y-0.217 E1.44384
G1 X11.783 Y-4.665 E1.55751
G1 X12.380 Y-4.665 E1.56830
G1 X7.335 Y0.380 E1.69723
G1 X7.335 Y0.977 E1.70803
G1 X12.977 Y-4.665 E1.85222
G1 X13.574 Y-4.665 E1.86302
G1 X7.335 Y1.574 E2.02248
G1 X7.335 Y2.172 E2.03327
G1 X14.172 Y-4.665 E2.20800
G1 X14.665 Y-4.561 E2.21711
G1 X7.335 Y2.769 E2.40444
G1 X7.335 Y3.366 E2.41523
G1 X14.665 Y-3.963 E2.60256
G1 X14.665 Y-3.366 E2.61335
G1 X7.335 Y3.963 E2.80068
G1 X7.335 Y4.561 E2.81148
G1 X14.665 Y-2.769 E2.99881
G1 X14.665 Y-2.172 E3.00960
G1 X7.828 Y4.665 E3.18433
G1 X8.426 Y4.665 E3.19512
G1 X14.665 Y-1.574 E3.35458
G1 X14.665 Y-0.977 E3.36537
G1 X9.023 Y4.665 E3.50957
G1 X9.620 Y4.665 E3.52037
G1 X14.665 Y-0.380 E3.64930
G1 X14.665 Y0.217 E3.66009
G1 X10.217 Y4.665 E3.77376
G1 X10.815 Y4.665 E3.78455
G1 X14.665 Y0.815 E3.88296
G1 X14.665 Y1.412 E3.89375
G1 X11.412 Y4.665 E3.97689
G1 X12.009 Y4.665 E3.98769
G1 X14.665 Y2.009 E4.05556
G1 X14.665 Y2.606 E4.06636
G1 X12.606 Y4.665 E4.11897
G1 X13.203 Y4.665 E4.12976
G1 X14.665 Y3.203 E4.16711
G1 X14.665 Y3.801 E4.17790
