; generated by Slic3r 0.9.8 on 2013-01-29 at 07:51:11

; layer_height = 0.25
; perimeters = 3
; top_solid_layers = 3
; bottom_solid_layers = 3
; fill_density = 0.1
; perimeter_speed = 30
; infill_speed = 60
; travel_speed = 130
; scale = 1
; nozzle_diameter = 0.4
; filament_diameter = 2.85
; extrusion_multiplier = 0.92
; perimeters extrusion width = 0.53mm
; infill extrusion width = 0.53mm
; first layer extrusion width = 0.50mm

M107
M104 S210 ; set temperature
M83
G28
G1X5Y98F9000
G1Z0.05
M104 S210
M190 S60
M109 S220
G1E5F50
G1E-1.5F1200
G1X40F4000
G1Z0.3
M113 S1.0
M108 S12.5
G90 ; use absolute coordinates
G21 ; set units to millimeters
G92 E0
M82 ; use absolute distances for extrusion
G1 F1800.000 E-1.00000
G92 E0
G1 Z0.250 F7800.000
G1 X-10.530 Y-10.150
G1 F1800.000 E1.00000
G1 X-10.150 Y-10.530 F540.000 E1.00927
G1 X-9.520 Y-11.030 E1.02315
G1 X-9.080 Y-11.330 E1.03234
G1 X-8.610 Y-11.580 E1.04152
G1 X-8.120 Y-11.800 E1.05079
G1 X-7.610 Y-11.970 E1.06006
G1 X-6.830 Y-12.150 E1.07387
G1 X-6.290 Y-12.220 E1.08327
G1 X-5.760 Y-12.240 E1.09242
G1 X5.750 Y-12.240 E1.29100
G1 X6.280 Y-12.220 E1.30015
G1 X7.080 Y-12.100 E1.31411
G1 X7.600 Y-11.970 E1.32336
G1 X8.110 Y-11.800 E1.33263
G1 X8.600 Y-11.580 E1.34190
G1 X9.070 Y-11.330 E1.35108
G1 X9.730 Y-10.870 E1.36496
G1 X10.140 Y-10.530 E1.37415
G1 X10.520 Y-10.150 E1.38343
G1 X11.020 Y-9.520 E1.39730
G1 X11.320 Y-9.080 E1.40649
G1 X11.570 Y-8.610 E1.41567
G1 X11.790 Y-8.120 E1.42494
G1 X11.960 Y-7.610 E1.43422
G1 X12.140 Y-6.830 E1.44803
G1 X12.210 Y-6.290 E1.45742
G1 X12.230 Y-5.760 E1.46657
G1 X12.230 Y5.750 E1.66516
G1 X12.210 Y6.280 E1.67431
G1 X12.090 Y7.080 E1.68826
G1 X11.960 Y7.600 E1.69751
G1 X11.790 Y8.110 E1.70679
G1 X11.570 Y8.600 E1.71605
G1 X11.320 Y9.070 E1.72524
G1 X10.860 Y9.730 E1.73912
G1 X10.520 Y10.140 E1.74831
G1 X10.140 Y10.520 E1.75758
G1 X9.510 Y11.020 E1.77146
G1 X9.070 Y11.320 E1.78064
G1 X8.600 Y11.570 E1.78983
G1 X8.110 Y11.790 E1.79910
G1 X7.600 Y11.960 E1.80837
G1 X6.820 Y12.140 E1.82218
G1 X6.280 Y12.210 E1.83158
G1 X5.750 Y12.230 E1.84073
G1 X-5.760 Y12.230 E2.03931
G1 X-6.290 Y12.210 E2.04846
G1 X-7.090 Y12.090 E2.06242
G1 X-7.610 Y11.960 E2.07167
G1 X-8.120 Y11.790 E2.08094
G1 X-8.610 Y11.570 E2.09021
G1 X-9.080 Y11.320 E2.09939
G1 X-9.740 Y10.860 E2.11327
G1 X-10.150 Y10.520 E2.12246
G1 X-10.530 Y10.140 E2.13173
G1 X-11.030 Y9.510 E2.14561
G1 X-11.330 Y9.070 E2.15480
G1 X-11.580 Y8.600 E2.16398
G1 X-11.800 Y8.110 E2.17325
G1 X-11.970 Y7.600 E2.18252
G1 X-12.150 Y6.820 E2.19634
G1 X-12.220 Y6.280 E2.20573
G1 X-12.240 Y5.750 E2.21488
G1 X-12.240 Y-5.760 E2.41346
G1 X-12.220 Y-6.290 E2.42261
G1 X-12.100 Y-7.090 E2.43657
G1 X-11.970 Y-7.610 E2.44582
G1 X-11.800 Y-8.120 E2.45509
G1 X-11.580 Y-8.610 E2.46436
G1 X-11.330 Y-9.080 E2.47355
G1 X-10.870 Y-9.740 E2.48743
G1 X-10.576 Y-10.095 E2.49538
G1 X-10.530 Y-10.150 E2.49662
G1 F1800.000 E1.49662
G92 E0
G1 X2.750 Y0.750 F7800.000
G1 F1800.000 E1.00000
G1 X4.750 Y0.750 F540.000 E1.03451
G1 X4.750 Y3.250 E1.07764
G1 X2.750 Y3.250 E1.11214
G1 X2.750 Y0.822 E1.15404
G1 X2.750 Y0.750 E1.15528
G1 X2.750 Y0.271 F7800.000
G1 X2.750 Y-0.750
G1 X2.750 Y-3.250 F540.000 E1.19841
G1 X4.750 Y-3.250 E1.23292
G1 X4.750 Y-0.750 E1.27605
G1 X2.822 Y-0.750 E1.30932
G1 X2.750 Y-0.750 E1.31056
G1 X2.271 Y-0.750 F7800.000
G1 F1800.000 E0.31056
G92 E0
G1 X-2.750 Y-0.750 F7800.000
G1 F1800.000 E1.00000
G1 X-4.750 Y-0.750 F540.000 E1.03451
G1 X-4.750 Y-3.250 E1.07764
G1 X-2.750 Y-3.250 E1.11214
G1 X-2.750 Y-0.822 E1.15404
G1 X-2.750 Y-0.750 E1.15528
G1 X-2.750 Y-0.271 F7800.000
G1 X-2.750 Y0.750
G1 X-2.750 Y3.250 F540.000 E1.19841
G1 X-4.750 Y3.250 E1.23292
G1 X-4.750 Y0.750 E1.27605
G1 X-2.822 Y0.750 E1.30932
G1 X-2.750 Y0.750 E1.31056
G1 X-2.271 Y0.750 F7800.000
G1 F1800.000 E0.31056
G92 E0
G1 X-4.793 Y-4.793 F7800.000
G1 F1800.000 E1.00000
G1 X4.793 Y-4.793 F540.000 E1.16539
G1 X4.793 Y-4.207 E1.17549
G1 X1.793 Y-4.207 E1.22725
G1 X1.793 Y4.207 E1.37242
G1 X4.793 Y4.207 E1.42418
G1 X4.793 Y4.793 E1.43429
G1 X-4.793 Y4.793 E1.59967
G1 X-4.793 Y4.207 E1.60978
G1 X-1.793 Y4.207 E1.66154
G1 X-1.793 Y-4.207 E1.80671
G1 X-4.793 Y-4.207 E1.85847
G1 X-4.793 Y-4.721 E1.86734
G1 X-4.793 Y-4.793 E1.86858
G1 X-5.271 Y-5.271 F7800.000
G1 X5.271 Y-5.271 F540.000 E2.05048
G1 X5.271 Y-3.729 E2.07710
G1 X2.271 Y-3.729 E2.12885
G1 X2.271 Y-0.271 E2.18850
G1 X5.271 Y-0.271 E2.24026
G1 X5.271 Y0.271 E2.24963
G1 X2.271 Y0.271 E2.30139
G1 X2.271 Y3.729 E2.36103
G1 X5.271 Y3.729 E2.41279
G1 X5.271 Y5.271 E2.43941
G1 X-5.271 Y5.271 E2.62131
G1 X-5.271 Y3.729 E2.64793
G1 X-2.271 Y3.729 E2.69969
G1 X-2.271 Y0.271 E2.75933
G1 X-5.271 Y0.271 E2.81109
G1 X-5.271 Y-0.271 E2.82046
G1 X-2.271 Y-0.271 E2.87222
G1 X-2.271 Y-3.729 E2.93186
G1 X-5.271 Y-3.729 E2.98362
G1 X-5.271 Y-5.200 E3.00900
G1 X-5.271 Y-5.271 E3.01024
G1 X-5.750 Y-5.750 F7800.000
G1 X5.750 Y-5.750 F540.000 E3.20865
G1 X5.750 Y5.750 E3.40706
G1 X-5.750 Y5.750 E3.60547
G1 X-5.750 Y-5.678 E3.80264
G1 X-5.750 Y-5.750 E3.80388
G1 X-5.336 Y-5.511 F7800.000
G1 F1800.000 E2.80388
G92 E0
G1 X1.162 Y-4.467 F7800.000
G1 F1800.000 E1.00000
G1 X1.467 Y-4.162 F1080.000 E1.00773
G1 X1.467 Y-3.458 E1.02035
G1 X0.458 Y-4.467 E1.04593
G1 X-0.245 Y-4.467 E1.05855
G1 X1.467 Y-2.755 E1.10198
G1 X1.467 Y-2.051 E1.11460
G1 X-0.949 Y-4.467 E1.17587
G1 X-1.467 Y-4.281 E1.18574
G1 X1.467 Y-1.348 E1.26016
G1 X1.467 Y-0.644 E1.27278
G1 X-1.467 Y-3.578 E1.34719
G1 X-1.467 Y-2.874 E1.35982
G1 X1.467 Y0.060 E1.43423
G1 X1.467 Y0.763 E1.44685
G1 X-1.467 Y-2.170 E1.52127
G1 X-1.467 Y-1.467 E1.53389
G1 X1.467 Y1.467 E1.60830
G1 X1.467 Y2.170 E1.62092
G1 X-1.467 Y-0.763 E1.69534
G1 X-1.467 Y-0.060 E1.70796
G1 X1.467 Y2.874 E1.78238
G1 X1.467 Y3.578 E1.79500
G1 X-1.467 Y0.644 E1.86941
G1 X-1.467 Y1.348 E1.88203
G1 X1.467 Y4.281 E1.95645
G1 X0.949 Y4.467 E1.96632
G1 X-1.467 Y2.051 E2.02759
G1 X-1.467 Y2.755 E2.04021
G1 X0.245 Y4.467 E2.08364
G1 X-0.458 Y4.467 E2.09626
G1 X-1.467 Y3.458 E2.12184
G1 X-1.467 Y4.162 E2.13446
G1 X-1.162 Y4.467 E2.14219
G1 F1800.000 E1.14219
G92 E0
G1 X-5.108 Y3.392 F7800.000
G1 F1800.000 E1.00000
G1 X-5.413 Y3.087 F360.000 E1.00915
G1 X-5.087 Y2.580 E1.02196
G1 X-5.413 Y2.254 E1.03176
G1 X-5.087 Y1.746 E1.04457
G1 X-5.413 Y1.420 E1.05438
G1 X-5.087 Y0.913 E1.06719
G1 X-5.392 Y0.608 E1.07634
G1 X-5.108 Y-0.608 F7800.000
G1 X-5.413 Y-0.913 F360.000 E1.08550
G1 X-5.087 Y-1.420 E1.09831
G1 X-5.413 Y-1.746 E1.10811
G1 X-5.087 Y-2.254 E1.12092
G1 X-5.413 Y-2.580 E1.13072
G1 X-5.087 Y-3.087 E1.14353
G1 X-5.392 Y-3.392 E1.15269
G1 F1800.000 E0.15269
G92 E0
G1 X5.392 Y-0.608 F7800.000
G1 F1800.000 E1.00000
G1 X5.087 Y-0.913 F360.000 E1.00916
G1 X5.413 Y-1.420 E1.02197
G1 X5.087 Y-1.746 E1.03177
G1 X5.413 Y-2.254 E1.04458
G1 X5.087 Y-2.580 E1.05438
G1 X5.413 Y-3.087 E1.06719
G1 X5.108 Y-3.392 E1.07634
G1 F1800.000 E0.07634
G92 E0
G1 X5.392 Y3.392 F7800.000
G1 F1800.000 E1.00000
G1 X5.087 Y3.087 F360.000 E1.00915
G1 X5.413 Y2.580 E1.02197
G1 X5.087 Y2.254 E1.03177
G1 X5.413 Y1.746 E1.04457
G1 X5.087 Y1.420 E1.05438
G1 X5.413 Y0.913 E1.06719
G1 X5.108 Y0.608 E1.07634
G1 F1800.000 E0.07634
G92 E0
G1 Z0.500 F7800.000
G1 X4.765 Y0.735
G1 F1800.000 E1.00000
G1 X4.765 Y3.265 F1588.093 E1.04586
G1 X2.735 Y3.265 E1.08266
G1 X2.735 Y0.735 E1.12853
G1 X4.690 Y0.735 E1.16396
G1 X4.765 Y0.735 E1.16533
G1 X5.268 Y0.735 F7800.000
G1 X4.765 Y-0.735
G1 X2.735 Y-0.735 F1588.093 E1.20213
G1 X2.735 Y-3.265 E1.24799
G1 X4.765 Y-3.265 E1.28479
G1 X4.765 Y-0.810 E1.32929
G1 X4.765 Y-0.735 E1.33066
G1 X4.765 Y-0.232 F7800.000
G1 F1800.000 E0.33066
G92 E0
G1 X-2.735 Y-0.735 F7800.000
G1 F1800.000 E1.00000
G1 X-4.765 Y-0.735 F1588.093 E1.03680
G1 X-4.765 Y-3.265 E1.08266
G1 X-2.735 Y-3.265 E1.11947
G1 X-2.735 Y-0.810 E1.16396
G1 X-2.735 Y-0.735 E1.16533
G1 X-2.735 Y-0.232 F7800.000
G1 X-2.735 Y0.735
G1 X-2.735 Y3.265 F1588.093 E1.21119
G1 X-4.765 Y3.265 E1.24799
G1 X-4.765 Y0.735 E1.29386
G1 X-2.810 Y0.735 E1.32929
G1 X-2.735 Y0.735 E1.33066
G1 X-2.232 Y0.735 F7800.000
G1 F1800.000 E0.33066
G92 E0
G1 X-1.729 Y4.729 F7800.000
G1 F1800.000 E1.00000
G1 X-1.729 Y-4.729 F1588.093 E1.17141
G1 X1.729 Y-4.729 E1.23409
G1 X1.729 Y4.729 E1.40551
G1 X-1.654 Y4.729 E1.46682
G1 X-1.729 Y4.729 E1.46819
G1 X-2.232 Y3.768 F7800.000
G1 X-2.232 Y-3.768 F1588.093 E1.60476
G1 X-5.232 Y-3.768 E1.65913
G1 X-5.232 Y-5.232 E1.68566
G1 X5.232 Y-5.232 E1.87529
G1 X5.232 Y-3.768 E1.90182
G1 X2.232 Y-3.768 E1.95619
G1 X2.232 Y3.768 E2.09276
G1 X5.232 Y3.768 E2.14713
G1 X5.232 Y5.232 E2.17366
G1 X-5.232 Y5.232 E2.36330
G1 X-5.232 Y3.768 E2.38983
G1 X-2.307 Y3.768 E2.44283
G1 X-2.232 Y3.768 E2.44419
G1 F1800.000 E1.44419
G92 E0
G1 X-5.735 Y5.735 F7800.000
G1 F1800.000 E1.00000
G1 X-5.735 Y-5.735 F1588.093 E1.20785
G1 X5.735 Y-5.735 E1.41570
G1 X5.735 Y5.735 E1.62356
G1 X-5.659 Y5.735 E1.83004
G1 X-5.735 Y5.735 E1.83141
G1 X-5.483 Y5.299 F7800.000
G1 F1800.000 E0.83141
G92 E0
G1 X1.387 Y4.067 F7800.000
G1 F1800.000 E1.00000
G1 X1.067 Y4.387 F3176.185 E1.00839
G1 X0.340 Y4.387 E1.02187
G1 X1.387 Y3.340 E1.04932
G1 X1.387 Y2.612 E1.06280
G1 X-0.388 Y4.387 E1.10932
G1 X-1.115 Y4.387 E1.12279
G1 X1.387 Y1.885 E1.18837
G1 X1.387 Y1.158 E1.20185
G1 X-1.387 Y3.932 E1.27456
G1 X-1.387 Y3.205 E1.28804
G1 X1.387 Y0.431 E1.36074
G1 X1.387 Y-0.296 E1.37422
G1 X-1.387 Y2.477 E1.44693
G1 X-1.387 Y1.750 E1.46041
G1 X1.387 Y-1.023 E1.53312
G1 X1.387 Y-1.750 E1.54660
G1 X-1.387 Y1.023 E1.61930
G1 X-1.387 Y0.296 E1.63278
G1 X1.387 Y-2.477 E1.70549
G1 X1.387 Y-3.205 E1.71897
G1 X-1.387 Y-0.431 E1.79168
G1 X-1.387 Y-1.158 E1.80515
G1 X1.387 Y-3.932 E1.87786
G1 X1.115 Y-4.387 E1.88769
G1 X-1.387 Y-1.885 E1.95327
G1 X-1.387 Y-2.612 E1.96675
G1 X0.388 Y-4.387 E2.01326
G1 X-0.340 Y-4.387 E2.02674
G1 X-1.387 Y-3.340 E2.05419
G1 X-1.387 Y-4.067 E2.06767
G1 X-1.067 Y-4.387 E2.07606
G1 F1800.000 E1.07606
G92 E0
G1 X4.819 Y4.346 F7800.000
G1 F1800.000 E1.00000
G1 X4.346 Y4.819 F1058.728 E1.02019
G1 X3.800 Y4.181 E1.04556
G1 X3.162 Y4.819 E1.07280
G1 X2.615 Y4.181 E1.09818
G1 X2.142 Y4.654 E1.11837
G1 F1800.000 E0.11837
G92 E0
G1 X5.444 Y3.290 F7800.000
G1 F1800.000 E1.00000
G1 X5.257 Y3.478 F1058.728 E1.00287
G1 X5.056 Y3.255 E1.00611
G1 X5.444 Y2.866 E1.01206
G1 X5.056 Y2.831 E1.01628
G1 X5.444 Y2.442 E1.02223
G1 X5.056 Y2.407 E1.02645
G1 X5.444 Y2.018 E1.03239
G1 X5.056 Y1.982 E1.03662
G1 X5.444 Y1.594 E1.04256
G1 X5.056 Y1.558 E1.04678
G1 X5.444 Y1.169 E1.05273
G1 X5.056 Y1.134 E1.05695
G1 X5.444 Y0.745 E1.06289
G1 X5.243 Y0.522 E1.06614
G1 X5.056 Y0.710 E1.06901
G1 X5.322 Y-0.151 F7800.000
G1 X4.849 Y0.322 F1058.728 E1.08924
G1 X4.305 Y-0.322 E1.11474
G1 X3.662 Y0.322 E1.14227
G1 X3.118 Y-0.322 E1.16778
G1 X2.645 Y0.151 E1.18800
G1 F1800.000 E0.18800
G92 E0
G1 X5.444 Y-0.710 F7800.000
G1 F1800.000 E1.00000
G1 X5.257 Y-0.522 F1058.728 E1.00287
G1 X5.056 Y-0.745 E1.00611
G1 X5.444 Y-1.134 E1.01206
G1 X5.056 Y-1.169 E1.01628
G1 X5.444 Y-1.558 E1.02223
G1 X5.056 Y-1.594 E1.02645
G1 X5.444 Y-1.982 E1.03239
G1 X5.056 Y-2.018 E1.03661
G1 X5.444 Y-2.406 E1.04256
G1 X5.056 Y-2.442 E1.04678
G1 X5.444 Y-2.831 E1.05273
G1 X5.056 Y-2.866 E1.05695
G1 X5.444 Y-3.255 E1.06289
G1 X5.243 Y-3.478 E1.06614
G1 X5.056 Y-3.290 E1.06901
G1 X4.819 Y-4.654 F7800.000
G1 X4.346 Y-4.181 F1058.728 E1.08919
G1 X3.800 Y-4.819 E1.11457
G1 X3.162 Y-4.181 E1.14181
G1 X2.615 Y-4.819 E1.16718
G1 X2.142 Y-4.346 E1.18737
G1 F1800.000 E0.18737
G92 E0
G1 X-2.142 Y-4.654 F7800.000
G1 F1800.000 E1.00000
G1 X-2.615 Y-4.181 F1058.728 E1.02019
G1 X-3.162 Y-4.819 E1.04556
G1 X-3.800 Y-4.181 E1.07281
G1 X-4.346 Y-4.819 E1.09818
G1 X-4.819 Y-4.346 E1.11836
G1 F1800.000 E0.11836
G92 E0
G1 X-2.645 Y-0.151 F7800.000
G1 F1800.000 E1.00000
G1 X-3.118 Y0.322 F1058.728 E1.02023
G1 X-3.662 Y-0.322 E1.04573
G1 X-4.305 Y0.322 E1.07327
G1 X-4.849 Y-0.322 E1.09876
G1 X-5.322 Y0.151 E1.11899
G1 X-5.056 Y-0.710 F7800.000
G1 X-5.243 Y-0.522 F1058.728 E1.12186
G1 X-5.444 Y-0.745 E1.12511
G1 X-5.056 Y-1.134 E1.13105
G1 X-5.444 Y-1.169 E1.13528
G1 X-5.056 Y-1.558 E1.14122
G1 X-5.444 Y-1.594 E1.14544
G1 X-5.056 Y-1.982 E1.15139
G1 X-5.444 Y-2.018 E1.15561
G1 X-5.056 Y-2.406 E1.16155
G1 X-5.444 Y-2.442 E1.16578
G1 X-5.056 Y-2.831 E1.17172
G1 X-5.444 Y-2.866 E1.17594
G1 X-5.056 Y-3.255 E1.18189
G1 X-5.257 Y-3.478 E1.18514
G1 X-5.444 Y-3.290 E1.18800
G1 F1800.000 E0.18800
G92 E0
G1 X-5.056 Y3.290 F7800.000
G1 F1800.000 E1.00000
G1 X-5.243 Y3.478 F1058.728 E1.00287
G1 X-5.444 Y3.255 E1.00611
G1 X-5.056 Y2.866 E1.01206
G1 X-5.444 Y2.831 E1.01628
G1 X-5.056 Y2.442 E1.02223
G1 X-5.444 Y2.406 E1.02645
G1 X-5.056 Y2.018 E1.03239
G1 X-5.444 Y1.982 E1.03662
G1 X-5.056 Y1.594 E1.04256
G1 X-5.444 Y1.558 E1.04678
G1 X-5.056 Y1.169 E1.05273
G1 X-5.444 Y1.134 E1.05695
G1 X-5.056 Y0.745 E1.06289
G1 X-5.257 Y0.522 E1.06614
G1 X-5.444 Y0.710 E1.06901
G1 F1800.000 E0.06901
G92 E0
G1 X-2.142 Y4.346 F7800.000
G1 F1800.000 E1.00000
G1 X-2.615 Y4.819 F1058.728 E1.02019
G1 X-3.162 Y4.181 E1.04556
G1 X-3.800 Y4.819 E1.07281
G1 X-4.346 Y4.181 E1.09818
G1 X-4.819 Y4.654 E1.11837
G1 F1800.000 E0.11837
G92 E0
G1 Z0.750 F7800.000
G1 X2.735 Y3.265
G1 F1800.000 E1.00000
G1 X2.735 Y0.735 F1601.653 E1.04586
G1 X4.765 Y0.735 E1.08266
G1 X4.765 Y3.265 E1.12853
G1 X2.810 Y3.265 E1.16396
G1 X2.735 Y3.265 E1.16533
G1 X2.232 Y3.265 F7800.000
G1 F1800.000 E0.16533
G92 E0
G1 X2.735 Y-0.735 F7800.000
G1 F1800.000 E1.00000
G1 X2.735 Y-3.265 F1601.653 E1.04586
G1 X4.765 Y-3.265 E1.08266
G1 X4.765 Y-0.735 E1.12853
G1 X2.810 Y-0.735 E1.16396
G1 X2.735 Y-0.735 E1.16533
G1 X2.232 Y-0.735 F7800.000
G1 F1800.000 E0.16533
G92 E0
G1 X-2.735 Y-0.735 F7800.000
G1 F1800.000 E1.00000
G1 X-4.765 Y-0.735 F1601.653 E1.03680
G1 X-4.765 Y-3.265 E1.08266
G1 X-2.735 Y-3.265 E1.11947
G1 X-2.735 Y-0.810 E1.16396
G1 X-2.735 Y-0.735 E1.16533
G1 X-2.735 Y-0.232 F7800.000
G1 X-2.735 Y0.735
G1 X-2.735 Y3.265 F1601.653 E1.21119
G1 X-4.765 Y3.265 E1.24799
G1 X-4.765 Y0.735 E1.29386
G1 X-2.810 Y0.735 E1.32929
G1 X-2.735 Y0.735 E1.33066
G1 X-2.232 Y0.735 F7800.000
G1 F1800.000 E0.33066
G92 E0
G1 X-1.729 Y-4.729 F7800.000
G1 F1800.000 E1.00000
G1 X1.729 Y-4.729 F1601.653 E1.06268
G1 X1.729 Y4.729 E1.23409
G1 X-1.729 Y4.729 E1.29677
G1 X-1.729 Y-4.654 E1.46682
G1 X-1.729 Y-4.729 E1.46819
G1 X-2.232 Y-3.768 F7800.000
G1 X-5.232 Y-3.768 F1601.653 E1.52256
G1 X-5.232 Y-5.232 E1.54909
G1 X5.232 Y-5.232 E1.73872
G1 X5.232 Y-3.768 E1.76525
G1 X2.232 Y-3.768 E1.81962
G1 X2.232 Y3.768 E1.95619
G1 X5.232 Y3.768 E2.01056
G1 X5.232 Y5.232 E2.03709
G1 X-5.232 Y5.232 E2.22672
G1 X-5.232 Y3.768 E2.25325
G1 X-2.232 Y3.768 E2.30762
G1 X-2.232 Y-3.693 E2.44283
G1 X-2.232 Y-3.768 E2.44419
G1 F1800.000 E1.44419
G92 E0
G1 X-5.735 Y-5.735 F7800.000
G1 F1800.000 E1.00000
G1 X5.735 Y-5.735 F1601.653 E1.20785
G1 X5.735 Y5.735 E1.41570
G1 X-5.735 Y5.735 E1.62356
G1 X-5.735 Y-5.659 E1.83004
G1 X-5.735 Y-5.735 E1.83141
G1 X-5.299 Y-5.483 F7800.000
G1 F1800.000 E0.83141
G92 E0
G1 X1.387 Y-4.067 F7800.000
G1 F1800.000 E1.00000
G1 X1.067 Y-4.387 F3203.306 E1.00839
G1 X0.340 Y-4.387 E1.02187
G1 X1.387 Y-3.340 E1.04932
G1 X1.387 Y-2.612 E1.06280
G1 X-0.388 Y-4.387 E1.10931
G1 X-1.115 Y-4.387 E1.12279
G1 X1.387 Y-1.885 E1.18837
G1 X1.387 Y-1.158 E1.20185
G1 X-1.387 Y-3.932 E1.27456
G1 X-1.387 Y-3.205 E1.28803
G1 X1.387 Y-0.431 E1.36074
G1 X1.387 Y0.296 E1.37422
G1 X-1.387 Y-2.477 E1.44693
G1 X-1.387 Y-1.750 E1.46041
G1 X1.387 Y1.023 E1.53312
G1 X1.387 Y1.750 E1.54659
G1 X-1.387 Y-1.023 E1.61930
G1 X-1.387 Y-0.296 E1.63278
G1 X1.387 Y2.477 E1.70549
G1 X1.387 Y3.205 E1.71897
G1 X-1.387 Y0.431 E1.79167
G1 X-1.387 Y1.158 E1.80515
G1 X1.387 Y3.932 E1.87786
G1 X1.115 Y4.387 E1.88769
G1 X-1.387 Y1.885 E1.95327
G1 X-1.387 Y2.612 E1.96675
G1 X0.388 Y4.387 E2.01326
G1 X-0.340 Y4.387 E2.02674
G1 X-1.387 Y3.340 E2.05419
G1 X-1.387 Y4.067 E2.06767
G1 X-1.067 Y4.387 E2.07606
G1 F1800.000 E1.07606
G92 E0
G1 X-4.346 Y4.819 F7800.000
G1 F1800.000 E1.00000
G1 X-4.819 Y4.346 F1067.769 E1.02019
G1 X-3.800 Y4.181 E1.05137
G1 X-3.162 Y4.819 E1.07862
G1 X-2.615 Y4.181 E1.10399
G1 X-2.142 Y4.654 E1.12418
G1 F1800.000 E0.12418
G92 E0
G1 X-5.257 Y3.478 F7800.000
G1 F1800.000 E1.00000
G1 X-5.444 Y3.290 F1067.769 E1.00287
G1 X-5.056 Y3.255 E1.00709
