; generated by Slic3r 0.9.8 on 2013-02-19 at 19:21:00

; layer_height = 0.3
; perimeters = 3
; top_solid_layers = 3
; bottom_solid_layers = 3
; fill_density = 0.1
; perimeter_speed = 40
; infill_speed = 80
; travel_speed = 80
; scale = 1
; nozzle_diameter = 0.4
; filament_diameter = 2.85
; extrusion_multiplier = 0.85
; perimeters extrusion width = 0.42mm
; infill extrusion width = 0.42mm
; first layer extrusion width = 0.42mm

M107
M104 S210 ; set temperature
G21 ; Set to metric
M82 ; Absolute Extruder
G90 ; Absolute Positioning
G28 ; Go home
G1X5Y98F9000 ; Go to the middle of the front
G1Z0.05 ; close to the bed
M104 S210 ; set extruder temp S200
M190 S60 ; set bed temp & wait S55
M109 S200 ; wait for extruder temp
G92 E0 ; Zero the extruder
G1 E5 F50 ; extrude a blob
G92 E0 ; Zero the extruder
G1X-40F4000 ;wipe 40mm along the edge of the bed
G1Z0.3 ;lift Z 
G90 ; use absolute coordinates
G21 ; set units to millimeters
G92 E0
M82 ; use absolute distances for extrusion
G1 F600.000 E-1.00000
G92 E0
G1 Z0.100 F4800.000
G1 X-15.180 Y-14.810
G1 F600.000 E1.00000
G1 X-13.830 Y-16.080 F720.000 E1.03103
G1 X-13.200 Y-16.590 E1.04461
G1 X-11.700 Y-17.680 E1.07565
G1 X-11.010 Y-18.120 E1.08935
G1 X-9.380 Y-19.010 E1.12045
G1 X-8.680 Y-19.340 E1.13341
G1 X-6.950 Y-20.030 E1.16459
G1 X-6.170 Y-20.290 E1.17836
G1 X-4.380 Y-20.750 E1.20930
G1 X-3.570 Y-20.900 E1.22310
G1 X-1.720 Y-21.130 E1.25431
G1 X-0.930 Y-21.180 E1.26756
G1 X0.920 Y-21.180 E1.29854
G1 X1.710 Y-21.130 E1.31179
G1 X3.560 Y-20.900 E1.34301
G1 X4.370 Y-20.750 E1.35680
G1 X6.160 Y-20.290 E1.38775
G1 X6.940 Y-20.030 E1.40151
G1 X8.670 Y-19.340 E1.43270
G1 X9.370 Y-19.010 E1.44566
G1 X11.000 Y-18.120 E1.47675
G1 X11.690 Y-17.680 E1.49045
G1 X13.190 Y-16.590 E1.52150
G1 X13.820 Y-16.080 E1.53507
G1 X15.170 Y-14.810 E1.56611
G1 X15.700 Y-14.240 E1.57914
G1 X16.890 Y-12.810 E1.61029
G1 X17.390 Y-12.120 E1.62455
G1 X18.380 Y-10.550 E1.65563
G1 X18.760 Y-9.860 E1.66882
G1 X19.550 Y-8.180 E1.69990
G1 X19.840 Y-7.450 E1.71306
G1 X20.420 Y-5.680 E1.74424
G1 X20.620 Y-4.890 E1.75789
G1 X20.970 Y-3.070 E1.78892
G1 X21.070 Y-2.360 E1.80093
G1 X21.200 Y-0.710 E1.82864
G1 X21.210 Y0.190 E1.84371
G1 X21.080 Y2.250 E1.87827
G1 X21.000 Y2.940 E1.88990
G1 X20.730 Y4.510 E1.91657
G1 X20.500 Y5.410 E1.93213
G1 X19.840 Y7.430 E1.96771
G1 X19.550 Y8.170 E1.98102
G1 X18.760 Y9.850 E2.01210
G1 X18.380 Y10.540 E2.02529
G1 X17.390 Y12.110 E2.05637
G1 X16.890 Y12.800 E2.07063
G1 X15.700 Y14.230 E2.10178
G1 X15.150 Y14.810 E2.11517
G1 X13.780 Y16.090 E2.14656
G1 X13.180 Y16.590 E2.15964
G1 X11.700 Y17.670 E2.19031
G1 X11.020 Y18.100 E2.20378
G1 X9.390 Y19.000 E2.23496
G1 X8.640 Y19.350 E2.24882
G1 X6.910 Y20.030 E2.27994
G1 X6.160 Y20.280 E2.29318
G1 X4.370 Y20.740 E2.32412
G1 X3.560 Y20.890 E2.33792
G1 X1.710 Y21.120 E2.36913
G1 X0.920 Y21.170 E2.38238
G1 X-0.930 Y21.170 E2.41336
G1 X-1.720 Y21.120 E2.42661
G1 X-3.570 Y20.890 E2.45783
G1 X-4.380 Y20.740 E2.47162
G1 X-6.170 Y20.280 E2.50257
G1 X-6.920 Y20.030 E2.51580
G1 X-8.650 Y19.350 E2.54693
G1 X-9.400 Y19.000 E2.56079
G1 X-11.030 Y18.100 E2.59196
G1 X-11.700 Y17.670 E2.60529
G1 X-13.200 Y16.580 E2.63634
G1 X-13.830 Y16.070 E2.64991
G1 X-15.180 Y14.800 E2.68094
G1 X-15.710 Y14.230 E2.69397
G1 X-16.900 Y12.800 E2.72512
G1 X-17.400 Y12.110 E2.73939
G1 X-18.390 Y10.540 E2.77047
G1 X-18.770 Y9.850 E2.78366
G1 X-19.560 Y8.170 E2.81474
G1 X-19.850 Y7.440 E2.82789
G1 X-20.430 Y5.670 E2.85908
G1 X-20.630 Y4.880 E2.87273
G1 X-20.980 Y3.060 E2.90376
G1 X-21.090 Y2.230 E2.91778
G1 X-21.200 Y0.380 E2.94881
G1 X-21.200 Y-0.380 E2.96153
G1 X-21.090 Y-2.240 E2.99273
G1 X-20.980 Y-3.070 E3.00675
G1 X-20.630 Y-4.890 E3.03778
G1 X-20.430 Y-5.680 E3.05142
G1 X-19.850 Y-7.450 E3.08261
G1 X-19.560 Y-8.180 E3.09576
G1 X-18.770 Y-9.860 E3.12685
G1 X-18.390 Y-10.560 E3.14018
G1 X-17.410 Y-12.110 E3.17089
G1 X-16.930 Y-12.770 E3.18455
G1 X-15.730 Y-14.220 E3.21607
G1 X-15.223 Y-14.764 E3.22852
G1 X-15.180 Y-14.810 E3.22957
G1 F600.000 E2.22957
G92 E0
G1 X-12.262 Y-11.604 F4800.000
G1 F600.000 E1.00000
G1 X-10.812 Y-12.966 F720.000 E1.03331
G1 X-9.101 Y-14.219 E1.06881
G1 X-7.128 Y-15.303 E1.10651
G1 X-5.279 Y-16.035 E1.13980
G1 X-3.228 Y-16.571 E1.17530
G1 X-0.994 Y-16.853 E1.21300
G1 X0.994 Y-16.853 E1.24629
G1 X3.099 Y-16.595 E1.28179
G1 X5.279 Y-16.035 E1.31949
G1 X7.128 Y-15.303 E1.35279
G1 X8.990 Y-14.289 E1.38828
G1 X10.812 Y-12.966 E1.42598
G1 X12.351 Y-11.509 E1.46148
G1 X13.619 Y-9.976 E1.49478
G1 X14.825 Y-8.075 E1.53247
G1 X15.721 Y-6.153 E1.56797
G1 X16.335 Y-4.262 E1.60127
G1 X16.741 Y-2.181 E1.63677
G1 X16.816 Y-1.117 E1.65463
G1 X16.948 Y-0.976 E1.65786
G1 X16.757 Y2.051 E1.70864
G1 X16.606 Y2.886 E1.72285
G1 X16.728 Y3.053 E1.72632
G1 X15.721 Y6.153 E1.78090
G1 X14.762 Y8.191 E1.81859
G1 X13.619 Y9.976 E1.85409
G1 X12.351 Y11.509 E1.88740
G1 X10.792 Y12.980 E1.92329
G1 X9.101 Y14.219 E1.95838
G1 X7.128 Y15.303 E1.99608
G1 X5.154 Y16.076 E2.03158
G1 X3.228 Y16.571 E2.06487
G1 X0.994 Y16.853 E2.10257
G1 X-0.994 Y16.853 E2.13587
G1 X-3.099 Y16.595 E2.17137
G1 X-5.279 Y16.035 E2.20906
G1 X-7.128 Y15.303 E2.24236
G1 X-8.990 Y14.289 E2.27786
G1 X-10.812 Y12.966 E2.31556
G1 X-12.351 Y11.509 E2.35105
G1 X-13.619 Y9.976 E2.38435
G1 X-14.826 Y8.075 E2.42205
G1 X-15.721 Y6.153 E2.45755
G1 X-16.368 Y4.135 E2.49304
G1 X-16.757 Y2.051 E2.52854
G1 X-16.882 Y0.066 E2.56184
G1 X-16.741 Y-2.181 E2.59954
G1 X-16.368 Y-4.135 E2.63283
G1 X-15.721 Y-6.153 E2.66833
G1 X-14.762 Y-8.191 E2.70603
G1 X-13.632 Y-9.956 E2.74112
G1 X-12.305 Y-11.558 E2.77596
G1 X-12.262 Y-11.604 E2.77701
G1 X-11.965 Y-11.308 F4800.000
G1 X-10.535 Y-12.651 F720.000 E2.80988
G1 X-8.866 Y-13.872 E2.84449
G1 X-6.962 Y-14.919 E2.88087
G1 X-5.037 Y-15.674 E2.91548
G1 X-3.137 Y-16.162 E2.94834
G1 X-0.981 Y-16.434 E2.98472
G1 X0.981 Y-16.434 E3.01758
G1 X3.033 Y-16.181 E3.05219
G1 X5.137 Y-15.641 E3.08857
G1 X7.057 Y-14.874 E3.12319
G1 X8.777 Y-13.928 E3.15604
G1 X10.535 Y-12.651 E3.19242
G1 X12.037 Y-11.231 E3.22703
G1 X13.288 Y-9.719 E3.25989
G1 X14.452 Y-7.885 E3.29627
G1 X15.288 Y-6.109 E3.32913
G1 X15.933 Y-4.145 E3.36374
G1 X16.327 Y-2.116 E3.39836
G1 X16.407 Y-0.940 E3.41809
G1 X16.518 Y-0.822 E3.42080
G1 X16.340 Y2.011 E3.46833
G1 X16.161 Y2.985 E3.48491
G1 X16.264 Y3.127 E3.48784
G1 X15.326 Y6.011 E3.53863
G1 X14.401 Y7.977 E3.57500
G1 X13.288 Y9.719 E3.60962
G1 X12.037 Y11.232 E3.64249
G1 X10.515 Y12.666 E3.67749
G1 X8.866 Y13.872 E3.71171
G1 X6.962 Y14.919 E3.74809
G1 X5.037 Y15.674 E3.78270
G1 X3.137 Y16.162 E3.81556
G1 X0.981 Y16.434 E3.85194
G1 X-0.981 Y16.434 E3.88479
G1 X-3.033 Y16.181 E3.91941
G1 X-5.137 Y15.641 E3.95579
G1 X-7.057 Y14.874 E3.99040
G1 X-8.777 Y13.928 E4.02326
G1 X-10.535 Y12.651 E4.05964
G1 X-12.037 Y11.231 E4.09425
G1 X-13.288 Y9.719 E4.12711
G1 X-14.452 Y7.885 E4.16349
G1 X-15.326 Y6.011 E4.19810
G1 X-15.959 Y4.043 E4.23272
G1 X-16.327 Y2.116 E4.26558
G1 X-16.463 Y0.053 E4.30019
G1 X-16.327 Y-2.116 E4.33657
G1 X-15.933 Y-4.145 E4.37119
G1 X-15.326 Y-6.012 E4.40404
G1 X-14.401 Y-7.977 E4.44042
G1 X-13.301 Y-9.699 E4.47464
G1 X-12.008 Y-11.262 E4.50859
G1 X-11.965 Y-11.308 E4.50964
G1 X-11.669 Y-11.011 F4800.000
G1 X-10.257 Y-12.337 F720.000 E4.54206
G1 X-8.630 Y-13.525 E4.57580
G1 X-6.796 Y-14.534 E4.61086
G1 X-4.920 Y-15.271 E4.64459
G1 X-3.045 Y-15.753 E4.67701
G1 X-0.968 Y-16.015 E4.71206
G1 X0.968 Y-16.015 E4.74448
G1 X2.968 Y-15.767 E4.77822
G1 X4.995 Y-15.247 E4.81327
G1 X6.867 Y-14.500 E4.84701
G1 X8.564 Y-13.568 E4.87942
G1 X10.257 Y-12.337 E4.91448
G1 X11.723 Y-10.954 E4.94821
G1 X12.957 Y-9.463 E4.98063
G1 X14.079 Y-7.695 E5.01569
G1 X14.932 Y-5.870 E5.04942
G1 X15.530 Y-4.028 E5.08184
G1 X15.913 Y-2.050 E5.11557
G1 X15.999 Y-0.763 E5.13717
G1 X16.089 Y-0.667 E5.13937
G1 X15.923 Y1.972 E5.18364
G1 X15.715 Y3.085 E5.20260
G1 X15.799 Y3.200 E5.20499
G1 X14.932 Y5.870 E5.25199
G1 X14.041 Y7.764 E5.28704
G1 X12.957 Y9.463 E5.32078
G1 X11.722 Y10.955 E5.35320
G1 X10.239 Y12.351 E5.38732
G1 X8.630 Y13.525 E5.42066
G1 X6.796 Y14.534 E5.45572
G1 X4.920 Y15.271 E5.48945
G1 X3.045 Y15.753 E5.52187
G1 X0.968 Y16.015 E5.55693
G1 X-0.968 Y16.015 E5.58934
G1 X-2.968 Y15.767 E5.62308
G1 X-4.995 Y15.247 E5.65813
G1 X-6.796 Y14.534 E5.69055
G1 X-8.564 Y13.568 E5.72428
G1 X-10.257 Y12.337 E5.75934
G1 X-11.723 Y10.954 E5.79308
G1 X-12.957 Y9.463 E5.82549
G1 X-14.079 Y7.695 E5.86055
G1 X-14.932 Y5.870 E5.89428
G1 X-15.530 Y4.028 E5.92670
G1 X-15.913 Y2.050 E5.96043
G1 X-16.044 Y0.039 E5.99417
G1 X-15.913 Y-2.050 E6.02923
G1 X-15.550 Y-3.952 E6.06164
G1 X-14.932 Y-5.870 E6.09538
G1 X-14.041 Y-7.764 E6.13043
G1 X-12.969 Y-9.443 E6.16378
G1 X-11.712 Y-10.966 E6.19685
G1 X-11.669 Y-11.011 E6.19790
G1 X-11.373 Y-10.715 F4800.000
G1 X-9.980 Y-12.023 F720.000 E6.22988
G1 X-8.395 Y-13.179 E6.26273
G1 X-6.629 Y-14.149 E6.29647
G1 X-4.803 Y-14.869 E6.32932
G1 X-2.954 Y-15.344 E6.36130
G1 X-0.955 Y-15.596 E6.39503
G1 X0.955 Y-15.596 E6.42701
G1 X2.902 Y-15.353 E6.45986
G1 X4.854 Y-14.852 E6.49360
G1 X6.677 Y-14.127 E6.52645
G1 X8.350 Y-13.207 E6.55843
G1 X9.980 Y-12.023 E6.59216
G1 X11.408 Y-10.677 E6.62502
G1 X12.626 Y-9.206 E6.65699
G1 X13.705 Y-7.504 E6.69073
G1 X14.518 Y-5.777 E6.72270
G1 X15.128 Y-3.911 E6.75556
G1 X15.499 Y-1.985 E6.78841
G1 X15.590 Y-0.586 E6.81188
G1 X15.659 Y-0.513 E6.81357
G1 X15.505 Y1.932 E6.85458
G1 X15.270 Y3.184 E6.87591
G1 X15.335 Y3.274 E6.87777
G1 X14.538 Y5.728 E6.92097
G1 X13.680 Y7.551 E6.95470
G1 X12.626 Y9.206 E6.98756
G1 X11.408 Y10.677 E7.01954
G1 X9.962 Y12.036 E7.05277
G1 X8.395 Y13.179 E7.08524
G1 X6.629 Y14.149 E7.11897
G1 X4.803 Y14.869 E7.15183
G1 X2.954 Y15.344 E7.18380
G1 X0.955 Y15.596 E7.21754
G1 X-0.955 Y15.596 E7.24951
G1 X-2.902 Y15.353 E7.28237
G1 X-4.854 Y14.852 E7.31610
G1 X-6.629 Y14.149 E7.34808
G1 X-8.350 Y13.207 E7.38093
G1 X-9.980 Y12.023 E7.41467
G1 X-11.408 Y10.677 E7.44752
G1 X-12.626 Y9.206 E7.47950
G1 X-13.705 Y7.504 E7.51323
G1 X-14.518 Y5.777 E7.54521
G1 X-15.128 Y3.911 E7.57806
G1 X-15.505 Y1.932 E7.61180
G1 X-15.625 Y0.026 E7.64377
G1 X-15.505 Y-1.932 E7.67663
G1 X-15.128 Y-3.911 E7.71036
G1 X-14.518 Y-5.777 E7.74322
G1 X-13.705 Y-7.504 E7.77519
G1 X-12.669 Y-9.144 E7.80768
G1 X-11.415 Y-10.669 E7.84073
G1 X-11.373 Y-10.715 E7.84178
G1 X-11.076 Y-10.419 F4800.000
G1 X-9.703 Y-11.708 F720.000 E7.87331
G1 X-8.159 Y-12.832 E7.90529
G1 X-6.463 Y-13.765 E7.93770
G1 X-4.687 Y-14.466 E7.96968
G1 X-2.862 Y-14.935 E8.00121
G1 X-0.942 Y-15.177 E8.03363
G1 X0.942 Y-15.177 E8.06516
G1 X2.836 Y-14.940 E8.09713
G1 X4.712 Y-14.458 E8.12955
G1 X6.463 Y-13.765 E8.16108
G1 X8.137 Y-12.846 E8.19306
G1 X9.703 Y-11.708 E8.22547
G1 X11.094 Y-10.400 E8.25745
G1 X12.295 Y-8.949 E8.28898
G1 X13.332 Y-7.314 E8.32139
G1 X14.143 Y-5.586 E8.35337
G1 X14.725 Y-3.794 E8.38490
G1 X15.085 Y-1.919 E8.41688
G1 X15.182 Y-0.409 E8.44220
G1 X15.230 Y-0.358 E8.44338
G1 X15.088 Y1.893 E8.48115
G1 X14.824 Y3.284 E8.50485
G1 X14.871 Y3.347 E8.50617
G1 X14.143 Y5.586 E8.54557
G1 X13.319 Y7.337 E8.57799
G1 X12.295 Y8.949 E8.60996
G1 X11.094 Y10.400 E8.64150
G1 X9.665 Y11.738 E8.67428
G1 X8.137 Y12.846 E8.70588
G1 X6.486 Y13.754 E8.73741
G1 X4.712 Y14.458 E8.76939
G1 X2.862 Y14.935 E8.80136
G1 X0.942 Y15.177 E8.83378
G1 X-0.942 Y15.177 E8.86531
G1 X-2.836 Y14.940 E8.89729
G1 X-4.712 Y14.458 E8.92970
G1 X-6.463 Y13.765 E8.96123
G1 X-8.137 Y12.846 E8.99321
G1 X-9.703 Y11.708 E9.02562
G1 X-11.094 Y10.400 E9.05760
G1 X-12.295 Y8.949 E9.08913
G1 X-13.332 Y7.314 E9.12155
G1 X-14.143 Y5.586 E9.15352
G1 X-14.725 Y3.794 E9.18505
G1 X-15.088 Y1.893 E9.21747
G1 X-15.206 Y0.013 E9.24900
G1 X-15.088 Y-1.893 E9.28098
G1 X-14.725 Y-3.794 E9.31339
G1 X-14.143 Y-5.586 E9.34493
G1 X-13.332 Y-7.314 E9.37690
G1 X-12.322 Y-8.909 E9.40850
G1 X-11.117 Y-10.372 E9.44023
G1 X-11.076 Y-10.419 E9.44128
G1 X-10.780 Y-10.123 F4800.000
G1 X-9.426 Y-11.394 F720.000 E9.47238
G1 X-7.924 Y-12.486 E9.50347
G1 X-6.296 Y-13.380 E9.53456
G1 X-4.570 Y-14.064 E9.56566
G1 X-2.771 Y-14.526 E9.59675
G1 X-0.929 Y-14.758 E9.62784
G1 X0.929 Y-14.758 E9.65894
G1 X2.771 Y-14.526 E9.69003
G1 X4.570 Y-14.064 E9.72112
G1 X6.296 Y-13.380 E9.75222
G1 X7.924 Y-12.486 E9.78331
G1 X9.426 Y-11.394 E9.81440
G1 X10.780 Y-10.123 E9.84550
G1 X11.963 Y-8.692 E9.87659
G1 X12.958 Y-7.124 E9.90769
G1 X13.749 Y-5.444 E9.93878
G1 X14.323 Y-3.678 E9.96987
G1 X14.671 Y-1.853 E10.00097
G1 X14.775 Y-0.203 E10.02865
G1 X14.800 Y-0.203 E10.02908
G1 X14.671 Y1.853 E10.06358
G1 X14.372 Y3.421 E10.09030
G1 X14.406 Y3.421 E10.09088
G1 X13.749 Y5.444 E10.12649
G1 X12.958 Y7.124 E10.15758
G1 X11.963 Y8.692 E10.18867
G1 X10.780 Y10.123 E10.21977
G1 X9.408 Y11.407 E10.25123
G1 X7.924 Y12.486 E10.28195
G1 X6.296 Y13.380 E10.31305
G1 X4.570 Y14.064 E10.34414
G1 X2.771 Y14.526 E10.37523
G1 X0.929 Y14.758 E10.40633
G1 X-0.929 Y14.758 E10.43742
G1 X-2.771 Y14.526 E10.46851
G1 X-4.570 Y14.064 E10.49961
G1 X-6.316 Y13.370 E10.53107
G1 X-7.924 Y12.486 E10.56179
G1 X-9.426 Y11.394 E10.59288
G1 X-10.780 Y10.123 E10.62398
G1 X-11.963 Y8.692 E10.65507
G1 X-12.958 Y7.124 E10.68617
G1 X-13.749 Y5.444 E10.71726
G1 X-14.323 Y3.678 E10.74835
G1 X-14.671 Y1.853 E10.77945
G1 X-14.788 Y-0.000 E10.81054
G1 X-14.671 Y-1.853 E10.84163
G1 X-14.323 Y-3.678 E10.87273
G1 X-13.749 Y-5.444 E10.90382
G1 X-12.958 Y-7.124 E10.93491
G1 X-11.963 Y-8.692 E10.96601
G1 X-10.820 Y-10.074 E10.99605
G1 X-10.780 Y-10.123 E10.99710
G1 X-10.374 Y-10.019 F4800.000
G1 X-10.474 Y-9.835
G1 X-9.158 Y-11.071 F720.000 E11.02731
G1 X-7.699 Y-12.131 E11.05752
G1 X-6.118 Y-13.000 E11.08773
G1 X-4.440 Y-13.665 E11.11794
G1 X-2.692 Y-14.113 E11.14816
G1 X-0.902 Y-14.340 E11.17837
G1 X0.902 Y-14.340 E11.20858
G1 X2.692 Y-14.113 E11.23879
G1 X4.440 Y-13.665 E11.26900
G1 X6.118 Y-13.000 E11.29921
G1 X7.699 Y-12.131 E11.32942
G1 X9.158 Y-11.071 E11.35963
G1 X10.474 Y-9.835 E11.38984
G1 X11.624 Y-8.445 E11.42005
G1 X12.591 Y-6.922 E11.45026
G1 X13.359 Y-5.289 E11.48048
G1 X13.916 Y-3.573 E11.51069
G1 X14.255 Y-1.801 E11.54090
G1 X14.368 Y-0.000 E11.57111
G1 X14.255 Y1.801 E11.60132
G1 X13.916 Y3.573 E11.63153
G1 X13.359 Y5.289 E11.66174
G1 X12.591 Y6.922 E11.69195
G1 X11.624 Y8.445 E11.72216
G1 X10.474 Y9.835 E11.75237
G1 X9.158 Y11.071 E11.78259
G1 X7.699 Y12.131 E11.81280
G1 X6.118 Y13.000 E11.84301
G1 X4.440 Y13.665 E11.87322
G1 X2.692 Y14.113 E11.90343
G1 X0.902 Y14.340 E11.93364
G1 X-0.902 Y14.340 E11.96385
G1 X-2.692 Y14.113 E11.99406
G1 X-4.440 Y13.665 E12.02427
G1 X-6.118 Y13.000 E12.05448
G1 X-7.699 Y12.131 E12.08470
G1 X-9.158 Y11.071 E12.11491
G1 X-10.474 Y9.835 E12.14512
G1 X-11.624 Y8.445 E12.17533
G1 X-12.591 Y6.922 E12.20554
G1 X-13.359 Y5.289 E12.23575
G1 X-13.916 Y3.573 E12.26596
G1 X-14.255 Y1.801 E12.29617
G1 X-14.368 Y-0.000 E12.32638
G1 X-14.255 Y-1.801 E12.35659
G1 X-13.916 Y-3.573 E12.38681
G1 X-13.359 Y-5.289 E12.41702
G1 X-12.591 Y-6.922 E12.44723
G1 X-11.624 Y-8.445 E12.47744
G1 X-10.514 Y-9.787 E12.50660
G1 X-10.474 Y-9.835 E12.50765
G1 F600.000 E11.50765
G92 E0
G1 X-4.310 Y-13.265 F4800.000
G1 F600.000 E1.00000
G1 X-2.614 Y-13.701 F720.000 E1.02933
G1 X-0.876 Y-13.921 E1.05866
G1 X0.876 Y-13.921 E1.08799
G1 X2.614 Y-13.701 E1.11731
G1 X4.310 Y-13.265 E1.14664
G1 X5.939 Y-12.621 E1.17597
G1 X7.474 Y-11.777 E1.20530
G1 X8.891 Y-10.747 E1.23463
G1 X10.168 Y-9.548 E1.26396
G1 X11.284 Y-8.199 E1.29329
G1 X12.223 Y-6.720 E1.32261
G1 X12.969 Y-5.135 E1.35194
G1 X13.510 Y-3.469 E1.38127
G1 X13.838 Y-1.748 E1.41060
G1 X13.948 Y-0.000 E1.43993
G1 X13.838 Y1.748 E1.46926
G1 X13.510 Y3.469 E1.49858
G1 X12.969 Y5.135 E1.52791
G1 X12.223 Y6.720 E1.55724
G1 X11.284 Y8.199 E1.58657
G1 X10.168 Y9.548 E1.61590
G1 X8.891 Y10.747 E1.64523
G1 X7.474 Y11.777 E1.67455
G1 X5.939 Y12.621 E1.70388
G1 X4.310 Y13.265 E1.73321
G1 X2.614 Y13.701 E1.76254
G1 X0.876 Y13.921 E1.79187
G1 X-0.876 Y13.921 E1.82120
G1 X-2.614 Y13.701 E1.85053
G1 X-4.310 Y13.265 E1.87985
G1 X-5.939 Y12.621 E1.90918
G1 X-7.474 Y11.777 E1.93851
G1 X-8.891 Y10.747 E1.96784
G1 X-10.168 Y9.548 E1.99717
G1 X-11.284 Y8.199 E2.02650
G1 X-12.223 Y6.720 E2.05582
G1 X-12.969 Y5.135 E2.08515
G1 X-13.510 Y3.469 E2.11448
G1 X-13.838 Y1.748 E2.14381
G1 X-13.948 Y-0.000 E2.17314
G1 X-13.838 Y-1.748 E2.20247
