; generated by Slic3r 0.9.8 on 2013-02-09 at 20:50:00

; layer_height = 0.3
; perimeters = 3
; top_solid_layers = 3
; bottom_solid_layers = 3
; fill_density = 0.1
; perimeter_speed = 40
; infill_speed = 80
; travel_speed = 130
; scale = 1
; nozzle_diameter = 0.4
; filament_diameter = 2.85
; extrusion_multiplier = 0.78
; perimeters extrusion width = 0.42mm
; infill extrusion width = 0.42mm
; first layer extrusion width = 0.60mm

M107
M104 S210 ; set temperature
G21 ; Set to metric
M82 ; Absolute Extruder
G90 ; Absolute Positioning
G28 ; Go home
G1X5Y98F9000 ; Go to the middle of the front
G1Z0.05 ; close to the bed
M104 S210 ; set extruder temp S200
M190 S60 ; set bed temp & wait S55
M109 S200 ; wait for extruder temp
G92 E0 ; Zero the extruder
G1E5F50 ; extrude a blob
G92 E0 ; Zero the extruder
G1X-40F4000 ;wipe 40mm along the edge of the bed
G1Z0.3 ;lift Z 
G90 ; use absolute coordinates
G21 ; set units to millimeters
G92 E0
M82 ; use absolute distances for extrusion
G1 F600.000 E-1.00000
G92 E0
G1 Z0.300 F7800.000
G1 X-12.707 Y-13.084
G1 F600.000 E1.00000
G1 X-12.327 Y-13.474 F720.000 E1.01113
G1 X-11.907 Y-13.834 E1.02243
G1 X-9.717 Y-15.434 E1.07785
G1 X-9.257 Y-15.744 E1.08919
G1 X-8.527 Y-16.124 E1.10600
G1 X-6.037 Y-17.234 E1.16171
G1 X-5.507 Y-17.414 E1.17315
G1 X-4.967 Y-17.554 E1.18455
G1 X-2.257 Y-18.124 E1.24114
G1 X-1.717 Y-18.214 E1.25232
G1 X-0.907 Y-18.264 E1.26890
G1 X0.893 Y-18.264 E1.30569
G1 X1.703 Y-18.214 E1.32227
G1 X2.233 Y-18.124 E1.33325
G1 X4.953 Y-17.554 E1.39004
G1 X5.503 Y-17.414 E1.40164
G1 X5.773 Y-17.324 E1.40745
G1 X6.293 Y-17.114 E1.41891
G1 X8.773 Y-16.004 E1.47443
G1 X9.013 Y-15.874 E1.48001
G1 X9.703 Y-15.434 E1.49673
G1 X11.683 Y-13.994 E1.54676
G1 X12.303 Y-13.484 E1.56317
G1 X12.683 Y-13.094 E1.57429
G1 X14.323 Y-11.284 E1.62420
G1 X14.683 Y-10.854 E1.63566
G1 X15.003 Y-10.394 E1.64711
G1 X16.503 Y-7.794 E1.70845
G1 X16.833 Y-7.034 E1.72538
G1 X17.753 Y-4.194 E1.78638
G1 X17.873 Y-3.674 E1.79729
G1 X17.953 Y-3.154 E1.80804
G1 X18.123 Y-1.624 E1.83949
G1 X18.163 Y-0.904 E1.85423
G1 X18.163 Y0.896 E1.89101
G1 X18.123 Y1.616 E1.90574
G1 X17.953 Y3.146 E1.93720
G1 X17.873 Y3.666 E1.94795
G1 X17.753 Y4.186 E1.95886
G1 X16.833 Y7.026 E2.01986
G1 X16.503 Y7.786 E2.03679
G1 X15.003 Y10.386 E2.09813
G1 X14.683 Y10.846 E2.10958
G1 X14.323 Y11.276 E2.12104
G1 X12.683 Y13.086 E2.17094
G1 X12.103 Y13.656 E2.18756
G1 X11.683 Y13.986 E2.19848
G1 X9.703 Y15.426 E2.24850
G1 X9.013 Y15.866 E2.26523
G1 X8.773 Y15.996 E2.27080
G1 X6.293 Y17.106 E2.32632
G1 X5.503 Y17.406 E2.34359
G1 X4.953 Y17.546 E2.35519
G1 X2.233 Y18.116 E2.41198
G1 X1.703 Y18.206 E2.42296
G1 X0.893 Y18.256 E2.43955
G1 X-0.907 Y18.256 E2.47633
G1 X-1.717 Y18.206 E2.49291
G1 X-2.257 Y18.116 E2.50410
G1 X-4.967 Y17.546 E2.56068
G1 X-5.507 Y17.406 E2.57208
G1 X-6.037 Y17.226 E2.58352
G1 X-6.287 Y17.116 E2.58910
G1 X-8.527 Y16.116 E2.63923
G1 X-9.257 Y15.736 E2.65604
G1 X-9.717 Y15.426 E2.66738
G1 X-11.697 Y13.986 E2.71741
G1 X-12.127 Y13.646 E2.72861
G1 X-12.707 Y13.076 E2.74523
G1 X-14.337 Y11.266 E2.79500
G1 X-14.687 Y10.846 E2.80617
G1 X-15.137 Y10.166 E2.82283
G1 X-16.367 Y8.046 E2.87292
G1 X-16.747 Y7.296 E2.89010
G1 X-16.937 Y6.766 E2.90160
G1 X-17.687 Y4.436 E2.95162
G1 X-17.837 Y3.916 E2.96268
G1 X-17.937 Y3.376 E2.97390
G1 X-17.967 Y3.106 E2.97945
G1 X-18.127 Y1.576 E3.01088
G1 X-18.167 Y0.896 E3.02480
G1 X-18.167 Y-0.904 E3.06158
G1 X-18.127 Y-1.584 E3.07550
G1 X-17.937 Y-3.384 E3.11249
G1 X-17.837 Y-3.924 E3.12371
G1 X-17.767 Y-4.184 E3.12921
G1 X-16.937 Y-6.774 E3.18479
G1 X-16.747 Y-7.304 E3.19629
G1 X-16.367 Y-8.054 E3.21347
G1 X-15.137 Y-10.174 E3.26356
G1 X-14.847 Y-10.634 E3.27467
G1 X-14.337 Y-11.274 E3.29139
G1 X-12.763 Y-13.022 E3.33946
G1 X-12.707 Y-13.084 E3.34116
G1 F600.000 E2.34116
G92 E0
G1 X-8.617 Y-9.482 F7800.000
G1 F600.000 E1.00000
G1 X-6.457 Y-11.067 F720.000 E1.05473
G1 X-4.015 Y-12.167 E1.10947
G1 X-0.612 Y-12.903 E1.18061
G1 X-0.000 Y-12.408 E1.19670
G1 X0.612 Y-12.903 E1.21279
G1 X4.015 Y-12.167 E1.28393
G1 X6.457 Y-11.067 E1.33866
G1 X8.617 Y-9.482 E1.39340
G1 X10.400 Y-7.484 E1.44813
G1 X11.681 Y-5.265 E1.50049
G1 X12.520 Y-2.721 E1.55523
G1 X12.764 Y-0.523 E1.60041
G1 X12.293 Y0.000 E1.61480
G1 X12.764 Y0.523 E1.62918
G1 X12.545 Y2.607 E1.67199
G1 X11.729 Y5.158 E1.72673
G1 X10.400 Y7.484 E1.78146
G1 X8.617 Y9.482 E1.83619
G1 X6.457 Y11.067 E1.89093
G1 X4.015 Y12.167 E1.94566
G1 X0.612 Y12.903 E2.01680
G1 X0.000 Y12.408 E2.03289
G1 X-0.612 Y12.903 E2.04898
G1 X-4.015 Y12.167 E2.12012
G1 X-6.457 Y11.067 E2.17486
G1 X-8.617 Y9.482 E2.22959
G1 X-10.400 Y7.484 E2.28432
G1 X-11.681 Y5.265 E2.33668
G1 X-12.520 Y2.721 E2.39142
G1 X-12.764 Y0.523 E2.43660
G1 X-12.293 Y-0.000 E2.45099
G1 X-12.764 Y-0.523 E2.46537
G1 X-12.545 Y-2.607 E2.50818
G1 X-11.729 Y-5.158 E2.56292
G1 X-10.400 Y-7.484 E2.61765
G1 X-8.673 Y-9.420 E2.67068
G1 X-8.617 Y-9.482 E2.67239
G1 X-8.222 Y-9.088 F7800.000
G1 X-6.153 Y-10.599 F720.000 E2.72474
G1 X-3.815 Y-11.647 E2.77709
G1 X-0.756 Y-12.303 E2.84102
G1 X-0.343 Y-11.969 E2.85188
G1 X-0.343 Y-8.257 E2.92772
G1 X0.343 Y-8.257 E2.94174
G1 X0.343 Y-11.969 E3.01758
G1 X0.756 Y-12.303 E3.02844
G1 X3.815 Y-11.647 E3.09237
G1 X6.153 Y-10.599 E3.14472
G1 X8.222 Y-9.088 E3.19708
G1 X9.898 Y-7.227 E3.24825
G1 X11.184 Y-5.011 E3.30060
G1 X11.982 Y-2.577 E3.35295
G1 X12.184 Y-0.712 E3.39129
G1 X11.852 Y-0.343 E3.40142
G1 X8.257 Y-0.343 E3.47488
G1 X8.257 Y0.343 E3.48889
G1 X11.852 Y0.343 E3.56234
G1 X12.184 Y0.712 E3.57248
G1 X11.982 Y2.577 E3.61081
G1 X11.184 Y5.011 E3.66317
G1 X9.898 Y7.227 E3.71552
G1 X8.222 Y9.088 E3.76669
G1 X6.153 Y10.599 E3.81904
G1 X3.815 Y11.647 E3.87140
G1 X0.756 Y12.303 E3.93533
G1 X0.343 Y11.969 E3.94619
G1 X0.343 Y8.257 E4.02203
G1 X-0.343 Y8.257 E4.03604
G1 X-0.343 Y11.969 E4.11188
G1 X-0.756 Y12.303 E4.12274
G1 X-3.815 Y11.647 E4.18667
G1 X-6.153 Y10.599 E4.23903
G1 X-8.222 Y9.088 E4.29138
G1 X-9.898 Y7.227 E4.34255
G1 X-11.184 Y5.011 E4.39490
G1 X-11.982 Y2.577 E4.44726
G1 X-12.184 Y0.712 E4.48559
G1 X-11.852 Y0.343 E4.49573
G1 X-8.257 Y0.343 E4.56918
G1 X-8.257 Y-0.343 E4.58319
G1 X-11.852 Y-0.343 E4.65665
G1 X-12.184 Y-0.712 E4.66678
G1 X-11.982 Y-2.577 E4.70512
G1 X-11.184 Y-5.011 E4.75747
G1 X-9.932 Y-7.180 E4.80864
G1 X-8.278 Y-9.026 E4.85928
G1 X-8.222 Y-9.088 E4.86099
G1 X-7.828 Y-8.694 F7800.000
G1 X-5.849 Y-10.131 F720.000 E4.91097
G1 X-3.615 Y-11.126 E4.96094
G1 X-0.900 Y-11.703 E5.01766
G1 X-0.900 Y-7.700 E5.09945
G1 X0.900 Y-7.700 E5.13623
G1 X0.900 Y-11.703 E5.21803
G1 X3.615 Y-11.126 E5.27475
G1 X5.849 Y-10.131 E5.32472
G1 X7.828 Y-8.694 E5.37469
G1 X9.464 Y-6.876 E5.42467
G1 X10.687 Y-4.758 E5.47464
G1 X11.443 Y-2.432 E5.52462
G1 X11.604 Y-0.900 E5.55610
G1 X7.700 Y-0.900 E5.63587
G1 X7.700 Y0.900 E5.67265
G1 X11.604 Y0.900 E5.75242
G1 X11.443 Y2.432 E5.78390
G1 X10.687 Y4.758 E5.83387
G1 X9.464 Y6.876 E5.88385
G1 X9.422 Y6.923 E5.88512
G1 X7.828 Y8.694 E5.93382
G1 X5.849 Y10.131 E5.98379
G1 X3.615 Y11.126 E6.03377
G1 X0.900 Y11.703 E6.09049
G1 X0.900 Y7.700 E6.17228
G1 X-0.900 Y7.700 E6.20906
G1 X-0.900 Y11.703 E6.29086
G1 X-3.615 Y11.126 E6.34758
G1 X-5.849 Y10.131 E6.39755
G1 X-7.828 Y8.694 E6.44752
G1 X-9.464 Y6.876 E6.49750
G1 X-10.687 Y4.758 E6.54747
G1 X-11.443 Y2.432 E6.59744
G1 X-11.604 Y0.900 E6.62893
G1 X-7.700 Y0.900 E6.70870
G1 X-7.700 Y-0.900 E6.74548
G1 X-11.604 Y-0.900 E6.82525
G1 X-11.443 Y-2.432 E6.85673
G1 X-10.687 Y-4.758 E6.90670
G1 X-9.464 Y-6.876 E6.95667
G1 X-7.884 Y-8.631 E7.00494
G1 X-7.828 Y-8.694 E7.00665
G1 X-7.304 Y-8.503 F7800.000
G1 X-7.453 Y-8.277
G1 X-5.569 Y-9.646 F720.000 E7.05423
G1 X-3.442 Y-10.593 E7.10181
G1 X-1.457 Y-11.015 E7.14327
G1 X-1.457 Y-7.143 E7.22240
G1 X1.457 Y-7.143 E7.28194
G1 X1.457 Y-11.015 E7.36107
G1 X3.442 Y-10.593 E7.40253
G1 X5.569 Y-9.646 E7.45011
G1 X7.453 Y-8.277 E7.49769
G1 X9.011 Y-6.547 E7.54527
G1 X10.175 Y-4.530 E7.59285
G1 X10.895 Y-2.316 E7.64043
G1 X10.985 Y-1.457 E7.65808
G1 X7.143 Y-1.457 E7.73659
G1 X7.143 Y1.457 E7.79614
G1 X10.985 Y1.457 E7.87465
G1 X10.895 Y2.316 E7.89229
G1 X10.175 Y4.530 E7.93987
G1 X9.011 Y6.547 E7.98745
G1 X7.453 Y8.277 E8.03503
G1 X5.569 Y9.646 E8.08261
G1 X3.442 Y10.593 E8.13019
G1 X1.457 Y11.015 E8.17166
G1 X1.457 Y7.143 E8.25078
G1 X-1.457 Y7.143 E8.31033
G1 X-1.457 Y11.015 E8.38945
G1 X-3.442 Y10.593 E8.43091
G1 X-5.569 Y9.646 E8.47849
G1 X-7.453 Y8.277 E8.52607
G1 X-9.011 Y6.547 E8.57365
G1 X-10.175 Y4.530 E8.62124
G1 X-10.895 Y2.316 E8.66882
G1 X-10.985 Y1.457 E8.68646
G1 X-7.143 Y1.457 E8.76497
G1 X-7.143 Y-1.457 E8.82452
G1 X-10.985 Y-1.457 E8.90303
G1 X-10.895 Y-2.316 E8.92067
G1 X-10.175 Y-4.530 E8.96825
G1 X-9.011 Y-6.547 E9.01583
G1 X-7.509 Y-8.215 E9.06171
G1 X-7.453 Y-8.277 E9.06341
G1 F600.000 E8.06341
G92 E0
G1 X-2.014 Y10.327 F7800.000
G1 F600.000 E1.00000
G1 X-3.269 Y10.060 F720.000 E1.02621
G1 X-5.289 Y9.161 E1.07140
G1 X-7.078 Y7.861 E1.11659
G1 X-8.558 Y6.218 E1.16177
G1 X-9.663 Y4.302 E1.20696
G1 X-10.407 Y2.014 E1.25613
G1 X-6.586 Y2.014 E1.33421
G1 X-6.586 Y-2.014 E1.41653
G1 X-10.407 Y-2.014 E1.49461
G1 X-9.663 Y-4.302 E1.54378
G1 X-8.558 Y-6.218 E1.58896
G1 X-7.078 Y-7.861 E1.63415
G1 X-5.289 Y-9.161 E1.67934
G1 X-3.269 Y-10.060 E1.72453
G1 X-2.014 Y-10.327 E1.75074
G1 X-2.014 Y-6.586 E1.82719
G1 X2.014 Y-6.586 E1.90950
G1 X2.014 Y-10.327 E1.98595
G1 X3.269 Y-10.060 E2.01216
G1 X5.289 Y-9.161 E2.05735
G1 X7.078 Y-7.861 E2.10253
G1 X8.558 Y-6.218 E2.14772
G1 X9.663 Y-4.302 E2.19291
G1 X10.407 Y-2.014 E2.24208
G1 X6.586 Y-2.014 E2.32016
G1 X6.586 Y2.014 E2.40247
G1 X10.407 Y2.014 E2.48056
G1 X9.663 Y4.302 E2.52972
G1 X8.558 Y6.218 E2.57491
G1 X7.078 Y7.861 E2.62010
G1 X5.289 Y9.161 E2.66529
G1 X3.269 Y10.060 E2.71048
G1 X2.014 Y10.327 E2.73669
G1 X2.014 Y6.586 E2.81313
G1 X-2.014 Y6.586 E2.89545
G1 X-2.014 Y10.243 E2.97019
G1 X-2.014 Y10.327 E2.97190
G1 F600.000 E1.97190
G92 E0
G1 X-4.209 Y9.130 F7800.000
G1 F600.000 E1.00000
G1 X-9.175 Y4.165 F1440.000 E1.14725
G1 X-9.664 Y2.867 E1.17633
G1 X-2.801 Y9.730 E1.37984
G1 X-2.394 Y9.329 E1.39183
G1 X-9.329 Y2.394 E1.59748
G1 X-8.520 Y2.394 E1.61443
G1 X-2.394 Y8.520 E1.79611
G1 X-2.394 Y7.712 E1.81307
G1 X-7.712 Y2.394 E1.97077
G1 X-6.903 Y2.394 E1.98772
G1 X-2.394 Y6.903 E2.12145
G1 X-2.283 Y6.206 E2.13626
G1 X-6.206 Y2.283 E2.25261
G1 X-6.206 Y1.474 E2.26956
G1 X-1.474 Y6.206 E2.40989
G1 X-0.666 Y6.206 E2.42684
G1 X-6.206 Y0.666 E2.59113
G1 X-6.206 Y-0.143 E2.60809
G1 X0.143 Y6.206 E2.79636
G1 X0.951 Y6.206 E2.81331
G1 X-6.206 Y-0.951 E3.02556
G1 X-6.206 Y-1.760 E3.04251
G1 X1.760 Y6.206 E3.27874
G1 X2.394 Y6.032 E3.29253
G1 X5.203 Y8.841 E3.37583
G1 X5.671 Y8.501 E3.38797
G1 X-8.506 Y-5.677 E3.80841
G1 X-8.190 Y-6.168 E3.82067
G1 X6.139 Y8.161 E4.24559
G1 X6.608 Y7.820 E4.25773
G1 X-7.807 Y-6.594 E4.68518
G1 X-7.423 Y-7.019 E4.69719
G1 X7.040 Y7.445 E5.12611
G1 X7.423 Y7.019 E5.13811
G1 X-7.040 Y-7.445 E5.56704
G1 X-6.608 Y-7.820 E5.57905
G1 X7.807 Y6.594 E6.00650
G1 X8.190 Y6.168 E6.01851
G1 X-6.139 Y-8.161 E6.44343
G1 X-5.671 Y-8.501 E6.45557
G1 X8.506 Y5.677 E6.87600
G1 X8.802 Y5.164 E6.88841
G1 X6.032 Y2.394 E6.97057
G1 X6.206 Y2.568 F7800.000
G1 X-2.568 Y-6.206 F1440.000 E7.23077
G1 X-2.394 Y-6.032 F7800.000
G1 X-5.203 Y-8.841 F1440.000 E7.31407
G1 X-4.647 Y-9.093 E7.32688
G1 X-2.394 Y-6.840 E7.39369
G1 X-2.394 Y-7.649 E7.41064
G1 X-4.087 Y-9.342 E7.46086
G1 X-3.528 Y-9.591 E7.47370
G1 X-2.394 Y-8.457 E7.50733
G1 X-2.394 Y-9.266 E7.52428
G1 X-2.910 Y-9.782 E7.53960
G1 F600.000 E6.53960
G92 E0
G1 X-1.760 Y-6.206 F7800.000
G1 F600.000 E1.00000
G1 X6.206 Y1.760 F1440.000 E1.23622
G1 X6.206 Y0.951 E1.25317
G1 X-0.951 Y-6.206 E1.46542
G1 X-0.143 Y-6.206 E1.48237
G1 X6.206 Y0.143 E1.67065
G1 X6.206 Y-0.666 E1.68760
G1 X0.666 Y-6.206 E1.85190
G1 X1.474 Y-6.206 E1.86885
G1 X6.206 Y-1.474 E2.00917
G1 X6.206 Y-2.283 E2.02612
G1 X2.283 Y-6.206 E2.14247
G1 X2.394 Y-6.903 E2.15728
G1 X6.903 Y-2.394 E2.29101
G1 X7.712 Y-2.394 E2.30796
G1 X2.394 Y-7.712 E2.46567
G1 X2.394 Y-8.520 E2.48262
G1 X8.520 Y-2.394 E2.66430
G1 X9.329 Y-2.394 E2.68125
G1 X2.394 Y-9.329 E2.88691
G1 X2.801 Y-9.730 E2.89890
G1 X9.664 Y-2.867 E3.10241
G1 X9.175 Y-4.165 E3.13149
G1 X4.209 Y-9.130 E3.27873
G1 X6.526 Y-7.622 E3.33668
G1 X6.882 Y-7.266 E3.34724
G1 F600.000 E2.34724
G92 E0
G1 X6.840 Y2.394 F7800.000
G1 F600.000 E1.00000
G1 X9.098 Y4.652 F1440.000 E1.06696
G1 X9.373 Y4.118 E1.07955
G1 X7.649 Y2.394 E1.13067
G1 X8.457 Y2.394 E1.14762
G1 X9.571 Y3.508 E1.18065
G1 X9.769 Y2.897 E1.19410
G1 X9.266 Y2.394 E1.20903
G1 F600.000 E0.20903
G92 E0
G1 X2.568 Y6.206 F7800.000
G1 F600.000 E1.00000
G1 X-6.206 Y-2.568 F1440.000 E1.26020
G1 X-6.032 Y-2.394 F7800.000
G1 X-8.802 Y-5.164 F1440.000 E1.34236
G1 X-9.098 Y-4.652 E1.35477
G1 X-6.840 Y-2.394 E1.42172
G1 X-7.649 Y-2.394 E1.43868
G1 X-9.373 Y-4.118 E1.48980
G1 X-9.571 Y-3.508 E1.50325
G1 X-8.457 Y-2.394 E1.53628
G1 X-9.266 Y-2.394 E1.55323
G1 X-9.769 Y-2.897 E1.56816
G1 F600.000 E0.56816
G92 E0
G1 X-6.882 Y7.266 F7800.000
G1 F600.000 E1.00000
G1 X-6.526 Y7.622 F1440.000 E1.01057
G1 F600.000 E0.01057
G92 E0
G1 X2.394 Y6.840 F7800.000
G1 F600.000 E1.00000
G1 X4.647 Y9.093 F1440.000 E1.06681
G1 X4.087 Y9.342 E1.07965
G1 X2.394 Y7.649 E1.12987
G1 X2.394 Y8.457 E1.14682
G1 X3.528 Y9.591 E1.18045
G1 X2.910 Y9.782 E1.19401
G1 X2.394 Y9.266 E1.20932
M106 S242
G1 F600.000 E0.20932
G92 E0
G1 Z0.600 F7800.000
G1 X3.382 Y10.409
G1 F600.000 E1.00000
G1 X1.650 Y10.777 F2400.000 E1.02721
G1 X1.650 Y6.950 E1.08601
G1 X-1.650 Y6.950 E1.13670
G1 X-1.650 Y10.777 E1.19550
G1 X-3.382 Y10.409 E1.22271
G1 X-5.472 Y9.478 E1.25787
G1 X-7.323 Y8.133 E1.29302
G1 X-8.854 Y6.433 E1.32818
G1 X-9.998 Y4.451 E1.36333
G1 X-10.705 Y2.275 E1.39849
G1 X-10.771 Y1.650 E1.40815
G1 X-6.950 Y1.650 E1.46686
G1 X-6.950 Y-1.650 E1.51755
G1 X-10.771 Y-1.650 E1.57626
G1 X-10.705 Y-2.275 E1.58593
G1 X-9.998 Y-4.451 E1.62108
G1 X-8.854 Y-6.433 E1.65624
G1 X-7.323 Y-8.133 E1.69139
G1 X-5.472 Y-9.478 E1.72655
G1 X-3.539 Y-10.339 E1.75906
G1 X-3.382 Y-10.409 E1.76170
G1 X-1.650 Y-10.777 E1.78891
G1 X-1.650 Y-6.950 E1.84771
G1 X1.650 Y-6.950 E1.89841
G1 X1.650 Y-10.777 E1.95720
G1 X3.382 Y-10.409 E1.98441
G1 X5.472 Y-9.478 E2.01957
G1 X7.323 Y-8.133 E2.05472
G1 X8.854 Y-6.433 E2.08988
G1 X9.998 Y-4.451 E2.12503
G1 X10.705 Y-2.275 E2.16019
G1 X10.771 Y-1.650 E2.16985
G1 X6.950 Y-1.650 E2.22856
G1 X6.950 Y1.650 E2.27926
G1 X10.771 Y1.650 E2.33796
G1 X10.705 Y2.275 E2.34763
G1 X9.998 Y4.451 E2.38278
G1 X8.854 Y6.433 E2.41794
G1 X7.323 Y8.133 E2.45309
G1 X5.472 Y9.478 E2.48825
G1 X3.439 Y10.383 E2.52244
G1 X3.382 Y10.409 E2.52340
G1 X3.512 Y10.809 F7800.000
G1 X1.231 Y11.294 F2400.000 E2.55924
G1 X1.231 Y7.369 E2.61955
G1 X-1.231 Y7.369 E2.65737
G1 X-1.231 Y11.294 E2.71768
G1 X-3.512 Y10.809 E2.75351
G1 X-5.683 Y9.843 E2.79002
G1 X-7.605 Y8.446 E2.82653
G1 X-9.195 Y6.681 E2.86304
G1 X-10.383 Y4.623 E2.89954
G1 X-11.117 Y2.363 E2.93605
G1 X-11.236 Y1.231 E2.95354
G1 X-7.369 Y1.231 E3.01296
G1 X-7.369 Y-1.231 E3.05078
G1 X-11.236 Y-1.231 E3.11020
G1 X-11.117 Y-2.363 E3.12769
G1 X-10.383 Y-4.623 E3.16420
G1 X-9.195 Y-6.681 E3.20071
G1 X-7.605 Y-8.446 E3.23722
G1 X-5.683 Y-9.843 E3.27372
G1 X-3.709 Y-10.722 E3.30691
G1 X-3.512 Y-10.809 E3.31023
G1 X-1.231 Y-11.294 E3.34607
G1 X-1.231 Y-7.369 E3.40638
G1 X1.231 Y-7.369 E3.44420
G1 X1.231 Y-11.294 E3.50451
G1 X3.512 Y-10.809 E3.54034
G1 X5.683 Y-9.843 E3.57685
G1 X7.605 Y-8.446 E3.61336
G1 X9.195 Y-6.681 E3.64987
G1 X10.383 Y-4.623 E3.68637
G1 X11.117 Y-2.363 E3.72288
G1 X11.236 Y-1.231 E3.74037
G1 X7.369 Y-1.231 E3.79979
G1 X7.369 Y1.231 E3.83761
G1 X11.236 Y1.231 E3.89703
G1 X11.117 Y2.363 E3.91452
G1 X10.383 Y4.623 E3.95103
G1 X9.195 Y6.681 E3.98754
G1 X7.605 Y8.446 E4.02405
G1 X5.683 Y9.843 E4.06055
G1 X3.570 Y10.784 E4.09610
G1 X3.512 Y10.809 E4.09706
G1 X3.642 Y11.210 F7800.000
G1 X1.232 Y11.722 F2400.000 E4.13492
G1 X0.812 Y11.722 E4.14138
G1 X0.812 Y7.788 E4.20182
G1 X-0.812 Y7.788 E4.22678
G1 X-0.812 Y11.722 E4.28723
G1 X-1.232 Y11.722 E4.29368
G1 X-3.642 Y11.210 E4.33154
G1 X-5.893 Y10.208 E4.36940
G1 X-7.887 Y8.759 E4.40726
G1 X-9.536 Y6.928 E4.44512
G1 X-10.768 Y4.794 E4.48298
G1 X-11.529 Y2.451 E4.52084
G1 X-11.701 Y0.812 E4.54616
