; generated by Slic3r 0.9.7 on 2013-01-21 at 23:27:49

; layer_height = 0.4
; perimeters = 3
; top_solid_layers = 3
; bottom_solid_layers = 3
; fill_density = 0.4
; perimeter_speed = 30
; infill_speed = 60
; travel_speed = 130
; scale = 1
; nozzle_diameter = 0.5
; filament_diameter = 2.85
; extrusion_multiplier = 1
; perimeters extrusion width = 0.53mm
; infill extrusion width = 0.53mm
; first layer extrusion width = 0.80mm

M190 S60 ; wait for bed temperature to be reached
M104 S220 ; set temperature
G28 ; home all axes
G01X0Y90Z10F30000
M109 S220 ; wait for temperature to be reached
G90 ; use absolute coordinates
G21 ; set units to millimeters
G92 E0
M82 ; use absolute distances for extrusion
G1 F1800.000 E-1.00000
G92 E0
G1 Z0.400 F7800.000
G1 X-14.070 Y6.950
G1 F1800.000 E1.00000
G1 X-14.070 Y-6.950 F360.000 E1.64113
G1 X-13.990 Y-7.980 E1.68878
G1 X-13.820 Y-9.010 E1.73694
G1 X-13.740 Y-9.350 E1.75305
G1 X-13.550 Y-10.010 E1.78473
G1 X-13.330 Y-10.670 E1.81681
G1 X-13.060 Y-11.310 E1.84885
G1 X-12.760 Y-11.930 E1.88062
G1 X-12.230 Y-12.830 E1.92880
G1 X-12.040 Y-13.120 E1.94479
G1 X-11.630 Y-13.670 E1.97643
G1 X-11.190 Y-14.210 E2.00856
G1 X-10.710 Y-14.710 E2.04053
G1 X-10.210 Y-15.190 E2.07250
G1 X-9.670 Y-15.630 E2.10463
G1 X-9.120 Y-16.040 E2.13627
G1 X-8.530 Y-16.420 E2.16864
G1 X-7.930 Y-16.760 E2.20045
G1 X-7.310 Y-17.060 E2.23222
G1 X-6.670 Y-17.330 E2.26426
G1 X-6.010 Y-17.550 E2.29635
G1 X-5.350 Y-17.740 E2.32802
G1 X-5.010 Y-17.820 E2.34414
G1 X-3.980 Y-17.990 E2.39229
G1 X-2.950 Y-18.070 E2.43994
G1 X2.950 Y-18.070 E2.71207
G1 X3.640 Y-18.020 E2.74398
G1 X4.330 Y-17.940 E2.77602
G1 X5.010 Y-17.820 E2.80787
G1 X5.350 Y-17.740 E2.82398
G1 X6.010 Y-17.550 E2.85566
G1 X6.670 Y-17.330 E2.88775
G1 X6.990 Y-17.200 E2.90368
G1 X7.930 Y-16.760 E2.95155
G1 X8.240 Y-16.590 E2.96786
G1 X9.120 Y-16.040 E3.01573
G1 X9.670 Y-15.630 E3.04737
G1 X10.210 Y-15.190 E3.07950
G1 X10.710 Y-14.710 E3.11147
G1 X11.190 Y-14.210 E3.14344
G1 X11.630 Y-13.670 E3.17556
G1 X12.040 Y-13.120 E3.20721
G1 X12.420 Y-12.530 E3.23958
G1 X12.760 Y-11.930 E3.27138
G1 X13.060 Y-11.310 E3.30315
G1 X13.330 Y-10.670 E3.33519
G1 X13.650 Y-9.680 E3.38318
G1 X13.820 Y-9.010 E3.41507
G1 X13.990 Y-7.980 E3.46322
G1 X14.050 Y-7.290 E3.49516
G1 X14.070 Y-6.950 E3.51087
G1 X14.070 Y6.950 E4.15201
G1 X13.990 Y7.980 E4.19966
G1 X13.820 Y9.010 E4.24781
G1 X13.740 Y9.350 E4.26392
G1 X13.550 Y10.010 E4.29560
G1 X13.330 Y10.670 E4.32769
G1 X13.060 Y11.310 E4.35973
G1 X12.760 Y11.930 E4.39150
G1 X12.230 Y12.830 E4.43967
G1 X12.040 Y13.120 E4.45566
G1 X11.630 Y13.670 E4.48730
G1 X11.190 Y14.210 E4.51943
G1 X10.710 Y14.710 E4.55140
G1 X10.210 Y15.190 E4.58337
G1 X9.670 Y15.630 E4.61550
G1 X9.120 Y16.040 E4.64714
G1 X8.530 Y16.420 E4.67951
G1 X7.930 Y16.760 E4.71132
G1 X7.310 Y17.060 E4.74309
G1 X6.670 Y17.330 E4.77513
G1 X6.010 Y17.550 E4.80722
G1 X5.350 Y17.740 E4.83890
G1 X5.010 Y17.820 E4.85501
G1 X3.980 Y17.990 E4.90316
G1 X2.950 Y18.070 E4.95081
G1 X-2.950 Y18.070 E5.22295
G1 X-3.980 Y17.990 E5.27060
G1 X-5.010 Y17.820 E5.31875
G1 X-5.680 Y17.650 E5.35063
G1 X-6.670 Y17.330 E5.39862
G1 X-7.310 Y17.060 E5.43066
G1 X-7.930 Y16.760 E5.46243
G1 X-8.830 Y16.230 E5.51061
G1 X-9.400 Y15.840 E5.54246
G1 X-10.210 Y15.190 E5.59036
G1 X-10.710 Y14.710 E5.62233
G1 X-11.190 Y14.210 E5.65430
G1 X-11.630 Y13.670 E5.68643
G1 X-12.040 Y13.120 E5.71807
G1 X-12.420 Y12.530 E5.75044
G1 X-12.760 Y11.930 E5.78225
G1 X-13.060 Y11.310 E5.81402
G1 X-13.330 Y10.670 E5.84606
G1 X-13.650 Y9.680 E5.89405
G1 X-13.820 Y9.010 E5.92593
G1 X-13.990 Y7.980 E5.97408
G1 X-14.064 Y7.060 E6.01665
G1 X-14.070 Y6.950 E6.02174
G1 X-13.330 Y6.940 F7800.000
G1 X-13.340 Y-6.600 F360.000 E6.64627
G1 X-13.290 Y-7.610 E6.69291
G1 X-13.150 Y-8.610 E6.73948
G1 X-13.080 Y-8.940 E6.75504
G1 X-12.810 Y-9.920 E6.80193
G1 X-12.450 Y-10.860 E6.84836
G1 X-12.170 Y-11.470 E6.87932
G1 X-12.010 Y-11.770 E6.89500
G1 X-11.660 Y-12.350 E6.92624
G1 X-11.290 Y-12.910 E6.95720
G1 X-10.870 Y-13.440 E6.98839
G1 X-10.430 Y-13.950 E7.01946
G1 X-9.950 Y-14.430 E7.05077
G1 X-9.440 Y-14.870 E7.08184
G1 X-8.910 Y-15.290 E7.11303
G1 X-8.350 Y-15.660 E7.14399
G1 X-7.770 Y-16.010 E7.17524
G1 X-7.470 Y-16.170 E7.19092
G1 X-6.550 Y-16.580 E7.23738
G1 X-5.600 Y-16.910 E7.28376
G1 X-4.610 Y-17.150 E7.33075
G1 X-3.610 Y-17.290 E7.37733
G1 X-2.940 Y-17.330 E7.40828
G1 X2.600 Y-17.340 E7.66382
G1 X3.610 Y-17.290 E7.71046
G1 X4.610 Y-17.150 E7.75703
G1 X4.940 Y-17.080 E7.77259
G1 X5.600 Y-16.910 E7.80403
G1 X6.550 Y-16.580 E7.85042
G1 X7.470 Y-16.170 E7.89687
G1 X7.770 Y-16.010 E7.91256
G1 X8.350 Y-15.660 E7.94380
G1 X8.910 Y-15.290 E7.97476
G1 X9.440 Y-14.870 E8.00595
G1 X9.950 Y-14.430 E8.03702
G1 X10.430 Y-13.950 E8.06833
G1 X10.870 Y-13.440 E8.09940
G1 X11.290 Y-12.910 E8.13059
G1 X11.840 Y-12.060 E8.17729
G1 X12.170 Y-11.470 E8.20847
G1 X12.450 Y-10.860 E8.23943
G1 X12.700 Y-10.240 E8.27026
G1 X12.910 Y-9.600 E8.30133
G1 X13.080 Y-8.940 E8.33277
G1 X13.150 Y-8.610 E8.34833
G1 X13.290 Y-7.610 E8.39490
G1 X13.340 Y-6.600 E8.44154
G1 X13.340 Y6.600 E9.05039
G1 X13.290 Y7.610 E9.09703
G1 X13.150 Y8.610 E9.14361
G1 X13.080 Y8.940 E9.15917
G1 X12.810 Y9.920 E9.20605
G1 X12.450 Y10.860 E9.25248
G1 X12.170 Y11.470 E9.28344
G1 X12.010 Y11.770 E9.29912
G1 X11.660 Y12.350 E9.33037
G1 X11.290 Y12.910 E9.36133
G1 X10.870 Y13.440 E9.39252
G1 X10.430 Y13.950 E9.42359
G1 X9.950 Y14.430 E9.45490
G1 X9.440 Y14.870 E9.48597
G1 X8.910 Y15.290 E9.51716
G1 X8.350 Y15.660 E9.54812
G1 X7.770 Y16.010 E9.57936
G1 X7.470 Y16.170 E9.59504
G1 X6.550 Y16.580 E9.64150
G1 X5.600 Y16.910 E9.68789
G1 X4.610 Y17.150 E9.73487
G1 X3.610 Y17.290 E9.78145
G1 X2.940 Y17.330 E9.81241
G1 X-2.600 Y17.340 E10.06794
G1 X-3.610 Y17.290 E10.11458
G1 X-4.610 Y17.150 E10.16116
G1 X-5.270 Y17.000 E10.19238
G1 X-6.240 Y16.700 E10.23921
G1 X-6.860 Y16.450 E10.27004
G1 X-7.470 Y16.170 E10.30100
G1 X-8.060 Y15.840 E10.33218
G1 X-8.630 Y15.480 E10.36328
G1 X-9.180 Y15.080 E10.39465
G1 X-9.950 Y14.430 E10.44112
G1 X-10.430 Y13.950 E10.47243
G1 X-10.870 Y13.440 E10.50350
G1 X-11.290 Y12.910 E10.53469
G1 X-11.840 Y12.060 E10.58139
G1 X-12.170 Y11.470 E10.61257
G1 X-12.450 Y10.860 E10.64353
G1 X-12.700 Y10.240 E10.67437
G1 X-12.910 Y9.600 E10.70543
G1 X-13.150 Y8.610 E10.75242
G1 X-13.290 Y7.610 E10.79899
G1 X-13.323 Y7.050 E10.82486
G1 X-13.330 Y6.940 E10.82995
G1 F1800.000 E9.82995
G92 E0
G1 X-1.129 Y5.129 F7800.000
G1 F1800.000 E1.00000
G1 X-1.129 Y-5.129 F360.000 E1.47313
G1 X1.129 Y-5.129 E1.57725
G1 X1.129 Y5.129 E2.05038
G1 X-1.018 Y5.129 E2.14942
G1 X-1.129 Y5.129 E2.15451
G1 X-1.864 Y5.864 F7800.000
G1 X-1.864 Y-5.864 F360.000 E2.69549
G1 X1.864 Y-5.864 E2.86748
G1 X1.864 Y5.864 E3.40846
G1 X-1.754 Y5.864 E3.57536
G1 X-1.864 Y5.864 E3.58045
G1 X-2.600 Y6.600 F7800.000
G1 X-2.600 Y-6.600 F360.000 E4.18930
G1 X2.600 Y-6.600 E4.42915
G1 X2.600 Y6.600 E5.03799
G1 X-2.490 Y6.600 E5.27275
G1 X-2.600 Y6.600 E5.27784
G1 F1800.000 E4.27784
G92 E0
G1 X-0.159 Y4.627 F7800.000
G1 F1800.000 E1.00000
G1 X-0.627 Y4.159 F720.000 E1.03124
G1 X-0.627 Y3.095 E1.08139
G1 X0.627 Y4.350 E1.16507
G1 X0.627 Y3.286 E1.21523
G1 X-0.627 Y2.032 E1.29890
G1 X-0.627 Y0.968 E1.34906
G1 X0.627 Y2.223 E1.43273
G1 X0.627 Y1.159 E1.48289
G1 X-0.627 Y-0.096 E1.56657
G1 X-0.627 Y-1.159 E1.61673
G1 X0.627 Y0.095 E1.70040
G1 X0.627 Y-0.968 E1.75056
G1 X-0.627 Y-2.223 E1.83423
G1 X-0.627 Y-3.286 E1.88439
G1 X0.627 Y-2.032 E1.96806
G1 X0.627 Y-3.095 E2.01822
G1 X-0.627 Y-4.350 E2.10189
G1 X0.159 Y-4.627 E2.14121
G1 X0.627 Y-4.159 E2.17244
G1 F1800.000 E1.17244
G92 E0
G1 Z0.800 F7800.000
G1 X1.698 Y5.698
G1 F1800.000 E1.00000
G1 X-1.698 Y5.698 F1800.000 E1.11066
G1 X-1.698 Y-5.698 E1.48198
G1 X1.698 Y-5.698 E1.59265
G1 X1.698 Y5.620 E1.96143
G1 X1.698 Y5.698 E1.96397
G1 X2.218 Y6.218 F7800.000
G1 X-2.218 Y6.218 F1800.000 E2.10849
G1 X-2.218 Y-6.218 E2.51368
G1 X2.218 Y-6.218 E2.65820
G1 X2.218 Y6.140 E3.06084
G1 X2.218 Y6.218 E3.06338
G1 X2.737 Y6.737 F7800.000
G1 X-2.737 Y6.737 F1800.000 E3.24177
G1 X-2.737 Y-6.737 E3.68081
G1 X2.737 Y-6.737 E3.85920
G1 X2.737 Y6.660 E4.29570
G1 X2.737 Y6.737 E4.29824
G1 F1800.000 E3.29824
G92 E0
G1 X1.344 Y5.013 F7800.000
G1 F1800.000 E1.00000
G1 X1.013 Y5.344 F3600.000 E1.01552
G1 X0.265 Y5.344 E1.04032
G1 X1.344 Y4.265 E1.09091
G1 X1.344 Y3.517 E1.11571
G1 X-0.483 Y5.344 E1.20137
G1 X-1.231 Y5.344 E1.22618
G1 X1.344 Y2.769 E1.34691
G1 X1.344 Y2.022 E1.37171
G1 X-1.344 Y4.710 E1.49778
G1 X-1.344 Y3.962 E1.52258
G1 X1.344 Y1.274 E1.64864
G1 X1.344 Y0.526 E1.67344
G1 X-1.344 Y3.214 E1.79950
G1 X-1.344 Y2.466 E1.82430
G1 X1.344 Y-0.222 E1.95036
G1 X1.344 Y-0.970 E1.97516
G1 X-1.344 Y1.718 E2.10123
G1 X-1.344 Y0.970 E2.12603
G1 X1.344 Y-1.718 E2.25209
G1 X1.344 Y-2.466 E2.27689
G1 X-1.344 Y0.222 E2.40295
G1 X-1.344 Y-0.526 E2.42775
G1 X1.344 Y-3.214 E2.55381
G1 X1.344 Y-3.962 E2.57861
G1 X-1.344 Y-1.274 E2.70467
G1 X-1.344 Y-2.022 E2.72947
G1 X1.344 Y-4.710 E2.85553
G1 X1.231 Y-5.344 E2.87690
G1 X-1.344 Y-2.769 E2.99764
G1 X-1.344 Y-3.517 E3.02244
G1 X0.483 Y-5.344 E3.10810
G1 X-0.265 Y-5.344 E3.13290
G1 X-1.344 Y-4.265 E3.18349
G1 X-1.344 Y-5.013 E3.20829
G1 X-1.013 Y-5.344 E3.22381
G1 F1800.000 E2.22381
G92 E0
G1 Z1.200 F7800.000
G1 X1.698 Y5.698
G1 F1800.000 E1.00000
G1 X-1.698 Y5.698 F1800.000 E1.11066
G1 X-1.698 Y-5.698 E1.48198
G1 X1.698 Y-5.698 E1.59265
G1 X1.698 Y5.620 E1.96143
G1 X1.698 Y5.698 E1.96397
G1 X2.218 Y6.218 F7800.000
G1 X-2.218 Y6.218 F1800.000 E2.10849
G1 X-2.218 Y-6.218 E2.51368
G1 X2.218 Y-6.218 E2.65820
G1 X2.218 Y6.140 E3.06084
G1 X2.218 Y6.218 E3.06338
G1 X2.737 Y6.737 F7800.000
G1 X-2.737 Y6.737 F1800.000 E3.24177
G1 X-2.737 Y-6.737 E3.68081
G1 X2.737 Y-6.737 E3.85920
G1 X2.737 Y6.660 E4.29570
G1 X2.737 Y6.737 E4.29824
G1 F1800.000 E3.29824
G92 E0
G1 X-1.013 Y5.344 F7800.000
G1 F1800.000 E1.00000
G1 X-1.344 Y5.013 F3600.000 E1.01552
G1 X-1.344 Y4.265 E1.04032
G1 X-0.265 Y5.344 E1.09091
G1 X0.483 Y5.344 E1.11571
G1 X-1.344 Y3.517 E1.20137
G1 X-1.344 Y2.769 E1.22617
G1 X1.231 Y5.344 E1.34691
G1 X1.344 Y4.710 E1.36828
G1 X-1.344 Y2.022 E1.49434
G1 X-1.344 Y1.274 E1.51914
G1 X1.344 Y3.962 E1.64520
G1 X1.344 Y3.214 E1.67001
G1 X-1.344 Y0.526 E1.79607
G1 X-1.344 Y-0.222 E1.82087
G1 X1.344 Y2.466 E1.94693
G1 X1.344 Y1.718 E1.97173
G1 X-1.344 Y-0.970 E2.09779
G1 X-1.344 Y-1.718 E2.12259
G1 X1.344 Y0.970 E2.24865
G1 X1.344 Y0.222 E2.27345
G1 X-1.344 Y-2.466 E2.39951
G1 X-1.344 Y-3.214 E2.42431
G1 X1.344 Y-0.526 E2.55037
G1 X1.344 Y-1.274 E2.57517
G1 X-1.344 Y-3.962 E2.70123
G1 X-1.344 Y-4.710 E2.72603
G1 X1.344 Y-2.022 E2.85210
G1 X1.344 Y-2.769 E2.87690
G1 X-1.231 Y-5.344 E2.99764
G1 X-0.483 Y-5.344 E3.02244
G1 X1.344 Y-3.517 E3.10810
G1 X1.344 Y-4.265 E3.13290
G1 X0.265 Y-5.344 E3.18349
G1 X1.013 Y-5.344 E3.20829
G1 X1.344 Y-5.013 E3.22381
G1 F1800.000 E2.22381
G92 E0
G1 Z1.600 F7800.000
G1 X1.698 Y5.698
G1 F1800.000 E1.00000
G1 X-1.698 Y5.698 F1800.000 E1.11066
G1 X-1.698 Y-5.698 E1.48198
G1 X1.698 Y-5.698 E1.59265
G1 X1.698 Y5.620 E1.96143
G1 X1.698 Y5.698 E1.96397
G1 X2.218 Y6.218 F7800.000
G1 X-2.218 Y6.218 F1800.000 E2.10849
G1 X-2.218 Y-6.218 E2.51368
G1 X2.218 Y-6.218 E2.65820
G1 X2.218 Y6.140 E3.06084
G1 X2.218 Y6.218 E3.06338
G1 X2.737 Y6.737 F7800.000
G1 X-2.737 Y6.737 F1800.000 E3.24177
G1 X-2.737 Y-6.737 E3.68081
G1 X2.737 Y-6.737 E3.85920
G1 X2.737 Y6.660 E4.29570
G1 X2.737 Y6.737 E4.29824
G1 F1800.000 E3.29824
G92 E0
G1 X1.344 Y5.013 F7800.000
G1 F1800.000 E1.00000
G1 X1.013 Y5.344 F3600.000 E1.01552
G1 X0.265 Y5.344 E1.04032
G1 X1.344 Y4.265 E1.09091
G1 X1.344 Y3.517 E1.11571
G1 X-0.483 Y5.344 E1.20137
G1 X-1.231 Y5.344 E1.22617
G1 X1.344 Y2.769 E1.34691
G1 X1.344 Y2.022 E1.37171
G1 X-1.344 Y4.710 E1.49777
G1 X-1.344 Y3.962 E1.52257
G1 X1.344 Y1.274 E1.64863
G1 X1.344 Y0.526 E1.67343
G1 X-1.344 Y3.214 E1.79949
G1 X-1.344 Y2.466 E1.82429
G1 X1.344 Y-0.222 E1.95035
G1 X1.344 Y-0.970 E1.97515
G1 X-1.344 Y1.718 E2.10121
G1 X-1.344 Y0.970 E2.12601
G1 X1.344 Y-1.718 E2.25207
G1 X1.344 Y-2.466 E2.27687
G1 X-1.344 Y0.222 E2.40293
G1 X-1.344 Y-0.526 E2.42773
G1 X1.344 Y-3.214 E2.55379
G1 X1.344 Y-3.962 E2.57859
G1 X-1.344 Y-1.274 E2.70464
G1 X-1.344 Y-2.022 E2.72944
G1 X1.344 Y-4.710 E2.85550
G1 X1.231 Y-5.344 E2.87687
G1 X-1.344 Y-2.769 E2.99761
G1 X-1.344 Y-3.517 E3.02241
G1 X0.483 Y-5.344 E3.10807
G1 X-0.265 Y-5.344 E3.13287
G1 X-1.344 Y-4.265 E3.18346
G1 X-1.344 Y-5.013 E3.20826
G1 X-1.013 Y-5.344 E3.22378
G1 F1800.000 E2.22378
G92 E0
G1 Z2.000 F7800.000
G1 X1.698 Y5.698
G1 F1800.000 E1.00000
G1 X-1.698 Y5.698 F1800.000 E1.11066
G1 X-1.698 Y-5.698 E1.48198
G1 X1.698 Y-5.698 E1.59265
G1 X1.698 Y5.620 E1.96143
G1 X1.698 Y5.698 E1.96397
G1 X2.218 Y6.218 F7800.000
G1 X-2.218 Y6.218 F1800.000 E2.10849
G1 X-2.218 Y-6.218 E2.51368
G1 X2.218 Y-6.218 E2.65820
G1 X2.218 Y6.140 E3.06084
G1 X2.218 Y6.218 E3.06338
G1 X2.737 Y6.737 F7800.000
G1 X-2.737 Y6.737 F1800.000 E3.24177
G1 X-2.737 Y-6.737 E3.68081
G1 X2.737 Y-6.737 E3.85920
G1 X2.737 Y6.660 E4.29570
G1 X2.737 Y6.737 E4.29824
G1 F1800.000 E3.29824
G92 E0
G1 X-1.013 Y5.344 F7800.000
G1 F1800.000 E1.00000
G1 X-1.344 Y5.013 F3600.000 E1.01552
G1 X-1.344 Y4.265 E1.04032
G1 X-0.265 Y5.344 E1.09091
G1 X0.483 Y5.344 E1.11571
G1 X-1.344 Y3.517 E1.20137
G1 X-1.344 Y2.769 E1.22617
G1 X1.231 Y5.344 E1.34691
G1 X1.344 Y4.710 E1.36828
G1 X-1.344 Y2.022 E1.49434
G1 X-1.344 Y1.274 E1.51914
G1 X1.344 Y3.962 E1.64520
G1 X1.344 Y3.214 E1.67000
G1 X-1.344 Y0.526 E1.79606
G1 X-1.344 Y-0.222 E1.82086
G1 X1.344 Y2.466 E1.94692
G1 X1.344 Y1.718 E1.97172
G1 X-1.344 Y-0.970 E2.09778
G1 X-1.344 Y-1.718 E2.12258
G1 X1.344 Y0.970 E2.24864
G1 X1.344 Y0.222 E2.27345
G1 X-1.344 Y-2.466 E2.39951
G1 X-1.344 Y-3.214 E2.42431
G1 X1.344 Y-0.526 E2.55037
G1 X1.344 Y-1.274 E2.57517
G1 X-1.344 Y-3.962 E2.70123
G1 X-1.344 Y-4.710 E2.72603
G1 X1.344 Y-2.022 E2.85209
G1 X1.344 Y-2.769 E2.87689
G1 X-1.231 Y-5.344 E2.99763
G1 X-0.483 Y-5.344 E3.02243
G1 X1.344 Y-3.517 E3.10809
G1 X1.344 Y-4.265 E3.13289
G1 X0.265 Y-5.344 E3.18348
G1 X1.013 Y-5.344 E3.20828
G1 X1.344 Y-5.013 E3.22379
G1 F1800.000 E2.22379
G92 E0
G1 Z2.400 F7800.000
G1 X1.698 Y5.698
G1 F1800.000 E1.00000
G1 X-1.698 Y5.698 F1800.000 E1.11066
G1 X-1.698 Y-5.698 E1.48198
G1 X1.698 Y-5.698 E1.59265
G1 X1.698 Y5.620 E1.96143
G1 X1.698 Y5.698 E1.96397
G1 X2.218 Y6.218 F7800.000
G1 X-2.218 Y6.218 F1800.000 E2.10849
G1 X-2.218 Y-6.218 E2.51368
G1 X2.218 Y-6.218 E2.65820
G1 X2.218 Y6.140 E3.06084
G1 X2.218 Y6.218 E3.06338
G1 X2.737 Y6.737 F7800.000
G1 X-2.737 Y6.737 F1800.000 E3.24177
G1 X-2.737 Y-6.737 E3.68081
G1 X2.737 Y-6.737 E3.85920
G1 X2.737 Y6.660 E4.29570
G1 X2.737 Y6.737 E4.29824
G1 F1800.000 E3.29824
G92 E0
G1 X1.344 Y5.013 F7800.000
G1 F1800.000 E1.00000
G1 X1.013 Y5.344 F3600.000 E1.01552
G1 X0.265 Y5.344 E1.04032
G1 X1.344 Y4.265 E1.09091
G1 X1.344 Y3.517 E1.11571
G1 X-0.483 Y5.344 E1.20137
G1 X-1.231 Y5.344 E1.22617
G1 X1.344 Y2.769 E1.34691
G1 X1.344 Y2.022 E1.37171
G1 X-1.344 Y4.710 E1.49777
G1 X-1.344 Y3.962 E1.52257
G1 X1.344 Y1.274 E1.64863
G1 X1.344 Y0.526 E1.67343
G1 X-1.344 Y3.214 E1.79949
G1 X-1.344 Y2.466 E1.82429
G1 X1.344 Y-0.222 E1.95035
G1 X1.344 Y-0.970 E1.97515
G1 X-1.344 Y1.718 E2.10121
G1 X-1.344 Y0.970 E2.12601
G1 X1.344 Y-1.718 E2.25207
G1 X1.344 Y-2.466 E2.27687
G1 X-1.344 Y0.222 E2.40293
G1 X-1.344 Y-0.526 E2.42773
G1 X1.344 Y-3.214 E2.55379
G1 X1.344 Y-3.962 E2.57859
G1 X-1.344 Y-1.274 E2.70464
G1 X-1.344 Y-2.022 E2.72944
G1 X1.344 Y-4.710 E2.85550
G1 X1.231 Y-5.344 E2.87687
G1 X-1.344 Y-2.769 E2.99761
G1 X-1.344 Y-3.517 E3.02241
G1 X0.483 Y-5.344 E3.10807
G1 X-0.265 Y-5.344 E3.13287
G1 X-1.344 Y-4.265 E3.18346
G1 X-1.344 Y-5.013 E3.20826
G1 X-1.013 Y-5.344 E3.22378
G1 F1800.000 E2.22378
G92 E0
G1 Z2.800 F7800.000
G1 X1.698 Y5.698
G1 F1800.000 E1.00000
G1 X-1.698 Y5.698 F1800.000 E1.11066
G1 X-1.698 Y-5.698 E1.48198
G1 X1.698 Y-5.698 E1.59265
G1 X1.698 Y5.620 E1.96143
G1 X1.698 Y5.698 E1.96397
G1 X2.218 Y6.218 F7800.000
G1 X-2.218 Y6.218 F1800.000 E2.10849
G1 X-2.218 Y-6.218 E2.51368
G1 X2.218 Y-6.218 E2.65820
G1 X2.218 Y6.140 E3.06084
G1 X2.218 Y6.218 E3.06338
G1 X2.737 Y6.737 F7800.000
G1 X-2.737 Y6.737 F1800.000 E3.24177
