; generated by Slic3r 0.9.7 on 2013-01-22 at 00:05:08

; layer_height = 0.4
; perimeters = 3
; top_solid_layers = 3
; bottom_solid_layers = 3
; fill_density = 0.4
; perimeter_speed = 30
; infill_speed = 60
; travel_speed = 130
; scale = 1
; nozzle_diameter = 0.5
; filament_diameter = 2.85
; extrusion_multiplier = 1
; perimeters extrusion width = 0.53mm
; infill extrusion width = 0.53mm
; first layer extrusion width = 0.80mm

M190 S60 ; wait for bed temperature to be reached
M104 S220 ; set temperature
G28 ; home all axes
G01X0Y90Z10F30000
M109 S220 ; wait for temperature to be reached
G90 ; use absolute coordinates
G21 ; set units to millimeters
G92 E0
M82 ; use absolute distances for extrusion
G1 F1800.000 E-1.00000
G92 E0
G1 Z0.400 F7800.000
G1 X-21.000 Y-5.640
G1 F1800.000 E1.00000
G1 X-20.990 Y-9.400 F360.000 E1.17343
G1 X-20.970 Y-9.810 E1.19236
G1 X-20.880 Y-10.630 E1.23041
G1 X-20.730 Y-11.450 E1.26886
G1 X-20.640 Y-11.850 E1.28777
G1 X-20.280 Y-13.060 E1.34600
G1 X-20.040 Y-13.720 E1.37839
G1 X-19.760 Y-14.360 E1.41062
G1 X-19.440 Y-14.980 E1.44280
G1 X-19.270 Y-15.290 E1.45911
G1 X-18.890 Y-15.880 E1.49147
G1 X-18.480 Y-16.450 E1.52386
G1 X-18.040 Y-16.990 E1.55599
G1 X-17.310 Y-17.750 E1.60460
G1 X-16.520 Y-18.440 E1.65298
G1 X-15.960 Y-18.860 E1.68526
G1 X-15.370 Y-19.240 E1.71763
G1 X-14.760 Y-19.590 E1.75007
G1 X-14.450 Y-19.740 E1.76596
G1 X-13.810 Y-20.030 E1.79837
G1 X-13.160 Y-20.280 E1.83049
G1 X-12.150 Y-20.580 E1.87908
G1 X-11.470 Y-20.730 E1.91120
G1 X-10.780 Y-20.840 E1.94343
G1 X-9.730 Y-20.920 E1.99200
G1 X9.780 Y-20.900 E2.89190
G1 X10.810 Y-20.820 E2.93955
G1 X11.500 Y-20.710 E2.97178
G1 X12.180 Y-20.570 E3.00380
G1 X13.170 Y-20.270 E3.05151
G1 X14.140 Y-19.890 E3.09956
G1 X14.760 Y-19.580 E3.13154
G1 X15.060 Y-19.420 E3.14722
G1 X15.650 Y-19.060 E3.17910
G1 X16.220 Y-18.670 E3.21095
G1 X16.770 Y-18.240 E3.24316
G1 X17.540 Y-17.540 E3.29115
G1 X18.240 Y-16.770 E3.33915
G1 X18.660 Y-16.220 E3.37107
G1 X19.060 Y-15.650 E3.40319
G1 X19.580 Y-14.760 E3.45074
G1 X19.740 Y-14.450 E3.46683
G1 X20.150 Y-13.500 E3.51455
G1 X20.470 Y-12.510 E3.56254
G1 X20.640 Y-11.840 E3.59442
G1 X20.810 Y-10.810 E3.64258
G1 X20.890 Y-9.780 E3.69023
G1 X20.890 Y9.770 E4.59197
G1 X20.810 Y10.800 E4.63962
G1 X20.760 Y11.150 E4.65592
G1 X20.640 Y11.830 E4.68777
G1 X20.370 Y12.830 E4.73555
G1 X20.150 Y13.490 E4.76764
G1 X19.880 Y14.130 E4.79968
G1 X19.580 Y14.750 E4.83145
G1 X19.050 Y15.650 E4.87962
G1 X18.660 Y16.220 E4.91148
G1 X18.010 Y17.030 E4.95938
G1 X17.530 Y17.530 E4.99135
G1 X17.030 Y18.010 E5.02332
G1 X16.220 Y18.660 E5.07122
G1 X15.650 Y19.050 E5.10308
G1 X14.750 Y19.580 E5.15126
G1 X14.130 Y19.880 E5.18302
G1 X13.490 Y20.150 E5.21506
G1 X12.500 Y20.470 E5.26305
G1 X11.830 Y20.640 E5.29494
G1 X10.800 Y20.810 E5.34309
G1 X9.770 Y20.890 E5.39074
G1 X-9.780 Y20.890 E6.29248
G1 X-10.830 Y20.810 E6.34105
G1 X-11.530 Y20.700 E6.37373
G1 X-12.560 Y20.460 E6.42251
G1 X-13.230 Y20.240 E6.45504
G1 X-13.880 Y19.990 E6.48716
G1 X-14.210 Y19.850 E6.50370
G1 X-14.840 Y19.540 E6.53608
G1 X-15.450 Y19.190 E6.56852
G1 X-16.030 Y18.800 E6.60076
G1 X-16.600 Y18.380 E6.63342
G1 X-17.390 Y17.680 E6.68210
G1 X-17.880 Y17.180 E6.71439
G1 X-18.560 Y16.370 E6.76317
G1 X-18.770 Y16.090 E6.77932
G1 X-19.160 Y15.500 E6.81194
G1 X-19.670 Y14.580 E6.86046
G1 X-20.110 Y13.620 E6.90917
G1 X-20.450 Y12.620 E6.95788
G1 X-20.690 Y11.590 E7.00666
G1 X-20.810 Y10.900 E7.03897
G1 X-20.850 Y10.550 E7.05522
G1 X-20.900 Y9.500 E7.10370
G1 X-20.999 Y-5.530 E7.79696
G1 X-21.000 Y-5.640 E7.80205
G1 X-20.270 Y-5.650 F7800.000
G1 X-20.260 Y-9.370 F360.000 E7.97363
G1 X-20.200 Y-10.140 E8.00925
G1 X-20.090 Y-10.910 E8.04513
G1 X-19.820 Y-12.040 E8.09872
G1 X-19.580 Y-12.840 E8.13724
G1 X-19.350 Y-13.470 E8.16818
G1 X-19.080 Y-14.080 E8.19895
G1 X-18.770 Y-14.680 E8.23010
G1 X-18.240 Y-15.530 E8.27630
G1 X-17.630 Y-16.330 E8.32270
G1 X-16.950 Y-17.080 E8.36940
G1 X-16.460 Y-17.530 E8.40009
G1 X-15.940 Y-17.960 E8.43121
G1 X-15.390 Y-18.350 E8.46231
G1 X-14.820 Y-18.710 E8.49340
G1 X-13.930 Y-19.180 E8.53983
G1 X-13.310 Y-19.440 E8.57084
G1 X-12.680 Y-19.670 E8.60177
G1 X-12.360 Y-19.770 E8.61723
G1 X-11.380 Y-20.000 E8.66367
G1 X-11.050 Y-20.060 E8.67914
G1 X-10.380 Y-20.140 E8.71026
G1 X-10.050 Y-20.170 E8.72554
G1 X-9.380 Y-20.190 E8.75646
G1 X9.430 Y-20.170 E9.62407
G1 X10.440 Y-20.120 E9.67071
G1 X11.110 Y-20.030 E9.70189
G1 X12.100 Y-19.830 E9.74848
G1 X12.750 Y-19.640 E9.77971
G1 X13.380 Y-19.410 E9.81065
G1 X14.300 Y-18.990 E9.85729
G1 X14.890 Y-18.670 E9.88825
G1 X15.460 Y-18.310 E9.91935
G1 X15.740 Y-18.110 E9.93522
G1 X16.270 Y-17.700 E9.96613
G1 X17.020 Y-17.020 E10.01282
G1 X17.480 Y-16.530 E10.04382
G1 X18.110 Y-15.740 E10.09043
G1 X18.490 Y-15.180 E10.12164
G1 X18.990 Y-14.300 E10.16833
G1 X19.140 Y-14.000 E10.18380
G1 X19.400 Y-13.380 E10.21481
G1 X19.630 Y-12.750 E10.24574
G1 X19.820 Y-12.100 E10.27698
G1 X19.970 Y-11.440 E10.30820
G1 X20.110 Y-10.440 E10.35477
G1 X20.160 Y-9.430 E10.40141
G1 X20.160 Y9.420 E11.27087
G1 X20.110 Y10.430 E11.31751
G1 X19.970 Y11.430 E11.36408
G1 X19.820 Y12.090 E11.39530
G1 X19.630 Y12.740 E11.42654
G1 X19.400 Y13.370 E11.45747
G1 X18.990 Y14.290 E11.50393
G1 X18.660 Y14.880 E11.53511
G1 X18.110 Y15.730 E11.58181
G1 X17.690 Y16.260 E11.61300
G1 X17.250 Y16.770 E11.64407
G1 X16.770 Y17.250 E11.67538
G1 X16.000 Y17.900 E11.72186
G1 X15.450 Y18.300 E11.75323
G1 X14.590 Y18.830 E11.79982
G1 X14.290 Y18.990 E11.81550
G1 X13.370 Y19.400 E11.86196
G1 X12.420 Y19.730 E11.90835
G1 X11.760 Y19.900 E11.93978
G1 X11.430 Y19.970 E11.95534
G1 X10.430 Y20.110 E12.00192
G1 X9.420 Y20.160 E12.04856
G1 X-9.430 Y20.160 E12.91801
G1 X-10.440 Y20.110 E12.96465
G1 X-11.430 Y19.970 E13.01077
G1 X-11.760 Y19.900 E13.02633
G1 X-12.410 Y19.730 E13.05732
G1 X-13.050 Y19.530 E13.08825
G1 X-13.370 Y19.410 E13.10401
G1 X-14.280 Y19.000 E13.15005
G1 X-15.160 Y18.500 E13.19673
G1 X-15.720 Y18.120 E13.22795
G1 X-16.250 Y17.710 E13.25886
G1 X-17.000 Y17.040 E13.30524
G1 X-17.460 Y16.550 E13.33624
G1 X-18.090 Y15.760 E13.38285
G1 X-18.650 Y14.930 E13.42903
G1 X-19.120 Y14.040 E13.47546
G1 X-19.510 Y13.110 E13.52197
G1 X-19.810 Y12.150 E13.56836
G1 X-20.020 Y11.160 E13.61504
G1 X-20.110 Y10.500 E13.64577
G1 X-20.170 Y9.490 E13.69243
G1 X-20.269 Y-5.540 E14.38569
G1 X-20.270 Y-5.650 E14.39078
G1 F1800.000 E13.39078
G92 E0
G1 X-9.521 Y-5.714 F7800.000
G1 F1800.000 E1.00000
G1 X-9.521 Y-8.980 F360.000 E1.15061
G1 X-9.388 Y-9.446 E1.17296
G1 X9.424 Y-9.424 E2.04066
G1 X9.424 Y9.424 E2.91003
G1 X-9.424 Y9.424 E3.77940
G1 X-9.521 Y-5.714 E4.47767
G1 F1800.000 E3.47767
G92 E0
G1 Z0.800 F7800.000
G1 X8.052 Y9.504
G1 F1800.000 E1.00000
G1 X9.351 Y9.447 F1800.000 E1.04236
G1 X9.504 Y9.091 E1.05499
G1 X9.504 Y-9.091 E1.64739
G1 X9.416 Y-9.416 E1.65836
G1 X9.091 Y-9.504 E1.66933
G1 X-9.091 Y-9.504 E2.26173
G1 X-9.416 Y-9.416 E2.27270
G1 X-9.610 Y-9.610 E2.28167
G1 X-9.745 Y-10.112 F7800.000
G1 F1800.000 E1.28167
G92 E0
G1 X-9.503 Y-5.455 F7800.000
G1 F1800.000 E1.00000
G1 X-9.504 Y-9.091 F1800.000 E1.11848
G1 X-9.416 Y-9.416 E1.12945
G1 X-9.047 Y-9.781 F7800.000
G1 F1800.000 E0.12945
G92 E0
G1 X-9.503 Y-5.455 F7800.000
G1 F1800.000 E1.00000
G1 X-9.503 Y-5.195 F1800.000 E1.00846
G1 X-9.501 Y2.338 E1.25389
G1 X-9.502 Y4.416 E1.32159
G1 X-9.504 Y9.091 E1.47392
G1 X-9.416 Y9.416 E1.48489
G1 X-9.091 Y9.504 E1.49586
G1 X0.519 Y9.500 E1.80899
G1 X8.052 Y9.504 E2.05441
G1 X9.416 Y9.416 F7800.000
G1 X9.610 Y9.610 F1800.000 E2.06338
G1 X9.745 Y10.112 F7800.000
G1 F1800.000 E1.06338
G92 E0
G1 X9.416 Y-9.416 F7800.000
G1 F1800.000 E1.00000
G1 X9.610 Y-9.610 F1800.000 E1.00897
G1 X9.610 Y-9.610
G1 X9.610 Y-9.610 F7800.000
G1 F1800.000 E0.00897
G92 E0
G1 X-9.610 Y9.610 F7800.000
G1 F1800.000 E1.00000
G1 X-9.416 Y9.416 F1800.000 E1.00897
G1 F1800.000 E0.00897
G92 E0
G1 Z1.200 F7800.000
G1 X8.052 Y9.504
G1 F1800.000 E1.00000
G1 X9.351 Y9.447 F1800.000 E1.04236
G1 X9.504 Y9.091 E1.05499
G1 X9.504 Y-9.091 E1.64739
G1 X9.416 Y-9.416 E1.65836
G1 X9.091 Y-9.504 E1.66933
G1 X-9.091 Y-9.504 E2.26173
G1 X-9.416 Y-9.416 E2.27270
G1 X-9.610 Y-9.610 E2.28167
G1 X-9.745 Y-10.112 F7800.000
G1 F1800.000 E1.28167
G92 E0
G1 X-9.503 Y-5.455 F7800.000
G1 F1800.000 E1.00000
G1 X-9.504 Y-9.091 F1800.000 E1.11848
G1 X-9.416 Y-9.416 E1.12945
G1 X-9.047 Y-9.781 F7800.000
G1 F1800.000 E0.12945
G92 E0
G1 X-9.503 Y-5.455 F7800.000
G1 F1800.000 E1.00000
G1 X-9.503 Y-5.195 F1800.000 E1.00846
G1 X-9.501 Y2.338 E1.25389
G1 X-9.502 Y4.416 E1.32159
G1 X-9.504 Y9.091 E1.47392
G1 X-9.416 Y9.416 E1.48489
G1 X-9.091 Y9.504 E1.49586
G1 X0.519 Y9.500 E1.80899
G1 X8.052 Y9.504 E2.05441
G1 X9.416 Y9.416 F7800.000
G1 X9.610 Y9.610 F1800.000 E2.06338
G1 X9.745 Y10.112 F7800.000
G1 F1800.000 E1.06338
G92 E0
G1 X9.416 Y-9.416 F7800.000
G1 F1800.000 E1.00000
G1 X9.610 Y-9.610 F1800.000 E1.00897
G1 X9.610 Y-9.610
G1 X9.610 Y-9.610 F7800.000
G1 F1800.000 E0.00897
G92 E0
G1 X-9.610 Y9.610 F7800.000
G1 F1800.000 E1.00000
G1 X-9.416 Y9.416 F1800.000 E1.00897
G1 F1800.000 E0.00897
G92 E0
G1 Z1.600 F7800.000
G1 X8.052 Y9.504
G1 F1800.000 E1.00000
G1 X9.351 Y9.447 F1800.000 E1.04236
G1 X9.504 Y9.091 E1.05499
G1 X9.504 Y-9.091 E1.64739
G1 X9.416 Y-9.416 E1.65836
G1 X9.091 Y-9.504 E1.66933
G1 X-9.091 Y-9.504 E2.26173
G1 X-9.416 Y-9.416 E2.27270
G1 X-9.610 Y-9.610 E2.28167
G1 X-9.745 Y-10.112 F7800.000
G1 F1800.000 E1.28167
G92 E0
G1 X-9.503 Y-5.455 F7800.000
G1 F1800.000 E1.00000
G1 X-9.504 Y-9.091 F1800.000 E1.11848
G1 X-9.416 Y-9.416 E1.12945
G1 X-9.047 Y-9.781 F7800.000
G1 F1800.000 E0.12945
G92 E0
G1 X-9.503 Y-5.455 F7800.000
G1 F1800.000 E1.00000
G1 X-9.503 Y-5.195 F1800.000 E1.00846
G1 X-9.501 Y2.338 E1.25389
G1 X-9.502 Y4.416 E1.32159
G1 X-9.504 Y9.091 E1.47392
G1 X-9.416 Y9.416 E1.48489
G1 X-9.091 Y9.504 E1.49586
G1 X0.519 Y9.500 E1.80899
G1 X8.052 Y9.504 E2.05441
G1 X9.416 Y9.416 F7800.000
G1 X9.610 Y9.610 F1800.000 E2.06338
G1 X9.745 Y10.112 F7800.000
G1 F1800.000 E1.06338
G92 E0
G1 X9.416 Y-9.416 F7800.000
G1 F1800.000 E1.00000
G1 X9.610 Y-9.610 F1800.000 E1.00897
G1 X9.610 Y-9.610
G1 X9.610 Y-9.610 F7800.000
G1 F1800.000 E0.00897
G92 E0
G1 X-9.610 Y9.610 F7800.000
G1 F1800.000 E1.00000
G1 X-9.416 Y9.416 F1800.000 E1.00897
G1 F1800.000 E0.00897
G92 E0
G1 Z2.000 F7800.000
G1 X8.052 Y9.504
G1 F1800.000 E1.00000
G1 X9.351 Y9.447 F1800.000 E1.04236
G1 X9.504 Y9.091 E1.05499
G1 X9.504 Y-9.091 E1.64739
G1 X9.416 Y-9.416 E1.65836
G1 X9.091 Y-9.504 E1.66933
G1 X-9.091 Y-9.504 E2.26173
G1 X-9.416 Y-9.416 E2.27270
G1 X-9.610 Y-9.610 E2.28167
G1 X-9.745 Y-10.112 F7800.000
G1 F1800.000 E1.28167
G92 E0
G1 X-9.503 Y-5.455 F7800.000
G1 F1800.000 E1.00000
G1 X-9.504 Y-9.091 F1800.000 E1.11848
G1 X-9.416 Y-9.416 E1.12945
G1 X-9.047 Y-9.781 F7800.000
G1 F1800.000 E0.12945
G92 E0
G1 X-9.503 Y-5.455 F7800.000
G1 F1800.000 E1.00000
G1 X-9.503 Y-5.195 F1800.000 E1.00846
G1 X-9.501 Y2.338 E1.25389
G1 X-9.502 Y4.416 E1.32159
G1 X-9.504 Y9.091 E1.47392
G1 X-9.416 Y9.416 E1.48489
G1 X-9.091 Y9.504 E1.49586
G1 X0.519 Y9.500 E1.80899
G1 X8.052 Y9.504 E2.05441
G1 X9.416 Y9.416 F7800.000
G1 X9.610 Y9.610 F1800.000 E2.06338
G1 X9.745 Y10.112 F7800.000
G1 F1800.000 E1.06338
G92 E0
G1 X9.416 Y-9.416 F7800.000
G1 F1800.000 E1.00000
G1 X9.610 Y-9.610 F1800.000 E1.00897
G1 X9.610 Y-9.610
G1 X9.610 Y-9.610 F7800.000
G1 F1800.000 E0.00897
G92 E0
G1 X-9.610 Y9.610 F7800.000
G1 F1800.000 E1.00000
G1 X-9.416 Y9.416 F1800.000 E1.00897
G1 F1800.000 E0.00897
G92 E0
G1 Z2.400 F7800.000
G1 X8.052 Y9.504
G1 F1800.000 E1.00000
G1 X9.351 Y9.447 F1800.000 E1.04236
G1 X9.504 Y9.091 E1.05499
G1 X9.504 Y-9.091 E1.64739
G1 X9.416 Y-9.416 E1.65836
G1 X9.091 Y-9.504 E1.66933
G1 X-9.091 Y-9.504 E2.26173
G1 X-9.416 Y-9.416 E2.27270
G1 X-9.610 Y-9.610 E2.28167
G1 X-9.745 Y-10.112 F7800.000
G1 F1800.000 E1.28167
G92 E0
G1 X-9.503 Y-5.455 F7800.000
G1 F1800.000 E1.00000
G1 X-9.504 Y-9.091 F1800.000 E1.11848
G1 X-9.416 Y-9.416 E1.12945
G1 X-9.047 Y-9.781 F7800.000
G1 F1800.000 E0.12945
G92 E0
G1 X-9.503 Y-5.455 F7800.000
G1 F1800.000 E1.00000
G1 X-9.503 Y-5.195 F1800.000 E1.00846
G1 X-9.501 Y2.338 E1.25389
G1 X-9.502 Y4.416 E1.32159
G1 X-9.504 Y9.091 E1.47392
G1 X-9.416 Y9.416 E1.48489
G1 X-9.091 Y9.504 E1.49586
G1 X0.519 Y9.500 E1.80899
G1 X8.052 Y9.504 E2.05441
G1 X9.416 Y9.416 F7800.000
G1 X9.610 Y9.610 F1800.000 E2.06338
G1 X9.745 Y10.112 F7800.000
G1 F1800.000 E1.06338
G92 E0
G1 X9.416 Y-9.416 F7800.000
G1 F1800.000 E1.00000
G1 X9.610 Y-9.610 F1800.000 E1.00897
G1 X9.610 Y-9.610
G1 X9.610 Y-9.610 F7800.000
G1 F1800.000 E0.00897
G92 E0
G1 X-9.610 Y9.610 F7800.000
G1 F1800.000 E1.00000
G1 X-9.416 Y9.416 F1800.000 E1.00897
G1 F1800.000 E0.00897
G92 E0
G1 Z2.800 F7800.000
G1 X8.052 Y9.504
G1 F1800.000 E1.00000
G1 X9.351 Y9.447 F1800.000 E1.04236
G1 X9.504 Y9.091 E1.05499
G1 X9.504 Y-9.091 E1.64739
G1 X9.416 Y-9.416 E1.65836
G1 X9.091 Y-9.504 E1.66933
G1 X-9.091 Y-9.504 E2.26173
G1 X-9.416 Y-9.416 E2.27270
G1 X-9.610 Y-9.610 E2.28167
G1 X-9.745 Y-10.112 F7800.000
G1 F1800.000 E1.28167
G92 E0
G1 X-9.503 Y-5.455 F7800.000
G1 F1800.000 E1.00000
G1 X-9.504 Y-9.091 F1800.000 E1.11848
G1 X-9.416 Y-9.416 E1.12945
G1 X-9.047 Y-9.781 F7800.000
G1 F1800.000 E0.12945
G92 E0
G1 X-9.503 Y-5.455 F7800.000
G1 F1800.000 E1.00000
G1 X-9.503 Y-5.195 F1800.000 E1.00846
G1 X-9.501 Y2.338 E1.25389
G1 X-9.502 Y4.416 E1.32159
G1 X-9.504 Y9.091 E1.47392
G1 X-9.416 Y9.416 E1.48489
G1 X-9.091 Y9.504 E1.49586
G1 X0.519 Y9.500 E1.80899
G1 X8.052 Y9.504 E2.05441
G1 X9.416 Y9.416 F7800.000
G1 X9.610 Y9.610 F1800.000 E2.06338
G1 X9.745 Y10.112 F7800.000
G1 F1800.000 E1.06338
G92 E0
G1 X9.416 Y-9.416 F7800.000
G1 F1800.000 E1.00000
G1 X9.610 Y-9.610 F1800.000 E1.00897
G1 X9.610 Y-9.610
G1 X9.610 Y-9.610 F7800.000
G1 F1800.000 E0.00897
G92 E0
G1 X-9.610 Y9.610 F7800.000
G1 F1800.000 E1.00000
G1 X-9.416 Y9.416 F1800.000 E1.00897
G1 F1800.000 E0.00897
G92 E0
G1 Z3.200 F7800.000
G1 X8.052 Y9.504
G1 F1800.000 E1.00000
G1 X9.351 Y9.447 F1800.000 E1.04236
G1 X9.504 Y9.091 E1.05499
G1 X9.504 Y-9.091 E1.64739
G1 X9.416 Y-9.416 E1.65836
G1 X9.091 Y-9.504 E1.66933
G1 X-9.091 Y-9.504 E2.26173
G1 X-9.416 Y-9.416 E2.27270
G1 X-9.610 Y-9.610 E2.28167
G1 X-9.745 Y-10.112 F7800.000
G1 F1800.000 E1.28167
G92 E0
G1 X-9.503 Y-5.455 F7800.000
G1 F1800.000 E1.00000
G1 X-9.504 Y-9.091 F1800.000 E1.11848
G1 X-9.416 Y-9.416 E1.12945
G1 X-9.047 Y-9.781 F7800.000
G1 F1800.000 E0.12945
G92 E0
G1 X-9.503 Y-5.455 F7800.000
G1 F1800.000 E1.00000
G1 X-9.503 Y-5.195 F1800.000 E1.00846
G1 X-9.501 Y2.338 E1.25389
G1 X-9.502 Y4.416 E1.32159
G1 X-9.504 Y9.091 E1.47392
G1 X-9.416 Y9.416 E1.48489
G1 X-9.091 Y9.504 E1.49586
G1 X0.519 Y9.500 E1.80899
G1 X8.052 Y9.504 E2.05441
G1 X9.416 Y9.416 F7800.000
G1 X9.610 Y9.610 F1800.000 E2.06338
G1 X9.745 Y10.112 F7800.000
G1 F1800.000 E1.06338
G92 E0
G1 X9.416 Y-9.416 F7800.000
G1 F1800.000 E1.00000
G1 X9.610 Y-9.610 F1800.000 E1.00897
G1 X9.610 Y-9.610
G1 X9.610 Y-9.610 F7800.000
G1 F1800.000 E0.00897
G92 E0
G1 X-9.610 Y9.610 F7800.000
G1 F1800.000 E1.00000
G1 X-9.416 Y9.416 F1800.000 E1.00897
G1 F1800.000 E0.00897
G92 E0
G1 Z3.600 F7800.000
G1 X8.052 Y9.504
G1 F1800.000 E1.00000
G1 X9.351 Y9.447 F1800.000 E1.04236
G1 X9.504 Y9.091 E1.05499
G1 X9.504 Y-9.091 E1.64739
G1 X9.416 Y-9.416 E1.65836
G1 X9.091 Y-9.504 E1.66933
G1 X-9.091 Y-9.504 E2.26173
G1 X-9.416 Y-9.416 E2.27270
G1 X-9.610 Y-9.610 E2.28167
G1 X-9.745 Y-10.112 F7800.000
G1 F1800.000 E1.28167
G92 E0
G1 X-9.503 Y-5.455 F7800.000
G1 F1800.000 E1.00000
G1 X-9.504 Y-9.091 F1800.000 E1.11848
G1 X-9.416 Y-9.416 E1.12945
G1 X-9.047 Y-9.781 F7800.000
G1 F1800.000 E0.12945
G92 E0
G1 X-9.503 Y-5.455 F7800.000
G1 F1800.000 E1.00000
G1 X-9.503 Y-5.195 F1800.000 E1.00846
G1 X-9.501 Y2.338 E1.25389
G1 X-9.502 Y4.416 E1.32159
G1 X-9.504 Y9.091 E1.47392
G1 X-9.416 Y9.416 E1.48489
G1 X-9.091 Y9.504 E1.49586
G1 X0.519 Y9.500 E1.80899
G1 X8.052 Y9.504 E2.05441
G1 X9.416 Y9.416 F7800.000
G1 X9.610 Y9.610 F1800.000 E2.06338
G1 X9.745 Y10.112 F7800.000
G1 F1800.000 E1.06338
G92 E0
G1 X9.416 Y-9.416 F7800.000
G1 F1800.000 E1.00000
G1 X9.610 Y-9.610 F1800.000 E1.00897
G1 X9.610 Y-9.610
G1 X9.610 Y-9.610 F7800.000
G1 F1800.000 E0.00897
